(G-CODE GENERATED BY FLATCAM v8.994 - www.flatcam.org - Version Date: 2020/11/7)

(Name: bq24160-F_Cu.gbr_iso_combined_cnc)
(Type: G-code from Geometry)
(Units: MM)

(Created on Wednesday, 09 February 2022 at 22:29)

(This preprocessor is the default preprocessor used by FlatCAM.)
(It is made to work with MACH3 compatible motion controllers.)

(TOOL DIAMETER: 0.1748 mm)
(Feedrate_XY: 120.0 mm/min)
(Feedrate_Z: 60.0 mm/min)
(Feedrate rapids 1500.0 mm/min)

(Z_Cut: 0.0 mm)
(Z_Move: 2.0 mm)
(Z Start: None mm)
(Z End: 15.0 mm)
(X,Y End: None mm)
(Steps per circle: 64)
(Preprocessor Geometry: default)

(X range:   70.4705 ...  119.5295  mm)
(Y range: -119.5295 ...  -70.4705  mm)

(Spindle Speed: 800.0 RPM)
G21
G90
G94

G01 F120.00

M5
G00 Z15.0000
G00 X0.0000 Y0.0000
T1
M6    
(MSG, Change to Tool Dia = 0.1748)
M0
G00 Z15.0000

M03 S800.0
G01 F120.00
G00 X70.4705 Y-70.6850
G01 F60.00
G01 Z0.0000
G01 F120.00
G01 X70.4705 Y-119.3150
G01 X70.4716 Y-119.3360
G01 X70.4747 Y-119.3568
G01 X70.4798 Y-119.3773
G01 X70.4869 Y-119.3971
G01 X70.4959 Y-119.4161
G01 X70.5067 Y-119.4341
G01 X70.5192 Y-119.4511
G01 X70.5334 Y-119.4666
G01 X70.5489 Y-119.4808
G01 X70.5659 Y-119.4933
G01 X70.5839 Y-119.5041
G01 X70.6029 Y-119.5131
G01 X70.6227 Y-119.5202
G01 X70.6432 Y-119.5253
G01 X70.6640 Y-119.5284
G01 X70.6850 Y-119.5295
G01 X119.3150 Y-119.5295
G01 X119.3360 Y-119.5284
G01 X119.3568 Y-119.5253
G01 X119.3773 Y-119.5202
G01 X119.3971 Y-119.5131
G01 X119.4158 Y-119.5043
G01 X119.4343 Y-119.4932
G01 X119.4511 Y-119.4808
G01 X119.4666 Y-119.4666
G01 X119.4808 Y-119.4511
G01 X119.4928 Y-119.4350
G01 X119.5041 Y-119.4161
G01 X119.5132 Y-119.3969
G01 X119.5202 Y-119.3773
G01 X119.5253 Y-119.3572
G01 X119.5284 Y-119.3364
G01 X119.5295 Y-119.3150
G01 X119.5295 Y-70.6850
G01 X119.5284 Y-70.6640
G01 X119.5253 Y-70.6432
G01 X119.5202 Y-70.6227
G01 X119.5131 Y-70.6029
G01 X119.5041 Y-70.5839
G01 X119.4933 Y-70.5659
G01 X119.4808 Y-70.5489
G01 X119.4666 Y-70.5334
G01 X119.4511 Y-70.5192
G01 X119.4341 Y-70.5067
G01 X119.4161 Y-70.4959
G01 X119.3971 Y-70.4869
G01 X119.3773 Y-70.4798
G01 X119.3568 Y-70.4747
G01 X119.3360 Y-70.4716
G01 X119.3150 Y-70.4705
G01 X70.6850 Y-70.4705
G01 X70.6640 Y-70.4716
G01 X70.6432 Y-70.4747
G01 X70.6227 Y-70.4798
G01 X70.6029 Y-70.4869
G01 X70.5839 Y-70.4959
G01 X70.5659 Y-70.5067
G01 X70.5489 Y-70.5192
G01 X70.5334 Y-70.5334
G01 X70.5192 Y-70.5489
G01 X70.5067 Y-70.5659
G01 X70.4959 Y-70.5839
G01 X70.4869 Y-70.6029
G01 X70.4798 Y-70.6227
G01 X70.4747 Y-70.6432
G01 X70.4716 Y-70.6640
G01 X70.4705 Y-70.6850
G00 Z2.0000
G00 X78.7661 Y-74.1632
G01 F60.00
G01 Z0.0000
G01 F120.00
G01 X78.8717 Y-74.1000
G01 X79.0086 Y-74.0352
G01 X79.0165 Y-74.0319
G01 X79.1592 Y-73.9810
G01 X79.3061 Y-73.9440
G01 X79.3145 Y-73.9424
G01 X79.4644 Y-73.9202
G01 X79.6200 Y-73.9126
G01 X79.7756 Y-73.9202
G01 X79.9255 Y-73.9424
G01 X79.9339 Y-73.9440
G01 X80.0808 Y-73.9810
G01 X80.2235 Y-74.0319
G01 X80.2314 Y-74.0352
G01 X80.3683 Y-74.1000
G01 X80.4739 Y-74.1632
G01 X80.6716 Y-73.9655
G01 X80.6153 Y-73.8516
G01 X80.3228 Y-73.7027
G01 X79.9586 Y-73.6001
G01 X79.5815 Y-73.5706
G01 X79.2058 Y-73.6151
G01 X78.8440 Y-73.7328
G01 X78.6257 Y-73.8495
G01 X78.5684 Y-73.9655
G01 X78.7661 Y-74.1632
G00 Z2.0000
G00 X78.0408 Y-75.6598
G01 F60.00
G01 Z0.0000
G01 F120.00
G01 X78.0399 Y-75.6513
G01 X78.0327 Y-75.5043
G01 X78.0327 Y-75.4957
G01 X78.0402 Y-75.3444
G01 X78.0624 Y-75.1945
G01 X78.0640 Y-75.1861
G01 X78.1010 Y-75.0392
G01 X78.1534 Y-74.8925
G01 X78.2200 Y-74.7517
G01 X78.2832 Y-74.6461
G01 X78.0855 Y-74.4484
G01 X77.9716 Y-74.5047
G01 X77.8227 Y-74.7972
G01 X77.7201 Y-75.1614
G01 X77.6906 Y-75.5385
G01 X77.7351 Y-75.9142
G01 X77.8528 Y-76.2760
G01 X77.9695 Y-76.4943
G01 X78.0855 Y-76.5516
G01 X78.2832 Y-76.3539
G01 X78.2200 Y-76.2483
G01 X78.1552 Y-76.1114
G01 X78.1519 Y-76.1035
G01 X78.1023 Y-75.9649
G01 X78.0998 Y-75.9567
G01 X78.0631 Y-75.8097
G01 X78.0408 Y-75.6598
G00 Z2.0000
G00 X78.7661 Y-76.8368
G01 F60.00
G01 Z0.0000
G01 F120.00
G01 X78.5684 Y-77.0345
G01 X78.6247 Y-77.1484
G01 X78.9172 Y-77.2973
G01 X79.2814 Y-77.3999
G01 X79.6585 Y-77.4294
G01 X80.0342 Y-77.3849
G01 X80.3960 Y-77.2672
G01 X80.6143 Y-77.1505
G01 X80.6716 Y-77.0345
G01 X80.4739 Y-76.8368
G01 X80.3683 Y-76.9000
G01 X80.2314 Y-76.9648
G01 X80.2235 Y-76.9681
G01 X80.0808 Y-77.0190
G01 X79.9339 Y-77.0560
G01 X79.9255 Y-77.0576
G01 X79.7756 Y-77.0798
G01 X79.6200 Y-77.0874
G01 X79.4644 Y-77.0798
G01 X79.3145 Y-77.0576
G01 X79.3061 Y-77.0560
G01 X79.1592 Y-77.0190
G01 X79.0165 Y-76.9681
G01 X79.0086 Y-76.9648
G01 X78.8717 Y-76.9000
G01 X78.7661 Y-76.8368
G00 Z2.0000
G00 X80.9568 Y-76.3539
G01 F60.00
G01 Z0.0000
G01 F120.00
G01 X81.1545 Y-76.5516
G01 X81.2669 Y-76.4961
G01 X81.2859 Y-76.4878
G01 X81.3056 Y-76.4814
G01 X81.3258 Y-76.4769
G01 X81.3464 Y-76.4744
G01 X81.3650 Y-76.4739
G01 X81.3878 Y-76.4754
G01 X81.4082 Y-76.4789
G01 X81.4282 Y-76.4843
G01 X81.4456 Y-76.4909
G01 X81.4514 Y-76.4935
G01 X81.4662 Y-76.5009
G01 X81.4802 Y-76.5095
G01 X81.4855 Y-76.5130
G01 X81.4969 Y-76.5218
G01 X81.5018 Y-76.5258
G01 X81.5139 Y-76.5370
G01 X81.5278 Y-76.5524
G01 X81.5389 Y-76.5673
G01 X81.5435 Y-76.5744
G01 X81.5518 Y-76.5886
G01 X81.5597 Y-76.6055
G01 X81.5680 Y-76.6290
G01 X81.5724 Y-76.6471
G01 X81.5749 Y-76.6634
G01 X81.5756 Y-76.6697
G01 X81.5764 Y-76.6883
G01 X81.5764 Y-76.9895
G01 X81.5855 Y-77.0824
G01 X81.6096 Y-77.1617
G01 X81.6486 Y-77.2348
G01 X81.7012 Y-77.2988
G01 X81.7652 Y-77.3514
G01 X81.8383 Y-77.3904
G01 X81.9176 Y-77.4145
G01 X82.0105 Y-77.4236
G01 X84.0329 Y-77.4236
G01 X84.0540 Y-77.4246
G01 X84.0706 Y-77.4270
G01 X84.0790 Y-77.4287
G01 X84.0972 Y-77.4335
G01 X84.1150 Y-77.4399
G01 X84.1302 Y-77.4470
G01 X84.1359 Y-77.4500
G01 X84.1521 Y-77.4598
G01 X84.1673 Y-77.4709
G01 X84.1722 Y-77.4751
G01 X84.1846 Y-77.4864
G01 X84.4541 Y-77.7560
G01 X84.4683 Y-77.7716
G01 X84.4796 Y-77.7867
G01 X84.4831 Y-77.7921
G01 X84.4916 Y-77.8065
G01 X84.4989 Y-77.8216
G01 X84.5014 Y-77.8276
G01 X84.5077 Y-77.8454
G01 X84.5124 Y-77.8637
G01 X84.5136 Y-77.8700
G01 X84.5159 Y-77.8866
G01 X84.5170 Y-77.9076
G01 X84.5170 Y-82.7149
G01 X84.5161 Y-82.7338
G01 X84.5136 Y-82.7526
G01 X84.5119 Y-82.7610
G01 X84.5077 Y-82.7772
G01 X84.5006 Y-82.7970
G01 X84.4926 Y-82.8141
G01 X84.4895 Y-82.8198
G01 X84.4808 Y-82.8341
G01 X84.4683 Y-82.8510
G01 X84.4556 Y-82.8651
G01 X84.4510 Y-82.8696
G01 X84.4386 Y-82.8807
G01 X84.4216 Y-82.8933
G01 X84.4055 Y-82.9031
G01 X84.3998 Y-82.9060
G01 X84.3846 Y-82.9131
G01 X84.3648 Y-82.9202
G01 X84.3443 Y-82.9253
G01 X84.3235 Y-82.9284
G01 X84.3025 Y-82.9294
G01 X84.2793 Y-82.9281
G01 X84.2607 Y-82.9253
G01 X84.2423 Y-82.9208
G01 X84.2224 Y-82.9139
G01 X84.2148 Y-82.9105
G01 X84.1324 Y-82.8855
G01 X84.0411 Y-82.8766
G01 X83.9384 Y-82.8781
G01 X83.9040 Y-82.9126
G01 X83.9040 Y-83.2274
G01 X83.9330 Y-83.2378
G01 X83.9585 Y-83.2498
G01 X83.9661 Y-83.2538
G01 X83.9902 Y-83.2684
G01 X84.0129 Y-83.2851
G01 X84.0196 Y-83.2906
G01 X84.0404 Y-83.3096
G01 X84.0594 Y-83.3304
G01 X84.0649 Y-83.3371
G01 X84.0828 Y-83.3616
G01 X84.0983 Y-83.3876
G01 X84.1105 Y-83.4131
G01 X84.1137 Y-83.4210
G01 X84.1231 Y-83.4476
G01 X84.1301 Y-83.4750
G01 X84.1318 Y-83.4834
G01 X84.1358 Y-83.5113
G01 X84.1374 Y-83.5438
G01 X84.1374 Y-84.4562
G01 X84.1361 Y-84.4844
G01 X84.1353 Y-84.4930
G01 X84.1310 Y-84.5209
G01 X84.1231 Y-84.5524
G01 X84.1122 Y-84.5830
G01 X84.1002 Y-84.6085
G01 X84.0973 Y-84.6142
G01 X84.0839 Y-84.6366
G01 X84.0791 Y-84.6437
G01 X84.0622 Y-84.6663
G01 X84.0404 Y-84.6904
G01 X84.0163 Y-84.7122
G01 X83.9937 Y-84.7291
G01 X83.9866 Y-84.7339
G01 X83.9642 Y-84.7473
G01 X83.9585 Y-84.7502
G01 X83.9330 Y-84.7622
G01 X83.9040 Y-84.7726
G01 X83.9040 Y-85.0874
G01 X83.9384 Y-85.1219
G01 X84.0411 Y-85.1234
G01 X84.1324 Y-85.1145
G01 X84.2117 Y-85.0904
G01 X84.2848 Y-85.0514
G01 X84.3488 Y-84.9988
G01 X84.3992 Y-84.9374
G01 X84.4118 Y-84.9233
G01 X84.4289 Y-84.9077
G01 X84.4476 Y-84.8939
G01 X84.4639 Y-84.8843
G01 X84.4790 Y-84.8770
G01 X84.4869 Y-84.8738
G01 X84.5048 Y-84.8676
G01 X84.5232 Y-84.8631
G01 X84.5418 Y-84.8602
G01 X84.5607 Y-84.8591
G01 X84.5693 Y-84.8591
G01 X84.5860 Y-84.8600
G01 X84.6026 Y-84.8624
G01 X84.6089 Y-84.8635
G01 X84.6252 Y-84.8676
G01 X84.6471 Y-84.8753
G01 X84.6680 Y-84.8853
G01 X84.6841 Y-84.8951
G01 X84.7010 Y-84.9077
G01 X84.7151 Y-84.9203
G01 X84.7198 Y-84.9251
G01 X84.8236 Y-85.0103
G01 X84.9388 Y-85.0718
G01 X85.0638 Y-85.1098
G01 X85.2043 Y-85.1236
G01 X85.6579 Y-85.1236
G01 X85.6768 Y-85.1245
G01 X85.7019 Y-85.1282
G01 X85.7202 Y-85.1328
G01 X85.7360 Y-85.1384
G01 X85.7420 Y-85.1408
G01 X85.7590 Y-85.1489
G01 X85.7789 Y-85.1610
G01 X85.7940 Y-85.1723
G01 X85.8096 Y-85.1864
G01 X90.1395 Y-89.5165
G01 X90.1507 Y-89.5289
G01 X90.1607 Y-89.5423
G01 X90.1644 Y-89.5476
G01 X90.1719 Y-89.5602
G01 X90.1750 Y-89.5658
G01 X90.1830 Y-89.5829
G01 X90.1901 Y-89.6027
G01 X90.1948 Y-89.6211
G01 X90.1959 Y-89.6274
G01 X90.1983 Y-89.6440
G01 X90.1992 Y-89.6607
G01 X90.1993 Y-89.6671
G01 X90.1983 Y-89.6860
G01 X90.1952 Y-89.7068
G01 X90.1907 Y-89.7252
G01 X90.1888 Y-89.7313
G01 X90.1830 Y-89.7471
G01 X90.1759 Y-89.7623
G01 X90.1730 Y-89.7680
G01 X90.1632 Y-89.7841
G01 X90.1500 Y-89.8019
G01 X90.1499 Y-89.8259
G01 X90.1491 Y-89.8426
G01 X90.1458 Y-89.8656
G01 X90.1413 Y-89.8839
G01 X90.1394 Y-89.8901
G01 X90.1336 Y-89.9058
G01 X90.1256 Y-89.9229
G01 X90.1161 Y-89.9393
G01 X90.1113 Y-89.9464
G01 X90.1013 Y-89.9598
G01 X90.0871 Y-89.9754
G01 X90.0732 Y-89.9881
G01 X90.0682 Y-89.9922
G01 X90.0546 Y-90.0021
G01 X90.0385 Y-90.0119
G01 X90.0176 Y-90.0219
G01 X89.9978 Y-90.0290
G01 X89.9773 Y-90.0341
G01 X89.9565 Y-90.0372
G01 X89.9355 Y-90.0382
G01 X89.9145 Y-90.0372
G01 X89.8937 Y-90.0341
G01 X89.8732 Y-90.0290
G01 X89.8534 Y-90.0219
G01 X89.8344 Y-90.0129
G01 X89.8163 Y-90.0021
G01 X89.7994 Y-89.9895
G01 X89.7838 Y-89.9754
G01 X89.6866 Y-89.8781
G01 X89.5839 Y-89.8766
G01 X89.4926 Y-89.8855
G01 X89.4133 Y-89.9096
G01 X89.3402 Y-89.9486
G01 X89.2762 Y-90.0012
G01 X89.2236 Y-90.0652
G01 X89.1846 Y-90.1383
G01 X89.1605 Y-90.2176
G01 X89.1515 Y-90.3097
G01 X89.1538 Y-90.6248
G01 X89.1876 Y-90.6585
G01 X89.4876 Y-90.6585
G01 X89.4876 Y-90.5416
G01 X89.4892 Y-90.5113
G01 X89.4936 Y-90.4813
G01 X89.5019 Y-90.4476
G01 X89.5128 Y-90.4170
G01 X89.5267 Y-90.3876
G01 X89.5411 Y-90.3634
G01 X89.5459 Y-90.3563
G01 X89.5628 Y-90.3337
G01 X89.5846 Y-90.3096
G01 X89.6087 Y-90.2878
G01 X89.6348 Y-90.2684
G01 X89.6626 Y-90.2517
G01 X89.6920 Y-90.2378
G01 X89.7226 Y-90.2269
G01 X89.7541 Y-90.2190
G01 X89.7863 Y-90.2142
G01 X89.8188 Y-90.2126
G01 X90.3062 Y-90.2126
G01 X90.3344 Y-90.2139
G01 X90.3430 Y-90.2147
G01 X90.3709 Y-90.2190
G01 X90.4024 Y-90.2269
G01 X90.4330 Y-90.2378
G01 X90.4624 Y-90.2517
G01 X90.4902 Y-90.2684
G01 X90.5163 Y-90.2878
G01 X90.5404 Y-90.3096
G01 X90.5609 Y-90.3320
G01 X90.5791 Y-90.3563
G01 X90.5839 Y-90.3634
G01 X90.5983 Y-90.3876
G01 X90.6122 Y-90.4170
G01 X90.6231 Y-90.4476
G01 X90.6301 Y-90.4750
G01 X90.6318 Y-90.4834
G01 X90.6360 Y-90.5134
G01 X90.6374 Y-90.5438
G01 X90.6374 Y-91.4562
G01 X90.6358 Y-91.4887
G01 X90.6310 Y-91.5209
G01 X90.6243 Y-91.5482
G01 X90.6218 Y-91.5564
G01 X90.6122 Y-91.5830
G01 X90.5983 Y-91.6124
G01 X90.5839 Y-91.6366
G01 X90.5791 Y-91.6437
G01 X90.5622 Y-91.6663
G01 X90.5434 Y-91.6873
G01 X90.5373 Y-91.6934
G01 X90.5163 Y-91.7122
G01 X90.4902 Y-91.7316
G01 X90.4661 Y-91.7462
G01 X90.4585 Y-91.7502
G01 X90.4330 Y-91.7622
G01 X90.4040 Y-91.7726
G01 X90.4040 Y-92.0874
G01 X90.4384 Y-92.1219
G01 X90.5411 Y-92.1234
G01 X90.6324 Y-92.1145
G01 X90.7117 Y-92.0904
G01 X90.7848 Y-92.0514
G01 X90.8488 Y-91.9988
G01 X90.9006 Y-91.9357
G01 X90.9133 Y-91.9218
G01 X90.9257 Y-91.9105
G01 X90.9323 Y-91.9050
G01 X90.9476 Y-91.8939
G01 X90.9639 Y-91.8843
G01 X90.9790 Y-91.8770
G01 X90.9849 Y-91.8745
G01 X91.0007 Y-91.8689
G01 X91.0211 Y-91.8635
G01 X91.0440 Y-91.8600
G01 X91.0628 Y-91.8590
G01 X91.0860 Y-91.8600
G01 X91.1068 Y-91.8631
G01 X91.1273 Y-91.8682
G01 X91.1451 Y-91.8745
G01 X91.1680 Y-91.8853
G01 X91.1841 Y-91.8951
G01 X91.1977 Y-91.9050
G01 X91.2027 Y-91.9090
G01 X91.2135 Y-91.9188
G01 X91.2198 Y-91.9251
G01 X91.2911 Y-91.9837
G01 X91.3051 Y-91.9965
G01 X91.3192 Y-92.0120
G01 X91.3318 Y-92.0289
G01 X91.3415 Y-92.0451
G01 X91.3524 Y-92.0680
G01 X91.3587 Y-92.0858
G01 X91.3628 Y-92.1021
G01 X91.3642 Y-92.1084
G01 X91.3666 Y-92.1249
G01 X91.3752 Y-92.2118
G01 X91.4078 Y-92.3194
G01 X91.4608 Y-92.4185
G01 X91.5321 Y-92.5054
G01 X91.5474 Y-92.5179
G01 X91.5613 Y-92.5307
G01 X91.7193 Y-92.6887
G01 X91.7321 Y-92.7026
G01 X91.7446 Y-92.7179
G01 X91.8315 Y-92.7892
G01 X91.9306 Y-92.8422
G01 X92.0382 Y-92.8748
G01 X92.1500 Y-92.8858
G01 X92.1697 Y-92.8839
G01 X92.1886 Y-92.8830
G01 X92.4650 Y-92.8830
G01 X92.4882 Y-92.8843
G01 X92.5068 Y-92.8872
G01 X92.5252 Y-92.8917
G01 X92.5431 Y-92.8978
G01 X92.5510 Y-92.9011
G01 X92.5661 Y-92.9084
G01 X92.5841 Y-92.9192
G01 X92.6011 Y-92.9317
G01 X92.6135 Y-92.9429
G01 X92.6181 Y-92.9474
G01 X92.6280 Y-92.9582
G01 X92.6334 Y-92.9648
G01 X92.6445 Y-92.9801
G01 X92.6531 Y-92.9945
G01 X92.6561 Y-93.0002
G01 X92.6631 Y-93.0154
G01 X92.6702 Y-93.0352
G01 X92.6753 Y-93.0557
G01 X92.6784 Y-93.0765
G01 X92.6795 Y-93.0975
G01 X92.6795 Y-93.5629
G01 X92.6875 Y-93.5626
G01 X92.8168 Y-93.5627
G01 X92.8272 Y-93.5633
G01 X92.8396 Y-93.5651
G01 X92.8581 Y-93.5697
G01 X92.8718 Y-93.5749
G01 X92.8850 Y-93.5813
G01 X92.8975 Y-93.5891
G01 X92.9108 Y-93.5994
G01 X92.9185 Y-93.6065
G01 X92.9256 Y-93.6142
G01 X92.9347 Y-93.6257
G01 X92.9437 Y-93.6400
G01 X92.9501 Y-93.6532
G01 X92.9553 Y-93.6669
G01 X92.9591 Y-93.6812
G01 X92.9614 Y-93.6957
G01 X92.9624 Y-93.7104
G01 X92.9625 Y-94.3881
G01 X92.9766 Y-94.4070
G01 X92.9884 Y-94.4267
G01 X92.9954 Y-94.4417
G01 X92.9978 Y-94.4477
G01 X93.0033 Y-94.4633
G01 X93.0076 Y-94.4802
G01 X93.1400 Y-94.6126
G01 X95.0504 Y-94.6126
G01 X95.0792 Y-94.6139
G01 X95.0877 Y-94.6147
G01 X95.1161 Y-94.6191
G01 X95.1462 Y-94.6265
G01 X95.1794 Y-94.6383
G01 X95.2093 Y-94.6524
G01 X95.2376 Y-94.6694
G01 X95.2608 Y-94.6865
G01 X95.2674 Y-94.6919
G01 X95.2872 Y-94.7098
G01 X95.2917 Y-94.7144
G01 X95.3109 Y-94.7358
G01 X95.3281 Y-94.7589
G01 X95.3329 Y-94.7660
G01 X95.3476 Y-94.7907
G01 X95.3609 Y-94.8187
G01 X95.3729 Y-94.8518
G01 X95.3800 Y-94.8797
G01 X95.3817 Y-94.8881
G01 X95.3855 Y-94.9144
G01 X95.3861 Y-94.9208
G01 X95.3874 Y-94.9496
G01 X95.3874 Y-95.2563
G01 X95.4376 Y-95.2715
G01 X95.4376 Y-95.1875
G01 X95.4383 Y-95.1728
G01 X95.4405 Y-95.1583
G01 X95.4435 Y-95.1460
G01 X95.4482 Y-95.1321
G01 X95.4534 Y-95.1207
G01 X95.4617 Y-95.1060
G01 X95.4703 Y-95.0941
G01 X95.4815 Y-95.0815
G01 X95.4924 Y-95.0716
G01 X95.5042 Y-95.0629
G01 X95.5168 Y-95.0553
G01 X95.5301 Y-95.0490
G01 X95.5460 Y-95.0435
G01 X95.5583 Y-95.0405
G01 X95.5685 Y-95.0388
G01 X95.5749 Y-95.0381
G01 X95.5875 Y-95.0376
G01 X96.2896 Y-95.0376
G01 X96.3022 Y-95.0383
G01 X96.3125 Y-95.0397
G01 X96.3188 Y-95.0409
G01 X96.3310 Y-95.0441
G01 X96.3468 Y-95.0499
G01 X96.3582 Y-95.0553
G01 X96.3672 Y-95.0606
G01 X96.3725 Y-95.0641
G01 X96.3826 Y-95.0716
G01 X96.3950 Y-95.0830
G01 X96.4034 Y-95.0924
G01 X96.4097 Y-95.1007
G01 X96.4133 Y-95.1060
G01 X96.4197 Y-95.1168
G01 X96.4260 Y-95.1301
G01 X96.4309 Y-95.1440
G01 X96.4345 Y-95.1583
G01 X96.4369 Y-95.1749
G01 X96.4374 Y-95.1875
G01 X96.4374 Y-95.3125
G01 X96.4371 Y-95.3205
G01 X96.8098 Y-95.3207
G01 X96.8275 Y-95.3217
G01 X96.8495 Y-95.3251
G01 X96.8710 Y-95.3309
G01 X96.8919 Y-95.3388
G01 X96.8976 Y-95.3364
G01 X96.9135 Y-95.3306
G01 X96.9341 Y-95.3252
G01 X96.9572 Y-95.3216
G01 X96.9763 Y-95.3206
G01 X97.7114 Y-95.3205
G01 X97.7303 Y-95.3214
G01 X97.7500 Y-95.3233
G01 X97.8618 Y-95.3123
G01 X97.9694 Y-95.2797
G01 X98.0685 Y-95.2267
G01 X98.1276 Y-95.1782
G01 X98.1428 Y-95.1670
G01 X98.1609 Y-95.1562
G01 X98.1799 Y-95.1472
G01 X98.1956 Y-95.1415
G01 X98.2578 Y-95.1225
G01 X98.3743 Y-95.0602
G01 X98.4764 Y-94.9764
G01 X98.5602 Y-94.8743
G01 X98.6225 Y-94.7578
G01 X98.6608 Y-94.6314
G01 X98.6705 Y-94.5329
G01 X98.6705 Y-91.0582
G01 X98.6714 Y-91.0393
G01 X98.6721 Y-91.0329
G01 X98.6747 Y-91.0164
G01 X98.6786 Y-91.0001
G01 X98.6804 Y-90.9939
G01 X98.6869 Y-90.9761
G01 X98.6959 Y-90.9571
G01 X98.7067 Y-90.9391
G01 X98.7179 Y-90.9238
G01 X98.7978 Y-90.8264
G01 X98.8215 Y-90.7820
G01 X98.8302 Y-90.7676
G01 X98.8439 Y-90.7489
G01 X98.8565 Y-90.7349
G01 X98.8703 Y-90.7220
G01 X98.8770 Y-90.7166
G01 X98.8905 Y-90.7067
G01 X98.9086 Y-90.6959
G01 X98.9256 Y-90.6877
G01 X98.9316 Y-90.6853
G01 X98.9474 Y-90.6798
G01 X98.9657 Y-90.6751
G01 X98.9886 Y-90.6716
G01 X99.0097 Y-90.6705
G01 X99.9565 Y-90.6705
G01 X99.9754 Y-90.6714
G01 X100.0000 Y-90.6738
G01 X100.1314 Y-90.6608
G01 X100.2578 Y-90.6225
G01 X100.3743 Y-90.5602
G01 X100.4764 Y-90.4764
G01 X100.4921 Y-90.4573
G01 X100.5049 Y-90.4434
G01 X101.4434 Y-89.5049
G01 X101.4574 Y-89.4921
G01 X101.4764 Y-89.4764
G01 X101.5602 Y-89.3743
G01 X101.6225 Y-89.2578
G01 X101.6608 Y-89.1314
G01 X101.6738 Y-89.0000
G01 X101.6714 Y-88.9754
G01 X101.6705 Y-88.9565
G01 X101.6705 Y-81.3666
G01 X101.6716 Y-81.3456
G01 X101.6739 Y-81.3290
G01 X101.6756 Y-81.3206
G01 X101.6804 Y-81.3023
G01 X101.6877 Y-81.2825
G01 X101.6949 Y-81.2674
G01 X101.6980 Y-81.2617
G01 X101.7067 Y-81.2474
G01 X101.7166 Y-81.2339
G01 X101.7206 Y-81.2289
G01 X101.7319 Y-81.2165
G01 X102.5018 Y-80.4465
G01 X102.5158 Y-80.4337
G01 X102.5208 Y-80.4297
G01 X102.5343 Y-80.4198
G01 X102.5505 Y-80.4100
G01 X102.5734 Y-80.3992
G01 X102.5912 Y-80.3929
G01 X102.6074 Y-80.3887
G01 X102.6137 Y-80.3874
G01 X102.6325 Y-80.3847
G01 X102.6556 Y-80.3837
G01 X102.6745 Y-80.3847
G01 X102.6932 Y-80.3874
G01 X102.8601 Y-80.4205
G01 X103.1399 Y-80.4205
G01 X103.4144 Y-80.3659
G01 X103.6729 Y-80.2589
G01 X103.9055 Y-80.1034
G01 X104.1034 Y-79.9055
G01 X104.2589 Y-79.6729
G01 X104.3659 Y-79.4144
G01 X104.4205 Y-79.1399
G01 X104.4205 Y-78.8601
G01 X104.3659 Y-78.5856
G01 X104.2589 Y-78.3271
G01 X104.1034 Y-78.0945
G01 X103.9055 Y-77.8966
G01 X103.6729 Y-77.7411
G01 X103.4144 Y-77.6341
G01 X103.1399 Y-77.5795
G01 X102.8601 Y-77.5795
G01 X102.5856 Y-77.6341
G01 X102.3271 Y-77.7411
G01 X102.0945 Y-77.8966
G01 X101.8966 Y-78.0945
G01 X101.7411 Y-78.3271
G01 X101.6341 Y-78.5856
G01 X101.5795 Y-78.8601
G01 X101.5795 Y-79.1399
G01 X101.6126 Y-79.3068
G01 X101.6153 Y-79.3255
G01 X101.6164 Y-79.3465
G01 X101.6155 Y-79.3654
G01 X101.6148 Y-79.3718
G01 X101.6122 Y-79.3884
G01 X101.6071 Y-79.4088
G01 X101.6008 Y-79.4266
G01 X101.5983 Y-79.4325
G01 X101.5910 Y-79.4476
G01 X101.5825 Y-79.4621
G01 X101.5790 Y-79.4674
G01 X101.5677 Y-79.4826
G01 X101.5535 Y-79.4982
G01 X100.5566 Y-80.4951
G01 X100.5426 Y-80.5079
G01 X100.5236 Y-80.5236
G01 X100.4398 Y-80.6257
G01 X100.3775 Y-80.7422
G01 X100.3392 Y-80.8686
G01 X100.3262 Y-81.0000
G01 X100.3286 Y-81.0246
G01 X100.3295 Y-81.0435
G01 X100.3295 Y-88.6334
G01 X100.3284 Y-88.6544
G01 X100.3261 Y-88.6710
G01 X100.3249 Y-88.6774
G01 X100.3202 Y-88.6957
G01 X100.3139 Y-88.7135
G01 X100.3114 Y-88.7194
G01 X100.3041 Y-88.7345
G01 X100.2945 Y-88.7508
G01 X100.2808 Y-88.7695
G01 X100.2666 Y-88.7851
G01 X99.7820 Y-89.2696
G01 X99.7695 Y-89.2808
G01 X99.7543 Y-89.2921
G01 X99.7383 Y-89.3020
G01 X99.7307 Y-89.3061
G01 X99.7155 Y-89.3131
G01 X99.6957 Y-89.3202
G01 X99.6753 Y-89.3253
G01 X99.6587 Y-89.3279
G01 X99.6523 Y-89.3286
G01 X99.6334 Y-89.3295
G01 X99.0097 Y-89.3295
G01 X98.9886 Y-89.3284
G01 X98.9720 Y-89.3261
G01 X98.9657 Y-89.3249
G01 X98.9474 Y-89.3202
G01 X98.9276 Y-89.3131
G01 X98.9105 Y-89.3051
G01 X98.9048 Y-89.3020
G01 X98.8905 Y-89.2933
G01 X98.8770 Y-89.2834
G01 X98.8720 Y-89.2794
G01 X98.8580 Y-89.2666
G01 X98.8439 Y-89.2511
G01 X98.8302 Y-89.2324
G01 X98.8215 Y-89.2180
G01 X98.7978 Y-89.1736
G01 X98.7149 Y-89.0726
G01 X98.6139 Y-88.9897
G01 X98.4987 Y-88.9282
G01 X98.3737 Y-88.8902
G01 X98.2332 Y-88.8764
G01 X97.7668 Y-88.8764
G01 X97.6263 Y-88.8902
G01 X97.5013 Y-88.9282
G01 X97.3861 Y-88.9897
G01 X97.2851 Y-89.0726
G01 X97.2283 Y-89.1418
G01 X97.2141 Y-89.1574
G01 X97.2002 Y-89.1702
G01 X97.1952 Y-89.1742
G01 X97.1816 Y-89.1841
G01 X97.1655 Y-89.1939
G01 X97.1485 Y-89.2022
G01 X97.1406 Y-89.2054
G01 X97.1248 Y-89.2110
G01 X97.1043 Y-89.2161
G01 X97.0857 Y-89.2190
G01 X97.0792 Y-89.2195
G01 X97.0625 Y-89.2202
G01 X97.0436 Y-89.2194
G01 X97.0249 Y-89.2168
G01 X97.0165 Y-89.2152
G01 X97.0002 Y-89.2110
G01 X96.9824 Y-89.2047
G01 X96.9595 Y-89.1939
G01 X96.9434 Y-89.1841
G01 X96.9298 Y-89.1742
G01 X96.9248 Y-89.1702
G01 X96.9124 Y-89.1589
G01 X96.8995 Y-89.1451
G01 X96.8399 Y-89.0726
G01 X96.7389 Y-88.9897
G01 X96.6237 Y-88.9282
G01 X96.4987 Y-88.8902
G01 X96.3582 Y-88.8764
G01 X95.8918 Y-88.8764
G01 X95.7513 Y-88.8902
G01 X95.6234 Y-88.9290
G01 X95.6151 Y-88.9327
G01 X95.5952 Y-88.9396
G01 X95.5768 Y-88.9441
G01 X95.5603 Y-88.9467
G01 X95.5517 Y-88.9475
G01 X95.5329 Y-88.9482
G01 X95.5161 Y-88.9474
G01 X95.5097 Y-88.9467
G01 X95.4932 Y-88.9441
G01 X95.4769 Y-88.9401
G01 X95.4707 Y-88.9383
G01 X95.4529 Y-88.9319
G01 X95.4339 Y-88.9229
G01 X95.4176 Y-88.9132
G01 X95.4123 Y-88.9096
G01 X95.3989 Y-88.8995
G01 X95.3865 Y-88.8884
G01 X95.3819 Y-88.8839
G01 X95.3692 Y-88.8698
G01 X95.3567 Y-88.8529
G01 X95.3469 Y-88.8367
G01 X95.3439 Y-88.8310
G01 X95.3369 Y-88.8158
G01 X95.3298 Y-88.7960
G01 X95.3251 Y-88.7777
G01 X95.3239 Y-88.7714
G01 X95.3216 Y-88.7548
G01 X95.3206 Y-88.7359
G01 X95.3205 Y-86.7002
G01 X95.3216 Y-86.6791
G01 X95.3247 Y-86.6583
G01 X95.3286 Y-86.6420
G01 X95.3311 Y-86.6338
G01 X95.3361 Y-86.6201
G01 X95.3386 Y-86.6142
G01 X95.3459 Y-86.5991
G01 X95.3567 Y-86.5810
G01 X95.3692 Y-86.5641
G01 X95.3819 Y-86.5500
G01 X95.7485 Y-86.1835
G01 X95.7610 Y-86.1723
G01 X95.7744 Y-86.1622
G01 X95.7797 Y-86.1586
G01 X95.7941 Y-86.1500
G01 X95.8150 Y-86.1399
G01 X95.8328 Y-86.1335
G01 X95.8390 Y-86.1317
G01 X95.8552 Y-86.1277
G01 X95.8718 Y-86.1252
G01 X95.8782 Y-86.1245
G01 X95.8949 Y-86.1236
G01 X96.3582 Y-86.1236
G01 X96.4987 Y-86.1098
G01 X96.6237 Y-86.0718
G01 X96.7389 Y-86.0103
G01 X96.8427 Y-85.9251
G01 X96.8474 Y-85.9203
G01 X96.8615 Y-85.9077
G01 X96.8784 Y-85.8951
G01 X96.8945 Y-85.8853
G01 X96.9154 Y-85.8753
G01 X96.9332 Y-85.8689
G01 X96.9394 Y-85.8671
G01 X96.9557 Y-85.8631
G01 X96.9722 Y-85.8605
G01 X96.9786 Y-85.8598
G01 X96.9954 Y-85.8590
G01 X97.0142 Y-85.8597
G01 X97.0228 Y-85.8605
G01 X97.0393 Y-85.8631
G01 X97.0598 Y-85.8682
G01 X97.0776 Y-85.8745
G01 X97.0835 Y-85.8770
G01 X97.0986 Y-85.8843
G01 X97.1167 Y-85.8951
G01 X97.1336 Y-85.9077
G01 X97.1507 Y-85.9233
G01 X97.1633 Y-85.9374
G01 X97.2137 Y-85.9988
G01 X97.2777 Y-86.0514
G01 X97.3508 Y-86.0904
G01 X97.4301 Y-86.1145
G01 X97.5214 Y-86.1234
G01 X97.6241 Y-86.1219
G01 X97.6585 Y-86.0874
G01 X97.6585 Y-85.7726
G01 X97.6295 Y-85.7622
G01 X97.6040 Y-85.7502
G01 X97.5964 Y-85.7462
G01 X97.5723 Y-85.7316
G01 X97.5462 Y-85.7122
G01 X97.5252 Y-85.6934
G01 X97.5191 Y-85.6873
G01 X97.5016 Y-85.6680
G01 X97.4976 Y-85.6629
G01 X97.4809 Y-85.6402
G01 X97.4642 Y-85.6124
G01 X97.4503 Y-85.5830
G01 X97.4407 Y-85.5564
G01 X97.4382 Y-85.5482
G01 X97.4319 Y-85.5230
G01 X97.4307 Y-85.5166
G01 X97.4267 Y-85.4887
G01 X97.4251 Y-85.4584
G01 X97.4251 Y-84.5438
G01 X97.4269 Y-84.5092
G01 X97.4315 Y-84.4791
G01 X97.4382 Y-84.4518
G01 X97.4407 Y-84.4436
G01 X97.4503 Y-84.4170
G01 X97.4642 Y-84.3876
G01 X97.4786 Y-84.3634
G01 X97.4834 Y-84.3563
G01 X97.5003 Y-84.3337
G01 X97.5191 Y-84.3127
G01 X97.5252 Y-84.3066
G01 X97.5462 Y-84.2878
G01 X97.5723 Y-84.2684
G01 X97.5964 Y-84.2538
G01 X97.6040 Y-84.2498
G01 X97.6295 Y-84.2378
G01 X97.6585 Y-84.2274
G01 X97.6585 Y-83.9126
G01 X97.6241 Y-83.8781
G01 X97.5214 Y-83.8766
G01 X97.4301 Y-83.8855
G01 X97.3508 Y-83.9096
G01 X97.2777 Y-83.9486
G01 X97.2137 Y-84.0012
G01 X97.1633 Y-84.0626
G01 X97.1507 Y-84.0767
G01 X97.1336 Y-84.0923
G01 X97.1184 Y-84.1037
G01 X97.0986 Y-84.1157
G01 X97.0815 Y-84.1239
G01 X97.0756 Y-84.1262
G01 X97.0598 Y-84.1318
G01 X97.0435 Y-84.1360
G01 X97.0372 Y-84.1373
G01 X97.0185 Y-84.1400
G01 X96.9997 Y-84.1410
G01 X96.9932 Y-84.1409
G01 X96.9765 Y-84.1400
G01 X96.9557 Y-84.1369
G01 X96.9373 Y-84.1324
G01 X96.9312 Y-84.1304
G01 X96.9154 Y-84.1247
G01 X96.8964 Y-84.1157
G01 X96.8784 Y-84.1049
G01 X96.8631 Y-84.0937
G01 X96.8490 Y-84.0812
G01 X96.8427 Y-84.0749
G01 X96.7389 Y-83.9897
G01 X96.6237 Y-83.9282
G01 X96.4987 Y-83.8902
G01 X96.3582 Y-83.8764
G01 X95.8918 Y-83.8764
G01 X95.7513 Y-83.8902
G01 X95.6263 Y-83.9282
G01 X95.5111 Y-83.9897
G01 X95.4101 Y-84.0726
G01 X95.3272 Y-84.1736
G01 X95.2657 Y-84.2888
G01 X95.2277 Y-84.4138
G01 X95.2139 Y-84.5543
G01 X95.2139 Y-85.0154
G01 X95.2132 Y-85.0322
G01 X95.2126 Y-85.0386
G01 X95.2098 Y-85.0573
G01 X95.2047 Y-85.0777
G01 X95.1976 Y-85.0975
G01 X95.1875 Y-85.1184
G01 X95.1777 Y-85.1346
G01 X95.1678 Y-85.1481
G01 X95.1638 Y-85.1531
G01 X95.1511 Y-85.1671
G01 X94.3738 Y-85.9443
G01 X94.3599 Y-85.9571
G01 X94.3446 Y-85.9696
G01 X94.2733 Y-86.0565
G01 X94.2203 Y-86.1556
G01 X94.1877 Y-86.2632
G01 X94.1767 Y-86.3750
G01 X94.1786 Y-86.3947
G01 X94.1795 Y-86.4136
G01 X94.1795 Y-87.0134
G01 X94.1786 Y-87.0323
G01 X94.1779 Y-87.0387
G01 X94.1753 Y-87.0553
G01 X94.1714 Y-87.0715
G01 X94.1696 Y-87.0777
G01 X94.1647 Y-87.0915
G01 X94.1623 Y-87.0975
G01 X94.1541 Y-87.1145
G01 X94.1433 Y-87.1326
G01 X94.1308 Y-87.1495
G01 X94.1181 Y-87.1635
G01 X94.1135 Y-87.1680
G01 X94.1011 Y-87.1792
G01 X94.0877 Y-87.1893
G01 X94.0824 Y-87.1929
G01 X94.0661 Y-87.2026
G01 X94.0471 Y-87.2116
G01 X94.0313 Y-87.2173
G01 X94.0252 Y-87.2192
G01 X94.0068 Y-87.2238
G01 X93.9860 Y-87.2269
G01 X93.9693 Y-87.2278
G01 X93.9607 Y-87.2278
G01 X93.9461 Y-87.2270
G01 X93.9397 Y-87.2263
G01 X93.9232 Y-87.2238
G01 X93.9027 Y-87.2187
G01 X93.8829 Y-87.2116
G01 X93.8677 Y-87.2045
G01 X93.8602 Y-87.2004
G01 X93.8441 Y-87.1905
G01 X93.8289 Y-87.1792
G01 X93.8165 Y-87.1680
G01 X93.1084 Y-86.4601
G01 X93.0956 Y-86.4461
G01 X93.0817 Y-86.4276
G01 X93.0709 Y-86.4095
G01 X93.0619 Y-86.3905
G01 X93.0542 Y-86.3686
G01 X93.0497 Y-86.3503
G01 X93.0464 Y-86.3273
G01 X93.0455 Y-86.3084
G01 X93.0456 Y-86.2836
G01 X93.0464 Y-86.2669
G01 X93.0497 Y-86.2439
G01 X93.0548 Y-86.2235
G01 X93.0619 Y-86.2037
G01 X93.0709 Y-86.1846
G01 X93.0817 Y-86.1666
G01 X93.0929 Y-86.1514
G01 X93.1441 Y-86.0889
G01 X93.2296 Y-85.9290
G01 X93.2822 Y-85.7555
G01 X93.2955 Y-85.6202
G01 X93.2955 Y-85.2020
G01 X93.2966 Y-85.1810
G01 X93.2997 Y-85.1602
G01 X93.3036 Y-85.1439
G01 X93.3054 Y-85.1377
G01 X93.3119 Y-85.1199
G01 X93.3209 Y-85.1009
G01 X93.3294 Y-85.0865
G01 X93.3329 Y-85.0811
G01 X93.3416 Y-85.0693
G01 X93.3470 Y-85.0627
G01 X93.3584 Y-85.0504
G01 X93.3723 Y-85.0376
G01 X93.3926 Y-85.0225
G01 X93.4089 Y-85.0129
G01 X93.4240 Y-85.0056
G01 X93.4319 Y-85.0023
G01 X93.4498 Y-84.9962
G01 X93.4682 Y-84.9917
G01 X93.4868 Y-84.9888
G01 X93.6805 Y-84.9697
G01 X93.8540 Y-84.9171
G01 X94.0139 Y-84.8316
G01 X94.1541 Y-84.7166
G01 X94.1776 Y-84.6879
G01 X94.1903 Y-84.6740
G01 X97.1115 Y-81.7528
G01 X97.1255 Y-81.7401
G01 X97.1541 Y-81.7166
G01 X97.2691 Y-81.5764
G01 X97.3546 Y-81.4165
G01 X97.4072 Y-81.2430
G01 X97.4250 Y-81.0625
G01 X97.4214 Y-81.0256
G01 X97.4205 Y-81.0067
G01 X97.4205 Y-77.6381
G01 X97.4216 Y-77.6171
G01 X97.4243 Y-77.5983
G01 X97.4256 Y-77.5920
G01 X97.4298 Y-77.5758
G01 X97.4353 Y-77.5600
G01 X97.4377 Y-77.5540
G01 X97.4459 Y-77.5370
G01 X97.4555 Y-77.5207
G01 X97.4592 Y-77.5154
G01 X97.4692 Y-77.5020
G01 X97.4819 Y-77.4880
G01 X97.5006 Y-77.4709
G01 X97.5159 Y-77.4598
G01 X97.5302 Y-77.4510
G01 X97.5358 Y-77.4479
G01 X97.5529 Y-77.4399
G01 X97.5748 Y-77.4322
G01 X97.5911 Y-77.4282
G01 X97.5974 Y-77.4270
G01 X97.6140 Y-77.4246
G01 X97.6329 Y-77.4236
G01 X97.9895 Y-77.4236
G01 X98.0824 Y-77.4145
G01 X98.1617 Y-77.3904
G01 X98.2348 Y-77.3514
G01 X98.2988 Y-77.2988
G01 X98.3514 Y-77.2348
G01 X98.3904 Y-77.1617
G01 X98.4145 Y-77.0824
G01 X98.4236 Y-76.9895
G01 X98.4236 Y-74.0105
G01 X98.4145 Y-73.9176
G01 X98.3904 Y-73.8383
G01 X98.3514 Y-73.7652
G01 X98.2988 Y-73.7012
G01 X98.2348 Y-73.6486
G01 X98.1617 Y-73.6096
G01 X98.0824 Y-73.5855
G01 X97.9895 Y-73.5764
G01 X95.0105 Y-73.5764
G01 X94.9176 Y-73.5855
G01 X94.8383 Y-73.6096
G01 X94.7652 Y-73.6486
G01 X94.7012 Y-73.7012
G01 X94.6486 Y-73.7652
G01 X94.6096 Y-73.8383
G01 X94.5855 Y-73.9176
G01 X94.5764 Y-74.0105
G01 X94.5764 Y-74.3117
G01 X94.5754 Y-74.3324
G01 X94.5724 Y-74.3529
G01 X94.5685 Y-74.3689
G01 X94.5668 Y-74.3750
G01 X94.5606 Y-74.3926
G01 X94.5518 Y-74.4114
G01 X94.5435 Y-74.4256
G01 X94.5401 Y-74.4310
G01 X94.5291 Y-74.4460
G01 X94.5154 Y-74.4615
G01 X94.5018 Y-74.4742
G01 X94.4969 Y-74.4782
G01 X94.4855 Y-74.4870
G01 X94.4802 Y-74.4905
G01 X94.4662 Y-74.4991
G01 X94.4514 Y-74.5065
G01 X94.4456 Y-74.5091
G01 X94.4282 Y-74.5157
G01 X94.4082 Y-74.5211
G01 X94.3878 Y-74.5246
G01 X94.3650 Y-74.5261
G01 X94.3464 Y-74.5256
G01 X94.3258 Y-74.5231
G01 X94.3056 Y-74.5186
G01 X94.2859 Y-74.5122
G01 X94.2669 Y-74.5039
G01 X94.1545 Y-74.4484
G01 X93.9568 Y-74.6461
G01 X94.0200 Y-74.7517
G01 X94.0848 Y-74.8886
G01 X94.0881 Y-74.8965
G01 X94.1390 Y-75.0392
G01 X94.1760 Y-75.1861
G01 X94.1776 Y-75.1945
G01 X94.1998 Y-75.3444
G01 X94.2074 Y-75.5000
G01 X94.1998 Y-75.6556
G01 X94.1776 Y-75.8055
G01 X94.1760 Y-75.8139
G01 X94.1390 Y-75.9608
G01 X94.0881 Y-76.1035
G01 X94.0848 Y-76.1114
G01 X94.0200 Y-76.2483
G01 X93.9568 Y-76.3539
G01 X94.1545 Y-76.5516
G01 X94.2669 Y-76.4961
G01 X94.2859 Y-76.4878
G01 X94.3056 Y-76.4814
G01 X94.3258 Y-76.4769
G01 X94.3464 Y-76.4744
G01 X94.3650 Y-76.4739
G01 X94.3878 Y-76.4754
G01 X94.4082 Y-76.4789
G01 X94.4282 Y-76.4843
G01 X94.4456 Y-76.4909
G01 X94.4514 Y-76.4935
G01 X94.4662 Y-76.5009
G01 X94.4802 Y-76.5095
G01 X94.4855 Y-76.5130
G01 X94.4969 Y-76.5218
G01 X94.5018 Y-76.5258
G01 X94.5154 Y-76.5385
G01 X94.5291 Y-76.5540
G01 X94.5401 Y-76.5690
G01 X94.5435 Y-76.5744
G01 X94.5518 Y-76.5886
G01 X94.5606 Y-76.6074
G01 X94.5668 Y-76.6250
G01 X94.5685 Y-76.6311
G01 X94.5724 Y-76.6471
G01 X94.5754 Y-76.6676
G01 X94.5764 Y-76.6883
G01 X94.5764 Y-76.9895
G01 X94.5855 Y-77.0824
G01 X94.6096 Y-77.1617
G01 X94.6486 Y-77.2348
G01 X94.7012 Y-77.2988
G01 X94.7652 Y-77.3514
G01 X94.8383 Y-77.3904
G01 X94.9176 Y-77.4145
G01 X95.0105 Y-77.4236
G01 X95.3671 Y-77.4236
G01 X95.3839 Y-77.4245
G01 X95.3903 Y-77.4252
G01 X95.4068 Y-77.4277
G01 X95.4231 Y-77.4317
G01 X95.4293 Y-77.4335
G01 X95.4471 Y-77.4399
G01 X95.4661 Y-77.4489
G01 X95.4842 Y-77.4598
G01 X95.4994 Y-77.4709
G01 X95.5043 Y-77.4751
G01 X95.5166 Y-77.4864
G01 X95.5280 Y-77.4988
G01 X95.5321 Y-77.5037
G01 X95.5421 Y-77.5172
G01 X95.5541 Y-77.5370
G01 X95.5639 Y-77.5580
G01 X95.5702 Y-77.5758
G01 X95.5753 Y-77.5962
G01 X95.5784 Y-77.6171
G01 X95.5795 Y-77.6381
G01 X95.5795 Y-80.5924
G01 X95.5784 Y-80.6134
G01 X95.5753 Y-80.6342
G01 X95.5702 Y-80.6546
G01 X95.5631 Y-80.6744
G01 X95.5541 Y-80.6935
G01 X95.5433 Y-80.7115
G01 X95.5308 Y-80.7284
G01 X95.5166 Y-80.7440
G01 X93.2445 Y-83.0162
G01 X93.2289 Y-83.0303
G01 X93.2155 Y-83.0404
G01 X93.2102 Y-83.0441
G01 X93.1976 Y-83.0516
G01 X93.1901 Y-83.0556
G01 X93.1749 Y-83.0627
G01 X93.1551 Y-83.0698
G01 X93.1346 Y-83.0749
G01 X93.1160 Y-83.0778
G01 X93.0949 Y-83.0790
G01 X93.0761 Y-83.0783
G01 X93.0675 Y-83.0775
G01 X93.0489 Y-83.0745
G01 X93.0326 Y-83.0704
G01 X93.0265 Y-83.0684
G01 X93.0107 Y-83.0627
G01 X92.9955 Y-83.0556
G01 X92.8737 Y-82.9906
G01 X92.7487 Y-82.9527
G01 X92.6082 Y-82.9389
G01 X92.1418 Y-82.9389
G01 X92.0013 Y-82.9527
G01 X91.8763 Y-82.9907
G01 X91.7611 Y-83.0522
G01 X91.6573 Y-83.1374
G01 X91.6526 Y-83.1422
G01 X91.6385 Y-83.1548
G01 X91.6216 Y-83.1674
G01 X91.6055 Y-83.1772
G01 X91.5846 Y-83.1872
G01 X91.5668 Y-83.1936
G01 X91.5606 Y-83.1954
G01 X91.5443 Y-83.1994
G01 X91.5256 Y-83.2023
G01 X91.5003 Y-83.2035
G01 X91.4815 Y-83.2025
G01 X91.4649 Y-83.2001
G01 X91.4586 Y-83.1990
G01 X91.4402 Y-83.1943
G01 X91.4224 Y-83.1880
G01 X91.4165 Y-83.1855
G01 X91.4014 Y-83.1782
G01 X91.3833 Y-83.1674
G01 X91.3664 Y-83.1548
G01 X91.3493 Y-83.1392
G01 X91.3367 Y-83.1251
G01 X91.2863 Y-83.0637
G01 X91.2223 Y-83.0111
G01 X91.1492 Y-82.9721
G01 X91.0699 Y-82.9480
G01 X90.9786 Y-82.9391
G01 X90.8759 Y-82.9406
G01 X90.8415 Y-82.9751
G01 X90.8415 Y-83.2899
G01 X90.8705 Y-83.3003
G01 X90.8960 Y-83.3123
G01 X90.9036 Y-83.3163
G01 X90.9277 Y-83.3309
G01 X90.9504 Y-83.3476
G01 X90.9571 Y-83.3531
G01 X90.9779 Y-83.3721
G01 X90.9969 Y-83.3929
G01 X91.0024 Y-83.3996
G01 X91.0203 Y-83.4241
G01 X91.0358 Y-83.4501
G01 X91.0480 Y-83.4756
G01 X91.0512 Y-83.4835
G01 X91.0606 Y-83.5101
G01 X91.0676 Y-83.5375
G01 X91.0693 Y-83.5459
G01 X91.0733 Y-83.5738
G01 X91.0749 Y-83.6063
G01 X91.0749 Y-84.5187
G01 X91.0736 Y-84.5469
G01 X91.0728 Y-84.5555
G01 X91.0685 Y-84.5834
G01 X91.0606 Y-84.6149
G01 X91.0497 Y-84.6455
G01 X91.0377 Y-84.6710
G01 X91.0348 Y-84.6767
G01 X91.0214 Y-84.6991
G01 X91.0166 Y-84.7062
G01 X90.9997 Y-84.7288
G01 X90.9779 Y-84.7529
G01 X90.9538 Y-84.7747
G01 X90.9312 Y-84.7916
G01 X90.9241 Y-84.7964
G01 X90.9017 Y-84.8098
G01 X90.8960 Y-84.8127
G01 X90.8705 Y-84.8247
G01 X90.8415 Y-84.8351
G01 X90.8415 Y-85.1499
G01 X90.8759 Y-85.1844
G01 X90.9786 Y-85.1859
G01 X91.0699 Y-85.1770
G01 X91.1523 Y-85.1520
G01 X91.1599 Y-85.1486
G01 X91.1777 Y-85.1423
G01 X91.2003 Y-85.1368
G01 X91.2190 Y-85.1341
G01 X91.2400 Y-85.1331
G01 X91.2610 Y-85.1341
G01 X91.2776 Y-85.1365
G01 X91.2839 Y-85.1377
G01 X91.3023 Y-85.1423
G01 X91.3221 Y-85.1494
G01 X91.3411 Y-85.1584
G01 X91.3609 Y-85.1704
G01 X91.3777 Y-85.1832
G01 X91.3901 Y-85.1944
G01 X91.3946 Y-85.1990
G01 X91.4058 Y-85.2115
G01 X91.4159 Y-85.2249
G01 X91.4195 Y-85.2302
G01 X91.4270 Y-85.2427
G01 X91.4301 Y-85.2484
G01 X91.4381 Y-85.2655
G01 X91.4452 Y-85.2853
G01 X91.4503 Y-85.3057
G01 X91.4536 Y-85.3287
G01 X91.4545 Y-85.3476
G01 X91.4545 Y-85.6202
G01 X91.4678 Y-85.7555
G01 X91.5204 Y-85.9290
G01 X91.6059 Y-86.0889
G01 X91.6571 Y-86.1514
G01 X91.6683 Y-86.1666
G01 X91.6781 Y-86.1828
G01 X91.6864 Y-86.1997
G01 X91.6897 Y-86.2077
G01 X91.6952 Y-86.2235
G01 X91.7003 Y-86.2439
G01 X91.7034 Y-86.2647
G01 X91.7045 Y-86.2857
G01 X91.7045 Y-86.6315
G01 X91.7036 Y-86.6504
G01 X91.7012 Y-86.6750
G01 X91.7142 Y-86.8064
G01 X91.7525 Y-86.9328
G01 X91.8148 Y-87.0493
G01 X91.8986 Y-87.1514
G01 X91.9176 Y-87.1671
G01 X91.9316 Y-87.1799
G01 X92.9651 Y-88.2134
G01 X92.9792 Y-88.2289
G01 X92.9917 Y-88.2459
G01 X93.0015 Y-88.2620
G01 X93.0045 Y-88.2677
G01 X93.0116 Y-88.2829
G01 X93.0173 Y-88.2987
G01 X93.0192 Y-88.3048
G01 X93.0238 Y-88.3232
G01 X93.0269 Y-88.3440
G01 X93.0279 Y-88.3629
G01 X93.0278 Y-88.3693
G01 X93.0269 Y-88.3860
G01 X93.0245 Y-88.4026
G01 X93.0233 Y-88.4089
G01 X93.0186 Y-88.4273
G01 X93.0116 Y-88.4471
G01 X93.0035 Y-88.4642
G01 X93.0004 Y-88.4698
G01 X92.9917 Y-88.4841
G01 X92.9818 Y-88.4977
G01 X92.9778 Y-88.5027
G01 X92.9651 Y-88.5166
G01 X92.9495 Y-88.5308
G01 X92.9343 Y-88.5421
G01 X92.9289 Y-88.5456
G01 X92.9145 Y-88.5541
G01 X92.8994 Y-88.5614
G01 X92.8935 Y-88.5639
G01 X92.8757 Y-88.5702
G01 X92.8574 Y-88.5749
G01 X92.8510 Y-88.5761
G01 X92.8344 Y-88.5784
G01 X92.8134 Y-88.5795
G01 X92.5607 Y-88.5795
G01 X92.5397 Y-88.5784
G01 X92.5168 Y-88.5749
G01 X92.4985 Y-88.5702
G01 X92.4827 Y-88.5647
G01 X92.4747 Y-88.5614
G01 X92.4578 Y-88.5531
G01 X92.4416 Y-88.5433
G01 X92.4264 Y-88.5321
G01 X92.3639 Y-88.4809
G01 X92.2040 Y-88.3954
G01 X92.0305 Y-88.3428
G01 X91.8952 Y-88.3295
G01 X91.6451 Y-88.3295
G01 X91.6220 Y-88.3282
G01 X91.6033 Y-88.3253
G01 X91.5870 Y-88.3214
G01 X91.5808 Y-88.3196
G01 X91.5631 Y-88.3131
G01 X91.5459 Y-88.3051
G01 X91.5403 Y-88.3020
G01 X91.5260 Y-88.2933
G01 X91.5091 Y-88.2808
G01 X91.4935 Y-88.2666
G01 X86.6153 Y-83.3885
G01 X86.6026 Y-83.3746
G01 X86.5791 Y-83.3459
G01 X86.4364 Y-83.2289
G01 X86.4209 Y-83.2148
G01 X86.4067 Y-83.1992
G01 X86.3967 Y-83.1858
G01 X86.3919 Y-83.1786
G01 X86.3824 Y-83.1623
G01 X86.3752 Y-83.1471
G01 X86.3728 Y-83.1412
G01 X86.3673 Y-83.1254
G01 X86.3631 Y-83.1091
G01 X86.3618 Y-83.1028
G01 X86.3591 Y-83.0841
G01 X86.3580 Y-83.0631
G01 X86.3580 Y-77.4933
G01 X86.3589 Y-77.4744
G01 X86.3625 Y-77.4375
G01 X86.3447 Y-77.2570
G01 X86.2921 Y-77.0835
G01 X86.2066 Y-76.9236
G01 X86.0916 Y-76.7834
G01 X86.0629 Y-76.7599
G01 X86.0490 Y-76.7472
G01 X85.4849 Y-76.1831
G01 X85.4737 Y-76.1706
G01 X85.4697 Y-76.1656
G01 X85.4598 Y-76.1521
G01 X85.4510 Y-76.1378
G01 X85.4479 Y-76.1321
G01 X85.4399 Y-76.1150
G01 X85.4328 Y-76.0952
G01 X85.4282 Y-76.0769
G01 X85.4270 Y-76.0706
G01 X85.4246 Y-76.0540
G01 X85.4236 Y-76.0329
G01 X85.4236 Y-74.0105
G01 X85.4145 Y-73.9176
G01 X85.3904 Y-73.8383
G01 X85.3514 Y-73.7652
G01 X85.2988 Y-73.7012
G01 X85.2348 Y-73.6486
G01 X85.1617 Y-73.6096
G01 X85.0824 Y-73.5855
G01 X84.9895 Y-73.5764
G01 X82.0105 Y-73.5764
G01 X81.9176 Y-73.5855
G01 X81.8383 Y-73.6096
G01 X81.7652 Y-73.6486
G01 X81.7012 Y-73.7012
G01 X81.6486 Y-73.7652
G01 X81.6096 Y-73.8383
G01 X81.5855 Y-73.9176
G01 X81.5764 Y-74.0105
G01 X81.5764 Y-74.3117
G01 X81.5754 Y-74.3324
G01 X81.5724 Y-74.3529
G01 X81.5685 Y-74.3689
G01 X81.5668 Y-74.3750
G01 X81.5606 Y-74.3926
G01 X81.5518 Y-74.4114
G01 X81.5435 Y-74.4256
G01 X81.5401 Y-74.4310
G01 X81.5291 Y-74.4460
G01 X81.5154 Y-74.4615
G01 X81.5018 Y-74.4742
G01 X81.4969 Y-74.4782
G01 X81.4855 Y-74.4870
G01 X81.4802 Y-74.4905
G01 X81.4662 Y-74.4991
G01 X81.4514 Y-74.5065
G01 X81.4456 Y-74.5091
G01 X81.4282 Y-74.5157
G01 X81.4082 Y-74.5211
G01 X81.3878 Y-74.5246
G01 X81.3650 Y-74.5261
G01 X81.3464 Y-74.5256
G01 X81.3258 Y-74.5231
G01 X81.3056 Y-74.5186
G01 X81.2859 Y-74.5122
G01 X81.2669 Y-74.5039
G01 X81.1545 Y-74.4484
G01 X80.9568 Y-74.6461
G01 X81.0200 Y-74.7517
G01 X81.0848 Y-74.8886
G01 X81.0881 Y-74.8965
G01 X81.1390 Y-75.0392
G01 X81.1760 Y-75.1861
G01 X81.1776 Y-75.1945
G01 X81.1998 Y-75.3444
G01 X81.2074 Y-75.5000
G01 X81.1998 Y-75.6556
G01 X81.1776 Y-75.8055
G01 X81.1760 Y-75.8139
G01 X81.1390 Y-75.9608
G01 X81.0881 Y-76.1035
G01 X81.0848 Y-76.1114
G01 X81.0200 Y-76.2483
G01 X80.9568 Y-76.3539
G00 Z2.0000
G00 X82.0000 Y-77.0874
G01 F60.00
G01 Z0.0000
G01 F120.00
G01 X84.2563 Y-77.0874
G01 X84.8498 Y-77.6809
G01 X84.8499 Y-84.0021
G01 X84.8527 Y-84.0576
G01 X84.8604 Y-84.1104
G01 X84.8626 Y-84.1209
G01 X84.8626 Y-84.4584
G01 X84.8642 Y-84.4887
G01 X84.8682 Y-84.5166
G01 X84.8694 Y-84.5230
G01 X84.8757 Y-84.5482
G01 X84.8782 Y-84.5564
G01 X84.8878 Y-84.5830
G01 X84.9007 Y-84.6105
G01 X84.9161 Y-84.6366
G01 X84.9209 Y-84.6437
G01 X84.9378 Y-84.6663
G01 X84.9566 Y-84.6873
G01 X84.9627 Y-84.6934
G01 X84.9820 Y-84.7109
G01 X85.0063 Y-84.7291
G01 X85.0134 Y-84.7339
G01 X85.0358 Y-84.7473
G01 X85.0415 Y-84.7502
G01 X85.0670 Y-84.7622
G01 X85.0976 Y-84.7731
G01 X85.1291 Y-84.7810
G01 X85.1634 Y-84.7860
G01 X85.1938 Y-84.7874
G01 X85.6812 Y-84.7874
G01 X85.7094 Y-84.7861
G01 X85.7180 Y-84.7853
G01 X85.7459 Y-84.7810
G01 X85.7774 Y-84.7731
G01 X85.8080 Y-84.7622
G01 X85.8335 Y-84.7502
G01 X85.8405 Y-84.7465
G01 X90.7595 Y-89.6655
G01 X90.7990 Y-89.7015
G01 X90.8056 Y-89.7069
G01 X90.8485 Y-89.7386
G01 X90.8961 Y-89.7672
G01 X90.9501 Y-89.7929
G01 X91.0044 Y-89.8123
G01 X91.0604 Y-89.8264
G01 X91.1195 Y-89.8350
G01 X91.1750 Y-89.8377
G01 X91.8500 Y-89.8377
G01 X91.9055 Y-89.8350
G01 X91.9646 Y-89.8264
G01 X92.0206 Y-89.8123
G01 X92.0749 Y-89.7929
G01 X92.1289 Y-89.7672
G01 X92.1765 Y-89.7386
G01 X92.2194 Y-89.7069
G01 X92.2260 Y-89.7015
G01 X92.2624 Y-89.6685
G01 X92.2685 Y-89.6624
G01 X92.3043 Y-89.6228
G01 X92.3306 Y-89.5875
G01 X93.5125 Y-89.5875
G01 X93.5125 Y-94.0625
G01 X93.5137 Y-94.0858
G01 X93.5175 Y-94.1109
G01 X93.5222 Y-94.1294
G01 X93.5241 Y-94.1355
G01 X93.5306 Y-94.1534
G01 X93.5376 Y-94.1684
G01 X93.5376 Y-94.4125
G01 X93.5381 Y-94.4251
G01 X93.5397 Y-94.4375
G01 X93.5414 Y-94.4459
G01 X93.5447 Y-94.4581
G01 X93.5490 Y-94.4699
G01 X93.5543 Y-94.4813
G01 X93.5606 Y-94.4922
G01 X93.5641 Y-94.4975
G01 X93.5716 Y-94.5076
G01 X93.5800 Y-94.5170
G01 X93.5892 Y-94.5256
G01 X93.5941 Y-94.5297
G01 X93.6042 Y-94.5371
G01 X93.6150 Y-94.5437
G01 X93.6207 Y-94.5466
G01 X93.6321 Y-94.5518
G01 X93.6440 Y-94.5559
G01 X93.6562 Y-94.5591
G01 X93.6625 Y-94.5603
G01 X93.6728 Y-94.5617
G01 X93.6854 Y-94.5624
G01 X93.8125 Y-94.5624
G01 X93.8251 Y-94.5619
G01 X93.8417 Y-94.5595
G01 X93.8540 Y-94.5565
G01 X93.8601 Y-94.5546
G01 X93.8699 Y-94.5510
G01 X93.8813 Y-94.5457
G01 X93.8958 Y-94.5371
G01 X93.9076 Y-94.5284
G01 X93.9185 Y-94.5185
G01 X93.9284 Y-94.5076
G01 X93.9371 Y-94.4958
G01 X93.9447 Y-94.4832
G01 X93.9510 Y-94.4699
G01 X93.9559 Y-94.4560
G01 X93.9595 Y-94.4417
G01 X93.9617 Y-94.4272
G01 X93.9624 Y-94.4125
G01 X93.9624 Y-94.1684
G01 X93.9694 Y-94.1534
G01 X93.9759 Y-94.1355
G01 X93.9778 Y-94.1294
G01 X93.9825 Y-94.1109
G01 X93.9863 Y-94.0858
G01 X93.9875 Y-94.0625
G01 X93.9875 Y-89.3775
G01 X93.9980 Y-89.3480
G01 X94.0060 Y-89.3158
G01 X94.0109 Y-89.2831
G01 X94.0125 Y-89.2500
G01 X94.0109 Y-89.2169
G01 X94.0068 Y-89.1884
G01 X94.0051 Y-89.1800
G01 X93.9980 Y-89.1520
G01 X93.9868 Y-89.1208
G01 X93.9746 Y-89.0947
G01 X93.9705 Y-89.0872
G01 X93.9544 Y-89.0607
G01 X93.9359 Y-89.0359
G01 X93.9137 Y-89.0113
G01 X93.8891 Y-88.9891
G01 X93.8625 Y-88.9694
G01 X93.8341 Y-88.9523
G01 X93.8042 Y-88.9382
G01 X93.7730 Y-88.9270
G01 X93.7450 Y-88.9199
G01 X93.7366 Y-88.9182
G01 X93.7081 Y-88.9141
G01 X93.6750 Y-88.9125
G01 X92.3306 Y-88.9125
G01 X92.3043 Y-88.8772
G01 X92.2655 Y-88.8345
G01 X92.2228 Y-88.7957
G01 X92.1782 Y-88.7626
G01 X92.1270 Y-88.7317
G01 X92.0788 Y-88.7088
G01 X92.0709 Y-88.7055
G01 X92.0185 Y-88.6871
G01 X91.9688 Y-88.6746
G01 X91.9604 Y-88.6729
G01 X91.9076 Y-88.6652
G01 X91.8543 Y-88.6625
G01 X91.4184 Y-88.6623
G01 X86.3390 Y-83.5830
G01 X86.2978 Y-83.5457
G01 X86.2550 Y-83.5139
G01 X86.2479 Y-83.5091
G01 X86.2001 Y-83.4808
G01 X86.1499 Y-83.4571
G01 X86.0976 Y-83.4383
G01 X86.0417 Y-83.4241
G01 X86.0252 Y-83.4214
G01 X86.0252 Y-77.4375
G01 X86.0223 Y-77.3799
G01 X86.0139 Y-77.3229
G01 X86.0010 Y-77.2710
G01 X85.9985 Y-77.2628
G01 X85.9804 Y-77.2126
G01 X85.9558 Y-77.1605
G01 X85.9284 Y-77.1146
G01 X85.9236 Y-77.1075
G01 X85.8918 Y-77.0647
G01 X85.8530 Y-77.0220
G01 X85.0874 Y-76.2563
G01 X85.0874 Y-74.0000
G01 X85.0870 Y-73.9914
G01 X85.0857 Y-73.9829
G01 X85.0836 Y-73.9746
G01 X85.0807 Y-73.9666
G01 X85.0771 Y-73.9588
G01 X85.0727 Y-73.9514
G01 X85.0676 Y-73.9446
G01 X85.0603 Y-73.9367
G01 X85.0554 Y-73.9324
G01 X85.0486 Y-73.9273
G01 X85.0412 Y-73.9229
G01 X85.0334 Y-73.9193
G01 X85.0254 Y-73.9164
G01 X85.0171 Y-73.9143
G01 X85.0086 Y-73.9130
G01 X85.0000 Y-73.9126
G01 X82.0000 Y-73.9126
G01 X81.9914 Y-73.9130
G01 X81.9829 Y-73.9143
G01 X81.9746 Y-73.9164
G01 X81.9666 Y-73.9193
G01 X81.9569 Y-73.9240
G01 X81.9497 Y-73.9285
G01 X81.9429 Y-73.9338
G01 X81.9367 Y-73.9397
G01 X81.9311 Y-73.9462
G01 X81.9262 Y-73.9532
G01 X81.9219 Y-73.9607
G01 X81.9185 Y-73.9685
G01 X81.9158 Y-73.9767
G01 X81.9139 Y-73.9851
G01 X81.9128 Y-73.9936
G01 X81.9126 Y-74.0000
G01 X81.9126 Y-77.0021
G01 X81.9133 Y-77.0107
G01 X81.9147 Y-77.0191
G01 X81.9170 Y-77.0274
G01 X81.9201 Y-77.0354
G01 X81.9240 Y-77.0431
G01 X81.9285 Y-77.0503
G01 X81.9338 Y-77.0571
G01 X81.9397 Y-77.0633
G01 X81.9462 Y-77.0689
G01 X81.9532 Y-77.0738
G01 X81.9607 Y-77.0781
G01 X81.9685 Y-77.0815
G01 X81.9767 Y-77.0842
G01 X81.9851 Y-77.0861
G01 X81.9936 Y-77.0872
G01 X82.0000 Y-77.0874
G00 Z2.0000
G00 X82.9932 Y-83.4834
G01 F60.00
G01 Z0.0000
G01 F120.00
G01 X82.9949 Y-83.4750
G01 X83.0019 Y-83.4476
G01 X83.0113 Y-83.4210
G01 X83.0145 Y-83.4131
G01 X83.0267 Y-83.3876
G01 X83.0422 Y-83.3616
G01 X83.0601 Y-83.3371
G01 X83.0656 Y-83.3304
G01 X83.0846 Y-83.3096
G01 X83.1054 Y-83.2906
G01 X83.1121 Y-83.2851
G01 X83.1348 Y-83.2684
G01 X83.1589 Y-83.2538
G01 X83.1665 Y-83.2498
G01 X83.1920 Y-83.2378
G01 X83.2210 Y-83.2274
G01 X83.2210 Y-82.9126
G01 X83.1866 Y-82.8781
G01 X83.0839 Y-82.8766
G01 X82.9926 Y-82.8855
G01 X82.9133 Y-82.9096
G01 X82.8402 Y-82.9486
G01 X82.7762 Y-83.0012
G01 X82.7236 Y-83.0652
G01 X82.6846 Y-83.1383
G01 X82.6605 Y-83.2176
G01 X82.6515 Y-83.3097
G01 X82.6538 Y-83.6248
G01 X82.6876 Y-83.6585
G01 X82.9876 Y-83.6585
G01 X82.9876 Y-83.5416
G01 X82.9892 Y-83.5113
G01 X82.9932 Y-83.4834
G00 Z2.0000
G00 X82.9876 Y-84.3415
G01 F60.00
G01 Z0.0000
G01 F120.00
G01 X82.6876 Y-84.3415
G01 X82.6538 Y-84.3752
G01 X82.6515 Y-84.6903
G01 X82.6605 Y-84.7824
G01 X82.6846 Y-84.8617
G01 X82.7236 Y-84.9348
G01 X82.7762 Y-84.9988
G01 X82.8402 Y-85.0514
G01 X82.9133 Y-85.0904
G01 X82.9926 Y-85.1145
G01 X83.0839 Y-85.1234
G01 X83.1866 Y-85.1219
G01 X83.2210 Y-85.0874
G01 X83.2210 Y-84.7726
G01 X83.1920 Y-84.7622
G01 X83.1626 Y-84.7483
G01 X83.1348 Y-84.7316
G01 X83.1087 Y-84.7122
G01 X83.0846 Y-84.6904
G01 X83.0628 Y-84.6663
G01 X83.0434 Y-84.6402
G01 X83.0267 Y-84.6124
G01 X83.0128 Y-84.5830
G01 X83.0019 Y-84.5524
G01 X82.9940 Y-84.5209
G01 X82.9897 Y-84.4930
G01 X82.9889 Y-84.4844
G01 X82.9876 Y-84.4584
G01 X82.9876 Y-84.3415
G00 Z2.0000
G00 X89.9251 Y-84.4040
G01 F60.00
G01 Z0.0000
G01 F120.00
G01 X89.6251 Y-84.4040
G01 X89.5913 Y-84.4377
G01 X89.5890 Y-84.7528
G01 X89.5980 Y-84.8449
G01 X89.6221 Y-84.9242
G01 X89.6611 Y-84.9973
G01 X89.7137 Y-85.0613
G01 X89.7777 Y-85.1139
G01 X89.8508 Y-85.1529
G01 X89.9301 Y-85.1770
G01 X90.0214 Y-85.1859
G01 X90.1241 Y-85.1844
G01 X90.1585 Y-85.1499
G01 X90.1585 Y-84.8351
G01 X90.1295 Y-84.8247
G01 X90.1001 Y-84.8108
G01 X90.0723 Y-84.7941
G01 X90.0462 Y-84.7747
G01 X90.0221 Y-84.7529
G01 X90.0003 Y-84.7288
G01 X89.9809 Y-84.7027
G01 X89.9642 Y-84.6749
G01 X89.9503 Y-84.6455
G01 X89.9394 Y-84.6149
G01 X89.9315 Y-84.5834
G01 X89.9272 Y-84.5555
G01 X89.9264 Y-84.5469
G01 X89.9251 Y-84.5209
G01 X89.9251 Y-84.4040
G00 Z2.0000
G00 X89.9307 Y-83.5459
G01 F60.00
G01 Z0.0000
G01 F120.00
G01 X89.9324 Y-83.5375
G01 X89.9394 Y-83.5101
G01 X89.9488 Y-83.4835
G01 X89.9520 Y-83.4756
G01 X89.9642 Y-83.4501
G01 X89.9797 Y-83.4241
G01 X89.9976 Y-83.3996
G01 X90.0031 Y-83.3929
G01 X90.0221 Y-83.3721
G01 X90.0429 Y-83.3531
G01 X90.0496 Y-83.3476
G01 X90.0723 Y-83.3309
G01 X90.0964 Y-83.3163
G01 X90.1040 Y-83.3123
G01 X90.1295 Y-83.3003
G01 X90.1585 Y-83.2899
G01 X90.1585 Y-82.9751
G01 X90.1241 Y-82.9406
G01 X90.0214 Y-82.9391
G01 X89.9301 Y-82.9480
G01 X89.8508 Y-82.9721
G01 X89.7777 Y-83.0111
G01 X89.7137 Y-83.0637
G01 X89.6611 Y-83.1277
G01 X89.6221 Y-83.2008
G01 X89.5980 Y-83.2801
G01 X89.5890 Y-83.3722
G01 X89.5913 Y-83.6873
G01 X89.6251 Y-83.7210
G01 X89.9251 Y-83.7210
G01 X89.9251 Y-83.6041
G01 X89.9267 Y-83.5738
G01 X89.9307 Y-83.5459
G00 Z2.0000
G00 X91.7873 Y-84.0625
G01 F60.00
G01 Z0.0000
G01 F120.00
G01 X91.7873 Y-85.5750
G01 X91.7902 Y-85.6326
G01 X91.7986 Y-85.6896
G01 X91.8127 Y-85.7456
G01 X91.8321 Y-85.7999
G01 X91.8548 Y-85.8482
G01 X91.8589 Y-85.8557
G01 X91.8864 Y-85.9015
G01 X91.9181 Y-85.9444
G01 X91.9235 Y-85.9510
G01 X91.9565 Y-85.9874
G01 X91.9626 Y-85.9935
G01 X92.0022 Y-86.0293
G01 X92.0375 Y-86.0556
G01 X92.0375 Y-86.6771
G01 X92.0391 Y-86.7081
G01 X92.0440 Y-86.7408
G01 X92.0520 Y-86.7730
G01 X92.0616 Y-86.8002
G01 X92.0649 Y-86.8081
G01 X92.0773 Y-86.8341
G01 X92.0944 Y-86.8625
G01 X92.1141 Y-86.8891
G01 X92.1363 Y-86.9137
G01 X93.8456 Y-88.6230
G01 X93.8520 Y-88.6480
G01 X93.8616 Y-88.6752
G01 X93.8640 Y-88.6811
G01 X93.8754 Y-88.7053
G01 X93.8794 Y-88.7128
G01 X93.8932 Y-88.7357
G01 X93.9114 Y-88.7607
G01 X93.9169 Y-88.7674
G01 X93.9363 Y-88.7887
G01 X93.9609 Y-88.8109
G01 X93.9875 Y-88.8306
G01 X94.0125 Y-88.8458
G01 X94.0125 Y-94.0625
G01 X94.0134 Y-94.0815
G01 X94.0139 Y-94.0879
G01 X94.0167 Y-94.1067
G01 X94.0222 Y-94.1294
G01 X94.0298 Y-94.1514
G01 X94.0376 Y-94.1684
G01 X94.0376 Y-94.4125
G01 X94.0386 Y-94.4293
G01 X94.0405 Y-94.4417
G01 X94.0429 Y-94.4519
G01 X94.0482 Y-94.4679
G01 X94.0553 Y-94.4832
G01 X94.0641 Y-94.4975
G01 X94.0716 Y-94.5076
G01 X94.0815 Y-94.5185
G01 X94.0924 Y-94.5284
G01 X94.1042 Y-94.5371
G01 X94.1168 Y-94.5447
G01 X94.1301 Y-94.5510
G01 X94.1440 Y-94.5559
G01 X94.1562 Y-94.5591
G01 X94.1707 Y-94.5614
G01 X94.1854 Y-94.5624
G01 X94.3125 Y-94.5624
G01 X94.3293 Y-94.5614
G01 X94.3459 Y-94.5586
G01 X94.3560 Y-94.5559
G01 X94.3679 Y-94.5518
G01 X94.3832 Y-94.5447
G01 X94.3940 Y-94.5383
G01 X94.3993 Y-94.5347
G01 X94.4076 Y-94.5284
G01 X94.4170 Y-94.5200
G01 X94.4284 Y-94.5076
G01 X94.4359 Y-94.4975
G01 X94.4394 Y-94.4922
G01 X94.4447 Y-94.4832
G01 X94.4501 Y-94.4718
G01 X94.4565 Y-94.4540
G01 X94.4595 Y-94.4417
G01 X94.4612 Y-94.4315
G01 X94.4624 Y-94.4146
G01 X94.4624 Y-94.1684
G01 X94.4694 Y-94.1534
G01 X94.4759 Y-94.1355
G01 X94.4778 Y-94.1294
G01 X94.4820 Y-94.1130
G01 X94.4833 Y-94.1067
G01 X94.4861 Y-94.0879
G01 X94.4874 Y-94.0646
G01 X94.4875 Y-88.6775
G01 X94.4980 Y-88.6480
G01 X94.5051 Y-88.6200
G01 X94.5068 Y-88.6116
G01 X94.5109 Y-88.5831
G01 X94.5125 Y-88.5521
G01 X94.5125 Y-88.4750
G01 X94.5112 Y-88.4462
G01 X94.5104 Y-88.4376
G01 X94.5060 Y-88.4091
G01 X94.4980 Y-88.3770
G01 X94.4868 Y-88.3458
G01 X94.4746 Y-88.3197
G01 X94.4716 Y-88.3140
G01 X94.4579 Y-88.2911
G01 X94.4532 Y-88.2840
G01 X94.4359 Y-88.2609
G01 X94.4152 Y-88.2379
G01 X92.7125 Y-86.5352
G01 X92.7125 Y-86.0556
G01 X92.7478 Y-86.0293
G01 X92.7874 Y-85.9935
G01 X92.7935 Y-85.9874
G01 X92.8265 Y-85.9510
G01 X92.8319 Y-85.9444
G01 X92.8636 Y-85.9015
G01 X92.8911 Y-85.8557
G01 X92.8952 Y-85.8482
G01 X92.9179 Y-85.7999
G01 X92.9373 Y-85.7456
G01 X92.9514 Y-85.6896
G01 X92.9596 Y-85.6347
G01 X92.9627 Y-85.5750
G01 X92.9627 Y-84.6502
G01 X93.5000 Y-84.6502
G01 X93.5533 Y-84.6476
G01 X93.5619 Y-84.6468
G01 X93.6146 Y-84.6389
G01 X93.6665 Y-84.6260
G01 X93.6747 Y-84.6235
G01 X93.7249 Y-84.6054
G01 X93.7770 Y-84.5808
G01 X93.8229 Y-84.5534
G01 X93.8300 Y-84.5486
G01 X93.8728 Y-84.5168
G01 X93.9155 Y-84.4780
G01 X96.9155 Y-81.4780
G01 X96.9543 Y-81.4353
G01 X96.9861 Y-81.3925
G01 X96.9909 Y-81.3854
G01 X97.0161 Y-81.3432
G01 X97.0202 Y-81.3357
G01 X97.0412 Y-81.2913
G01 X97.0445 Y-81.2834
G01 X97.0623 Y-81.2331
G01 X97.0754 Y-81.1813
G01 X97.0771 Y-81.1729
G01 X97.0848 Y-81.1201
G01 X97.0876 Y-81.0646
G01 X97.0877 Y-77.0874
G01 X98.0064 Y-77.0872
G01 X98.0191 Y-77.0853
G01 X98.0315 Y-77.0815
G01 X98.0431 Y-77.0760
G01 X98.0538 Y-77.0689
G01 X98.0603 Y-77.0633
G01 X98.0648 Y-77.0587
G01 X98.0727 Y-77.0486
G01 X98.0790 Y-77.0374
G01 X98.0836 Y-77.0254
G01 X98.0865 Y-77.0128
G01 X98.0874 Y-77.0000
G01 X98.0874 Y-74.0000
G01 X98.0867 Y-73.9893
G01 X98.0848 Y-73.9788
G01 X98.0815 Y-73.9685
G01 X98.0771 Y-73.9588
G01 X98.0715 Y-73.9497
G01 X98.0648 Y-73.9413
G01 X98.0571 Y-73.9338
G01 X98.0468 Y-73.9262
G01 X98.0374 Y-73.9210
G01 X98.0254 Y-73.9164
G01 X98.0128 Y-73.9135
G01 X98.0000 Y-73.9126
G01 X95.0000 Y-73.9126
G01 X94.9893 Y-73.9133
G01 X94.9788 Y-73.9152
G01 X94.9685 Y-73.9185
G01 X94.9588 Y-73.9229
G01 X94.9497 Y-73.9285
G01 X94.9413 Y-73.9352
G01 X94.9338 Y-73.9429
G01 X94.9262 Y-73.9532
G01 X94.9210 Y-73.9626
G01 X94.9164 Y-73.9746
G01 X94.9135 Y-73.9872
G01 X94.9126 Y-74.0000
G01 X94.9126 Y-77.0000
G01 X94.9135 Y-77.0128
G01 X94.9164 Y-77.0254
G01 X94.9210 Y-77.0374
G01 X94.9273 Y-77.0486
G01 X94.9352 Y-77.0587
G01 X94.9446 Y-77.0676
G01 X94.9551 Y-77.0750
G01 X94.9666 Y-77.0807
G01 X94.9788 Y-77.0848
G01 X94.9872 Y-77.0865
G01 X94.9936 Y-77.0872
G01 X95.9123 Y-77.0874
G01 X95.9123 Y-80.8191
G01 X93.2566 Y-83.4748
G01 X92.9226 Y-83.4748
G01 X92.9108 Y-83.4501
G01 X92.8964 Y-83.4259
G01 X92.8916 Y-83.4188
G01 X92.8747 Y-83.3962
G01 X92.8559 Y-83.3752
G01 X92.8498 Y-83.3691
G01 X92.8288 Y-83.3503
G01 X92.8062 Y-83.3334
G01 X92.7991 Y-83.3286
G01 X92.7749 Y-83.3142
G01 X92.7494 Y-83.3020
G01 X92.7415 Y-83.2988
G01 X92.7149 Y-83.2894
G01 X92.6875 Y-83.2824
G01 X92.6791 Y-83.2807
G01 X92.6512 Y-83.2767
G01 X92.6187 Y-83.2751
G01 X92.1313 Y-83.2751
G01 X92.0988 Y-83.2767
G01 X92.0666 Y-83.2815
G01 X92.0393 Y-83.2882
G01 X92.0311 Y-83.2907
G01 X92.0045 Y-83.3003
G01 X91.9790 Y-83.3123
G01 X91.9714 Y-83.3163
G01 X91.9473 Y-83.3309
G01 X91.9228 Y-83.3489
G01 X91.8971 Y-83.3721
G01 X91.8781 Y-83.3929
G01 X91.8739 Y-83.3978
G01 X91.8584 Y-83.4188
G01 X91.8536 Y-83.4259
G01 X91.8392 Y-83.4501
G01 X91.8253 Y-83.4795
G01 X91.8144 Y-83.5101
G01 X91.8065 Y-83.5416
G01 X91.8017 Y-83.5738
G01 X91.8001 Y-83.6041
G01 X91.8001 Y-83.9416
G01 X91.7979 Y-83.9521
G01 X91.7902 Y-84.0049
G01 X91.7873 Y-84.0625
G00 Z2.0000
G00 X94.5125 Y-86.3750
G01 F60.00
G01 Z0.0000
G01 F120.00
G01 X94.5126 Y-94.0668
G01 X94.5139 Y-94.0879
G01 X94.5167 Y-94.1067
G01 X94.5180 Y-94.1130
G01 X94.5222 Y-94.1294
G01 X94.5241 Y-94.1355
G01 X94.5306 Y-94.1534
G01 X94.5376 Y-94.1684
G01 X94.5376 Y-94.4125
G01 X94.5386 Y-94.4293
G01 X94.5409 Y-94.4438
G01 X94.5454 Y-94.4601
G01 X94.5490 Y-94.4699
G01 X94.5534 Y-94.4793
G01 X94.5606 Y-94.4922
G01 X94.5690 Y-94.5042
G01 X94.5744 Y-94.5108
G01 X94.5830 Y-94.5200
G01 X94.5958 Y-94.5310
G01 X94.6060 Y-94.5383
G01 X94.6187 Y-94.5457
G01 X94.6321 Y-94.5518
G01 X94.6460 Y-94.5565
G01 X94.6583 Y-94.5595
G01 X94.6685 Y-94.5612
G01 X94.6854 Y-94.5624
G01 X94.8168 Y-94.5623
G01 X94.8272 Y-94.5617
G01 X94.8396 Y-94.5599
G01 X94.8519 Y-94.5571
G01 X94.8601 Y-94.5546
G01 X94.8718 Y-94.5501
G01 X94.8832 Y-94.5447
G01 X94.8940 Y-94.5383
G01 X94.9042 Y-94.5310
G01 X94.9108 Y-94.5256
G01 X94.9200 Y-94.5170
G01 X94.9284 Y-94.5076
G01 X94.9359 Y-94.4975
G01 X94.9457 Y-94.4813
G01 X94.9510 Y-94.4699
G01 X94.9553 Y-94.4581
G01 X94.9599 Y-94.4396
G01 X94.9617 Y-94.4272
G01 X94.9624 Y-94.4146
G01 X94.9624 Y-94.1684
G01 X94.9694 Y-94.1534
G01 X94.9759 Y-94.1355
G01 X94.9778 Y-94.1294
G01 X94.9820 Y-94.1130
G01 X94.9833 Y-94.1067
G01 X94.9861 Y-94.0879
G01 X94.9874 Y-94.0646
G01 X94.9875 Y-86.4734
G01 X95.7173 Y-85.7437
G01 X95.7270 Y-85.7493
G01 X95.7526 Y-85.7613
G01 X95.7851 Y-85.7731
G01 X95.8166 Y-85.7810
G01 X95.8509 Y-85.7860
G01 X95.8813 Y-85.7874
G01 X96.3687 Y-85.7874
G01 X96.4012 Y-85.7858
G01 X96.4334 Y-85.7810
G01 X96.4649 Y-85.7731
G01 X96.4955 Y-85.7622
G01 X96.5249 Y-85.7483
G01 X96.5527 Y-85.7316
G01 X96.5788 Y-85.7122
G01 X96.6029 Y-85.6904
G01 X96.6219 Y-85.6696
G01 X96.6274 Y-85.6629
G01 X96.6441 Y-85.6402
G01 X96.6587 Y-85.6161
G01 X96.6627 Y-85.6085
G01 X96.6747 Y-85.5830
G01 X96.6856 Y-85.5524
G01 X96.6926 Y-85.5250
G01 X96.6943 Y-85.5166
G01 X96.6985 Y-85.4866
G01 X96.6999 Y-85.4562
G01 X96.6999 Y-84.5416
G01 X96.6983 Y-84.5113
G01 X96.6935 Y-84.4791
G01 X96.6856 Y-84.4476
G01 X96.6747 Y-84.4170
G01 X96.6608 Y-84.3876
G01 X96.6441 Y-84.3598
G01 X96.6247 Y-84.3337
G01 X96.6029 Y-84.3096
G01 X96.5788 Y-84.2878
G01 X96.5562 Y-84.2709
G01 X96.5491 Y-84.2661
G01 X96.5267 Y-84.2527
G01 X96.5210 Y-84.2498
G01 X96.4955 Y-84.2378
G01 X96.4649 Y-84.2269
G01 X96.4334 Y-84.2190
G01 X96.4033 Y-84.2144
G01 X96.3687 Y-84.2126
G01 X95.8813 Y-84.2126
G01 X95.8488 Y-84.2142
G01 X95.8166 Y-84.2190
G01 X95.7851 Y-84.2269
G01 X95.7545 Y-84.2378
G01 X95.7251 Y-84.2517
G01 X95.6973 Y-84.2684
G01 X95.6712 Y-84.2878
G01 X95.6471 Y-84.3096
G01 X95.6253 Y-84.3337
G01 X95.6059 Y-84.3598
G01 X95.5892 Y-84.3876
G01 X95.5770 Y-84.4131
G01 X95.5738 Y-84.4210
G01 X95.5650 Y-84.4456
G01 X95.5632 Y-84.4518
G01 X95.5565 Y-84.4791
G01 X95.5517 Y-84.5113
G01 X95.5501 Y-84.5437
G01 X95.5501 Y-85.2391
G01 X94.5791 Y-86.2102
G01 X94.5664 Y-86.2243
G01 X94.5525 Y-86.2431
G01 X94.5406 Y-86.2631
G01 X94.5306 Y-86.2841
G01 X94.5228 Y-86.3061
G01 X94.5171 Y-86.3287
G01 X94.5137 Y-86.3517
G01 X94.5125 Y-86.3750
G00 Z2.0000
G00 X98.3415 Y-85.7726
G01 F60.00
G01 Z0.0000
G01 F120.00
G01 X98.3415 Y-86.0874
G01 X98.3759 Y-86.1219
G01 X98.4786 Y-86.1234
G01 X98.5699 Y-86.1145
G01 X98.6492 Y-86.0904
G01 X98.7223 Y-86.0514
G01 X98.7863 Y-85.9988
G01 X98.8389 Y-85.9348
G01 X98.8779 Y-85.8617
G01 X98.9020 Y-85.7824
G01 X98.9110 Y-85.6903
G01 X98.9087 Y-85.3752
G01 X98.8749 Y-85.3415
G01 X98.5749 Y-85.3415
G01 X98.5749 Y-85.4584
G01 X98.5736 Y-85.4844
G01 X98.5728 Y-85.4930
G01 X98.5685 Y-85.5209
G01 X98.5606 Y-85.5524
G01 X98.5497 Y-85.5830
G01 X98.5358 Y-85.6124
G01 X98.5191 Y-85.6402
G01 X98.4997 Y-85.6663
G01 X98.4779 Y-85.6904
G01 X98.4538 Y-85.7122
G01 X98.4277 Y-85.7316
G01 X98.3999 Y-85.7483
G01 X98.3705 Y-85.7622
G01 X98.3415 Y-85.7726
G00 Z2.0000
G00 X98.3415 Y-84.2274
G01 F60.00
G01 Z0.0000
G01 F120.00
G01 X98.3705 Y-84.2378
G01 X98.3999 Y-84.2517
G01 X98.4277 Y-84.2684
G01 X98.4538 Y-84.2878
G01 X98.4779 Y-84.3096
G01 X98.4997 Y-84.3337
G01 X98.5191 Y-84.3598
G01 X98.5358 Y-84.3876
G01 X98.5497 Y-84.4170
G01 X98.5606 Y-84.4476
G01 X98.5685 Y-84.4791
G01 X98.5728 Y-84.5070
G01 X98.5736 Y-84.5156
G01 X98.5749 Y-84.5416
G01 X98.5749 Y-84.6585
G01 X98.8749 Y-84.6585
G01 X98.9087 Y-84.6248
G01 X98.9110 Y-84.3097
G01 X98.9020 Y-84.2176
G01 X98.8779 Y-84.1383
G01 X98.8389 Y-84.0652
G01 X98.7863 Y-84.0012
G01 X98.7223 Y-83.9486
G01 X98.6492 Y-83.9096
G01 X98.5699 Y-83.8855
G01 X98.4786 Y-83.8766
G01 X98.3759 Y-83.8781
G01 X98.3415 Y-83.9126
G01 X98.3415 Y-84.2274
G00 Z2.0000
G00 X103.4932 Y-86.4834
G01 F60.00
G01 Z0.0000
G01 F120.00
G01 X103.4949 Y-86.4750
G01 X103.5019 Y-86.4476
G01 X103.5113 Y-86.4210
G01 X103.5145 Y-86.4131
G01 X103.5267 Y-86.3876
G01 X103.5422 Y-86.3616
G01 X103.5601 Y-86.3371
G01 X103.5656 Y-86.3304
G01 X103.5846 Y-86.3096
G01 X103.6054 Y-86.2906
G01 X103.6121 Y-86.2851
G01 X103.6348 Y-86.2684
G01 X103.6589 Y-86.2538
G01 X103.6665 Y-86.2498
G01 X103.6920 Y-86.2378
G01 X103.7210 Y-86.2274
G01 X103.7210 Y-85.9126
G01 X103.6866 Y-85.8781
G01 X103.5839 Y-85.8766
G01 X103.4926 Y-85.8855
G01 X103.4133 Y-85.9096
G01 X103.3402 Y-85.9486
G01 X103.2762 Y-86.0012
G01 X103.2236 Y-86.0652
G01 X103.1846 Y-86.1383
G01 X103.1605 Y-86.2176
G01 X103.1515 Y-86.3097
G01 X103.1538 Y-86.6248
G01 X103.1876 Y-86.6585
G01 X103.4876 Y-86.6585
G01 X103.4876 Y-86.5416
G01 X103.4892 Y-86.5113
G01 X103.4932 Y-86.4834
G00 Z2.0000
G00 X103.4876 Y-87.3415
G01 F60.00
G01 Z0.0000
G01 F120.00
G01 X103.1876 Y-87.3415
G01 X103.1538 Y-87.3752
G01 X103.1515 Y-87.6903
G01 X103.1605 Y-87.7824
G01 X103.1846 Y-87.8617
G01 X103.2236 Y-87.9348
G01 X103.2762 Y-87.9988
G01 X103.3402 Y-88.0514
G01 X103.4133 Y-88.0904
G01 X103.4926 Y-88.1145
G01 X103.5839 Y-88.1234
G01 X103.6866 Y-88.1219
G01 X103.7210 Y-88.0874
G01 X103.7210 Y-87.7726
G01 X103.6920 Y-87.7622
G01 X103.6626 Y-87.7483
G01 X103.6348 Y-87.7316
G01 X103.6087 Y-87.7122
G01 X103.5846 Y-87.6904
G01 X103.5628 Y-87.6663
G01 X103.5434 Y-87.6402
G01 X103.5267 Y-87.6124
G01 X103.5128 Y-87.5830
G01 X103.5019 Y-87.5524
G01 X103.4940 Y-87.5209
G01 X103.4897 Y-87.4930
G01 X103.4889 Y-87.4844
G01 X103.4876 Y-87.4584
G01 X103.4876 Y-87.3415
G00 Z2.0000
G00 X95.0125 Y-90.8750
G01 F60.00
G01 Z0.0000
G01 F120.00
G01 X95.0125 Y-94.0625
G01 X95.0137 Y-94.0858
G01 X95.0175 Y-94.1109
G01 X95.0222 Y-94.1294
G01 X95.0241 Y-94.1355
G01 X95.0306 Y-94.1534
G01 X95.0376 Y-94.1684
G01 X95.0376 Y-94.4125
G01 X95.0381 Y-94.4251
G01 X95.0405 Y-94.4417
G01 X95.0435 Y-94.4540
G01 X95.0454 Y-94.4601
G01 X95.0490 Y-94.4699
G01 X95.0543 Y-94.4813
G01 X95.0629 Y-94.4958
G01 X95.0703 Y-94.5059
G01 X95.0744 Y-94.5108
G01 X95.0815 Y-94.5185
G01 X95.0908 Y-94.5270
G01 X95.1042 Y-94.5371
G01 X95.1150 Y-94.5437
G01 X95.1207 Y-94.5466
G01 X95.1321 Y-94.5518
G01 X95.1460 Y-94.5565
G01 X95.1604 Y-94.5599
G01 X95.1749 Y-94.5619
G01 X95.1875 Y-94.5624
G01 X95.3125 Y-94.5624
G01 X95.3251 Y-94.5619
G01 X95.3438 Y-94.5591
G01 X95.3560 Y-94.5559
G01 X95.3679 Y-94.5518
G01 X95.3850 Y-94.5437
G01 X95.3958 Y-94.5371
G01 X95.4059 Y-94.5297
G01 X95.4200 Y-94.5170
G01 X95.4284 Y-94.5076
G01 X95.4359 Y-94.4975
G01 X95.4457 Y-94.4813
G01 X95.4510 Y-94.4699
G01 X95.4553 Y-94.4581
G01 X95.4599 Y-94.4396
G01 X95.4617 Y-94.4272
G01 X95.4624 Y-94.4146
G01 X95.4624 Y-94.1684
G01 X95.4694 Y-94.1534
G01 X95.4759 Y-94.1355
G01 X95.4778 Y-94.1294
G01 X95.4820 Y-94.1130
G01 X95.4833 Y-94.1067
G01 X95.4861 Y-94.0879
G01 X95.4874 Y-94.0668
G01 X95.4875 Y-90.9734
G01 X95.7173 Y-90.7437
G01 X95.7270 Y-90.7493
G01 X95.7526 Y-90.7613
G01 X95.7851 Y-90.7731
G01 X95.8166 Y-90.7810
G01 X95.8445 Y-90.7853
G01 X95.8531 Y-90.7861
G01 X95.8813 Y-90.7874
G01 X96.3687 Y-90.7874
G01 X96.4033 Y-90.7856
G01 X96.4334 Y-90.7810
G01 X96.4607 Y-90.7743
G01 X96.4689 Y-90.7718
G01 X96.4935 Y-90.7630
G01 X96.4994 Y-90.7605
G01 X96.5249 Y-90.7483
G01 X96.5491 Y-90.7339
G01 X96.5562 Y-90.7291
G01 X96.5788 Y-90.7122
G01 X96.6029 Y-90.6904
G01 X96.6247 Y-90.6663
G01 X96.6441 Y-90.6402
G01 X96.6587 Y-90.6161
G01 X96.6627 Y-90.6085
G01 X96.6747 Y-90.5830
G01 X96.6843 Y-90.5564
G01 X96.6868 Y-90.5482
G01 X96.6935 Y-90.5209
G01 X96.6978 Y-90.4930
G01 X96.6986 Y-90.4844
G01 X96.6999 Y-90.4562
G01 X96.6999 Y-89.5416
G01 X96.6983 Y-89.5113
G01 X96.6935 Y-89.4791
G01 X96.6856 Y-89.4476
G01 X96.6747 Y-89.4170
G01 X96.6608 Y-89.3876
G01 X96.6441 Y-89.3598
G01 X96.6247 Y-89.3337
G01 X96.6029 Y-89.3096
G01 X96.5788 Y-89.2878
G01 X96.5562 Y-89.2709
G01 X96.5491 Y-89.2661
G01 X96.5267 Y-89.2527
G01 X96.5210 Y-89.2498
G01 X96.4955 Y-89.2378
G01 X96.4649 Y-89.2269
G01 X96.4334 Y-89.2190
G01 X96.4033 Y-89.2144
G01 X96.3687 Y-89.2126
G01 X95.8813 Y-89.2126
G01 X95.8488 Y-89.2142
G01 X95.8166 Y-89.2190
G01 X95.7851 Y-89.2269
G01 X95.7545 Y-89.2378
G01 X95.7251 Y-89.2517
G01 X95.6973 Y-89.2684
G01 X95.6712 Y-89.2878
G01 X95.6471 Y-89.3096
G01 X95.6253 Y-89.3337
G01 X95.6059 Y-89.3598
G01 X95.5892 Y-89.3876
G01 X95.5770 Y-89.4131
G01 X95.5738 Y-89.4210
G01 X95.5650 Y-89.4456
G01 X95.5632 Y-89.4518
G01 X95.5565 Y-89.4791
G01 X95.5517 Y-89.5113
G01 X95.5501 Y-89.5437
G01 X95.5501 Y-90.2391
G01 X95.0821 Y-90.7071
G01 X95.0678 Y-90.7227
G01 X95.0538 Y-90.7413
G01 X95.0427 Y-90.7593
G01 X95.0386 Y-90.7669
G01 X95.0314 Y-90.7822
G01 X95.0291 Y-90.7881
G01 X95.0228 Y-90.8061
G01 X95.0171 Y-90.8287
G01 X95.0137 Y-90.8517
G01 X95.0125 Y-90.8750
G00 Z2.0000
G00 X91.3647 Y-91.4930
G01 F60.00
G01 Z0.0000
G01 F120.00
G01 X91.3690 Y-91.5209
G01 X91.3769 Y-91.5524
G01 X91.3878 Y-91.5830
G01 X91.4017 Y-91.6124
G01 X91.4184 Y-91.6402
G01 X91.4378 Y-91.6663
G01 X91.4596 Y-91.6904
G01 X91.4820 Y-91.7109
G01 X91.5098 Y-91.7316
G01 X91.5376 Y-91.7483
G01 X91.5670 Y-91.7622
G01 X91.5936 Y-91.7718
G01 X91.6018 Y-91.7743
G01 X91.6270 Y-91.7806
G01 X91.6570 Y-91.7853
G01 X91.6656 Y-91.7861
G01 X91.6895 Y-91.7873
G01 X91.7000 Y-91.7874
G01 X91.7001 Y-92.1043
G01 X91.7014 Y-92.1254
G01 X91.7050 Y-92.1484
G01 X91.7103 Y-92.1689
G01 X91.7189 Y-92.1928
G01 X91.7281 Y-92.2119
G01 X91.7400 Y-92.2319
G01 X91.7539 Y-92.2507
G01 X91.7681 Y-92.2664
G01 X91.9836 Y-92.4819
G01 X91.9993 Y-92.4961
G01 X92.0199 Y-92.5111
G01 X92.0381 Y-92.5219
G01 X92.0552 Y-92.5302
G01 X92.0631 Y-92.5334
G01 X92.0811 Y-92.5397
G01 X92.0995 Y-92.5445
G01 X92.1079 Y-92.5461
G01 X92.1267 Y-92.5488
G01 X92.1457 Y-92.5499
G01 X93.0125 Y-92.5500
G01 X93.0126 Y-94.0646
G01 X93.0139 Y-94.0879
G01 X93.0167 Y-94.1067
G01 X93.0180 Y-94.1130
G01 X93.0222 Y-94.1294
G01 X93.0241 Y-94.1355
G01 X93.0306 Y-94.1534
G01 X93.0376 Y-94.1684
G01 X93.0376 Y-94.4125
G01 X93.0383 Y-94.4272
G01 X93.0405 Y-94.4417
G01 X93.0435 Y-94.4540
G01 X93.0454 Y-94.4601
G01 X93.0490 Y-94.4699
G01 X93.0543 Y-94.4813
G01 X93.0641 Y-94.4975
G01 X93.0716 Y-94.5076
G01 X93.0786 Y-94.5154
G01 X93.0830 Y-94.5200
G01 X93.0924 Y-94.5284
G01 X93.1025 Y-94.5359
G01 X93.1078 Y-94.5394
G01 X93.1168 Y-94.5447
G01 X93.1282 Y-94.5501
G01 X93.1460 Y-94.5565
G01 X93.1583 Y-94.5595
G01 X93.1685 Y-94.5612
G01 X93.1854 Y-94.5624
G01 X93.3125 Y-94.5624
G01 X93.3251 Y-94.5619
G01 X93.3417 Y-94.5595
G01 X93.3540 Y-94.5565
G01 X93.3601 Y-94.5546
G01 X93.3699 Y-94.5510
G01 X93.3813 Y-94.5457
G01 X93.3958 Y-94.5371
G01 X93.4076 Y-94.5284
G01 X93.4185 Y-94.5185
G01 X93.4284 Y-94.5076
G01 X93.4371 Y-94.4958
G01 X93.4447 Y-94.4832
G01 X93.4510 Y-94.4699
G01 X93.4559 Y-94.4560
G01 X93.4595 Y-94.4417
G01 X93.4617 Y-94.4272
G01 X93.4624 Y-94.4125
G01 X93.4624 Y-94.1684
G01 X93.4694 Y-94.1534
G01 X93.4759 Y-94.1355
G01 X93.4778 Y-94.1294
G01 X93.4820 Y-94.1130
G01 X93.4833 Y-94.1067
G01 X93.4861 Y-94.0879
G01 X93.4874 Y-94.0668
G01 X93.4875 Y-92.3125
G01 X93.4863 Y-92.2892
G01 X93.4825 Y-92.2641
G01 X93.4772 Y-92.2436
G01 X93.4709 Y-92.2256
G01 X93.4677 Y-92.2177
G01 X93.4594 Y-92.2006
G01 X93.4475 Y-92.1806
G01 X93.4362 Y-92.1652
G01 X93.4308 Y-92.1586
G01 X93.4179 Y-92.1446
G01 X93.4039 Y-92.1317
G01 X93.3973 Y-92.1263
G01 X93.3819 Y-92.1150
G01 X93.3619 Y-92.1031
G01 X93.3448 Y-92.0948
G01 X93.3369 Y-92.0916
G01 X93.3189 Y-92.0853
G01 X93.2963 Y-92.0796
G01 X93.2733 Y-92.0762
G01 X93.2500 Y-92.0750
G01 X92.2484 Y-92.0750
G01 X92.1750 Y-92.0016
G01 X92.1750 Y-91.7874
G01 X92.1855 Y-91.7873
G01 X92.2094 Y-91.7861
G01 X92.2180 Y-91.7853
G01 X92.2480 Y-91.7806
G01 X92.2732 Y-91.7743
G01 X92.2814 Y-91.7718
G01 X92.3080 Y-91.7622
G01 X92.3374 Y-91.7483
G01 X92.3652 Y-91.7316
G01 X92.3930 Y-91.7109
G01 X92.4154 Y-91.6904
G01 X92.4372 Y-91.6663
G01 X92.4566 Y-91.6402
G01 X92.4733 Y-91.6124
G01 X92.4872 Y-91.5830
G01 X92.4981 Y-91.5524
G01 X92.5060 Y-91.5209
G01 X92.5106 Y-91.4908
G01 X92.5124 Y-91.4562
G01 X92.5124 Y-90.5438
G01 X92.5108 Y-90.5113
G01 X92.5060 Y-90.4791
G01 X92.4981 Y-90.4476
G01 X92.4872 Y-90.4170
G01 X92.4733 Y-90.3876
G01 X92.4566 Y-90.3598
G01 X92.4372 Y-90.3337
G01 X92.4154 Y-90.3096
G01 X92.3930 Y-90.2891
G01 X92.3687 Y-90.2709
G01 X92.3616 Y-90.2661
G01 X92.3374 Y-90.2517
G01 X92.3080 Y-90.2378
G01 X92.2814 Y-90.2282
G01 X92.2732 Y-90.2257
G01 X92.2459 Y-90.2190
G01 X92.2137 Y-90.2142
G01 X92.1812 Y-90.2126
G01 X91.6895 Y-90.2127
G01 X91.6634 Y-90.2140
G01 X91.6570 Y-90.2147
G01 X91.6291 Y-90.2190
G01 X91.6018 Y-90.2257
G01 X91.5936 Y-90.2282
G01 X91.5690 Y-90.2370
G01 X91.5415 Y-90.2498
G01 X91.5339 Y-90.2538
G01 X91.5098 Y-90.2684
G01 X91.4837 Y-90.2878
G01 X91.4596 Y-90.3096
G01 X91.4391 Y-90.3320
G01 X91.4209 Y-90.3563
G01 X91.4161 Y-90.3634
G01 X91.4017 Y-90.3876
G01 X91.3878 Y-90.4170
G01 X91.3769 Y-90.4476
G01 X91.3699 Y-90.4750
G01 X91.3682 Y-90.4834
G01 X91.3640 Y-90.5134
G01 X91.3626 Y-90.5438
G01 X91.3626 Y-91.4562
G01 X91.3639 Y-91.4844
G01 X91.3647 Y-91.4930
G00 Z2.0000
G00 X89.4876 Y-91.3415
G01 F60.00
G01 Z0.0000
G01 F120.00
G01 X89.1876 Y-91.3415
G01 X89.1538 Y-91.3752
G01 X89.1515 Y-91.6903
G01 X89.1605 Y-91.7824
G01 X89.1846 Y-91.8617
G01 X89.2236 Y-91.9348
G01 X89.2762 Y-91.9988
G01 X89.3402 Y-92.0514
G01 X89.4133 Y-92.0904
G01 X89.4926 Y-92.1145
G01 X89.5839 Y-92.1234
G01 X89.6866 Y-92.1219
G01 X89.7210 Y-92.0874
G01 X89.7210 Y-91.7726
G01 X89.6920 Y-91.7622
G01 X89.6626 Y-91.7483
G01 X89.6348 Y-91.7316
G01 X89.6087 Y-91.7122
G01 X89.5846 Y-91.6904
G01 X89.5628 Y-91.6663
G01 X89.5434 Y-91.6402
G01 X89.5267 Y-91.6124
G01 X89.5128 Y-91.5830
G01 X89.5019 Y-91.5524
G01 X89.4940 Y-91.5209
G01 X89.4897 Y-91.4930
G01 X89.4889 Y-91.4844
G01 X89.4876 Y-91.4584
G01 X89.4876 Y-91.3415
G00 Z2.0000
G00 X91.5638 Y-94.8315
G01 F60.00
G01 Z0.0000
G01 F120.00
G01 X91.5659 Y-94.8438
G01 X91.5691 Y-94.8560
G01 X91.5740 Y-94.8699
G01 X91.5793 Y-94.8813
G01 X91.5856 Y-94.8922
G01 X91.5903 Y-94.8993
G01 X91.5980 Y-94.9092
G01 X91.6065 Y-94.9185
G01 X91.6158 Y-94.9270
G01 X91.6257 Y-94.9347
G01 X91.6328 Y-94.9394
G01 X91.6437 Y-94.9457
G01 X91.6551 Y-94.9510
G01 X91.6690 Y-94.9559
G01 X91.6812 Y-94.9591
G01 X91.6935 Y-94.9612
G01 X91.6999 Y-94.9619
G01 X91.7125 Y-94.9624
G01 X92.4125 Y-94.9624
G01 X92.4272 Y-94.9617
G01 X92.4396 Y-94.9599
G01 X92.4560 Y-94.9559
G01 X92.4679 Y-94.9518
G01 X92.4738 Y-94.9493
G01 X92.4832 Y-94.9447
G01 X92.4940 Y-94.9383
G01 X92.5076 Y-94.9284
G01 X92.5200 Y-94.9170
G01 X92.5310 Y-94.9042
G01 X92.5371 Y-94.8958
G01 X92.5437 Y-94.8850
G01 X92.5510 Y-94.8699
G01 X92.5559 Y-94.8560
G01 X92.5591 Y-94.8438
G01 X92.5614 Y-94.8293
G01 X92.5623 Y-94.8168
G01 X92.5624 Y-94.6854
G01 X92.5617 Y-94.6728
G01 X92.5599 Y-94.6604
G01 X92.5571 Y-94.6481
G01 X92.5546 Y-94.6399
G01 X92.5501 Y-94.6282
G01 X92.5447 Y-94.6168
G01 X92.5383 Y-94.6060
G01 X92.5310 Y-94.5958
G01 X92.5256 Y-94.5892
G01 X92.5170 Y-94.5800
G01 X92.5076 Y-94.5716
G01 X92.4975 Y-94.5641
G01 X92.4869 Y-94.5574
G01 X92.4793 Y-94.5534
G01 X92.4679 Y-94.5482
G01 X92.4560 Y-94.5441
G01 X92.4438 Y-94.5409
G01 X92.4315 Y-94.5388
G01 X92.4251 Y-94.5381
G01 X92.4125 Y-94.5376
G01 X91.7125 Y-94.5376
G01 X91.6978 Y-94.5383
G01 X91.6854 Y-94.5401
G01 X91.6690 Y-94.5441
G01 X91.6571 Y-94.5482
G01 X91.6512 Y-94.5507
G01 X91.6418 Y-94.5553
G01 X91.6310 Y-94.5617
G01 X91.6174 Y-94.5716
G01 X91.6050 Y-94.5830
G01 X91.5940 Y-94.5958
G01 X91.5879 Y-94.6042
G01 X91.5813 Y-94.6150
G01 X91.5740 Y-94.6301
G01 X91.5691 Y-94.6440
G01 X91.5659 Y-94.6562
G01 X91.5638 Y-94.6685
G01 X91.5630 Y-94.6771
G01 X91.5626 Y-94.6875
G01 X91.5626 Y-94.8125
G01 X91.5631 Y-94.8251
G01 X91.5638 Y-94.8315
G00 Z2.0000
G00 X91.5638 Y-95.3315
G01 F60.00
G01 Z0.0000
G01 F120.00
G01 X91.5659 Y-95.3438
G01 X91.5691 Y-95.3560
G01 X91.5740 Y-95.3699
G01 X91.5793 Y-95.3813
G01 X91.5856 Y-95.3922
G01 X91.5903 Y-95.3993
G01 X91.5980 Y-95.4092
G01 X91.6065 Y-95.4185
G01 X91.6158 Y-95.4270
G01 X91.6257 Y-95.4347
G01 X91.6328 Y-95.4394
G01 X91.6437 Y-95.4457
G01 X91.6551 Y-95.4510
G01 X91.6690 Y-95.4559
G01 X91.6812 Y-95.4591
G01 X91.6935 Y-95.4612
G01 X91.6999 Y-95.4619
G01 X91.7125 Y-95.4624
G01 X92.4125 Y-95.4624
G01 X92.4272 Y-95.4617
G01 X92.4396 Y-95.4599
G01 X92.4560 Y-95.4559
G01 X92.4679 Y-95.4518
G01 X92.4738 Y-95.4493
G01 X92.4832 Y-95.4447
G01 X92.4940 Y-95.4383
G01 X92.5076 Y-95.4284
G01 X92.5200 Y-95.4170
G01 X92.5310 Y-95.4042
G01 X92.5371 Y-95.3958
G01 X92.5437 Y-95.3850
G01 X92.5510 Y-95.3699
G01 X92.5559 Y-95.3560
G01 X92.5591 Y-95.3438
G01 X92.5614 Y-95.3293
G01 X92.5623 Y-95.3168
G01 X92.5624 Y-95.1854
G01 X92.5617 Y-95.1728
G01 X92.5599 Y-95.1604
G01 X92.5571 Y-95.1481
G01 X92.5546 Y-95.1399
G01 X92.5501 Y-95.1282
G01 X92.5447 Y-95.1168
G01 X92.5383 Y-95.1060
G01 X92.5310 Y-95.0958
G01 X92.5256 Y-95.0892
G01 X92.5170 Y-95.0800
G01 X92.5076 Y-95.0716
G01 X92.4975 Y-95.0641
G01 X92.4869 Y-95.0574
G01 X92.4793 Y-95.0534
G01 X92.4679 Y-95.0482
G01 X92.4560 Y-95.0441
G01 X92.4438 Y-95.0409
G01 X92.4315 Y-95.0388
G01 X92.4251 Y-95.0381
G01 X92.4125 Y-95.0376
G01 X91.7125 Y-95.0376
G01 X91.6978 Y-95.0383
G01 X91.6854 Y-95.0401
G01 X91.6690 Y-95.0441
G01 X91.6571 Y-95.0482
G01 X91.6512 Y-95.0507
G01 X91.6418 Y-95.0553
G01 X91.6310 Y-95.0617
G01 X91.6174 Y-95.0716
G01 X91.6050 Y-95.0830
G01 X91.5940 Y-95.0958
G01 X91.5879 Y-95.1042
G01 X91.5813 Y-95.1150
G01 X91.5740 Y-95.1301
G01 X91.5691 Y-95.1440
G01 X91.5659 Y-95.1562
G01 X91.5638 Y-95.1685
G01 X91.5630 Y-95.1771
G01 X91.5626 Y-95.1875
G01 X91.5626 Y-95.3125
G01 X91.5631 Y-95.3251
G01 X91.5638 Y-95.3315
G00 Z2.0000
G00 X94.0388 Y-98.3065
G01 F60.00
G01 Z0.0000
G01 F120.00
G01 X94.0409 Y-98.3188
G01 X94.0441 Y-98.3310
G01 X94.0490 Y-98.3449
G01 X94.0543 Y-98.3563
G01 X94.0606 Y-98.3672
G01 X94.0653 Y-98.3743
G01 X94.0730 Y-98.3842
G01 X94.0830 Y-98.3950
G01 X94.0924 Y-98.4034
G01 X94.1042 Y-98.4121
G01 X94.1150 Y-98.4187
G01 X94.1262 Y-98.4243
G01 X94.1341 Y-98.4275
G01 X94.1460 Y-98.4315
G01 X94.1583 Y-98.4345
G01 X94.1728 Y-98.4367
G01 X94.1875 Y-98.4374
G01 X94.3146 Y-98.4374
G01 X94.3272 Y-98.4367
G01 X94.3396 Y-98.4349
G01 X94.3581 Y-98.4303
G01 X94.3738 Y-98.4243
G01 X94.3832 Y-98.4197
G01 X94.3922 Y-98.4144
G01 X94.4059 Y-98.4047
G01 X94.4170 Y-98.3950
G01 X94.4284 Y-98.3826
G01 X94.4371 Y-98.3708
G01 X94.4447 Y-98.3582
G01 X94.4518 Y-98.3429
G01 X94.4559 Y-98.3310
G01 X94.4595 Y-98.3167
G01 X94.4617 Y-98.3022
G01 X94.4624 Y-98.2896
G01 X94.4624 Y-97.5875
G01 X94.4617 Y-97.5728
G01 X94.4599 Y-97.5604
G01 X94.4586 Y-97.5541
G01 X94.4559 Y-97.5440
G01 X94.4518 Y-97.5321
G01 X94.4437 Y-97.5150
G01 X94.4371 Y-97.5042
G01 X94.4310 Y-97.4958
G01 X94.4270 Y-97.4908
G01 X94.4185 Y-97.4815
G01 X94.4092 Y-97.4730
G01 X94.4042 Y-97.4690
G01 X94.3958 Y-97.4629
G01 X94.3850 Y-97.4563
G01 X94.3679 Y-97.4482
G01 X94.3560 Y-97.4441
G01 X94.3417 Y-97.4405
G01 X94.3272 Y-97.4383
G01 X94.3146 Y-97.4376
G01 X94.1854 Y-97.4376
G01 X94.1685 Y-97.4388
G01 X94.1583 Y-97.4405
G01 X94.1481 Y-97.4429
G01 X94.1321 Y-97.4482
G01 X94.1168 Y-97.4553
G01 X94.1025 Y-97.4641
G01 X94.0892 Y-97.4744
G01 X94.0815 Y-97.4815
G01 X94.0744 Y-97.4892
G01 X94.0641 Y-97.5025
G01 X94.0553 Y-97.5168
G01 X94.0482 Y-97.5321
G01 X94.0441 Y-97.5440
G01 X94.0405 Y-97.5583
G01 X94.0383 Y-97.5728
G01 X94.0376 Y-97.5875
G01 X94.0376 Y-98.2875
G01 X94.0381 Y-98.3001
G01 X94.0388 Y-98.3065
G00 Z2.0000
G00 X95.4388 Y-97.3315
G01 F60.00
G01 Z0.0000
G01 F120.00
G01 X95.4409 Y-97.3438
G01 X95.4441 Y-97.3560
G01 X95.4482 Y-97.3679
G01 X95.4534 Y-97.3793
G01 X95.4574 Y-97.3869
G01 X95.4641 Y-97.3975
G01 X95.4716 Y-97.4076
G01 X95.4800 Y-97.4170
G01 X95.4892 Y-97.4256
G01 X95.4958 Y-97.4310
G01 X95.5060 Y-97.4383
G01 X95.5168 Y-97.4447
G01 X95.5282 Y-97.4501
G01 X95.5399 Y-97.4546
G01 X95.5460 Y-97.4565
G01 X95.5583 Y-97.4595
G01 X95.5728 Y-97.4617
G01 X95.5875 Y-97.4624
G01 X96.2875 Y-97.4624
G01 X96.3022 Y-97.4617
G01 X96.3133 Y-97.4601
G01 X96.3519 Y-97.4886
G01 X96.4013 Y-97.5183
G01 X96.4535 Y-97.5429
G01 X96.5037 Y-97.5610
G01 X96.5119 Y-97.5635
G01 X96.5595 Y-97.5754
G01 X96.5679 Y-97.5771
G01 X96.6208 Y-97.5848
G01 X96.6762 Y-97.5876
G01 X102.0021 Y-97.5876
G01 X102.0576 Y-97.5848
G01 X102.1104 Y-97.5771
G01 X102.1188 Y-97.5754
G01 X102.1706 Y-97.5623
G01 X102.2249 Y-97.5429
G01 X102.2732 Y-97.5202
G01 X102.2807 Y-97.5161
G01 X102.3282 Y-97.4874
G01 X102.3728 Y-97.4543
G01 X102.4155 Y-97.4155
G01 X106.3530 Y-93.4780
G01 X106.3918 Y-93.4353
G01 X106.4261 Y-93.3890
G01 X106.4558 Y-93.3395
G01 X106.4804 Y-93.2874
G01 X106.4998 Y-93.2331
G01 X106.5139 Y-93.1771
G01 X106.5223 Y-93.1201
G01 X106.5252 Y-93.0625
G01 X106.5252 Y-87.2434
G01 X109.3009 Y-84.4677
G01 X113.4126 Y-84.4677
G01 X113.4128 Y-85.3864
G01 X113.4147 Y-85.3991
G01 X113.4185 Y-85.4115
G01 X113.4240 Y-85.4231
G01 X113.4311 Y-85.4338
G01 X113.4367 Y-85.4403
G01 X113.4413 Y-85.4448
G01 X113.4514 Y-85.4527
G01 X113.4626 Y-85.4590
G01 X113.4746 Y-85.4636
G01 X113.4872 Y-85.4665
G01 X113.5000 Y-85.4674
G01 X116.5000 Y-85.4674
G01 X116.5107 Y-85.4667
G01 X116.5212 Y-85.4648
G01 X116.5315 Y-85.4615
G01 X116.5393 Y-85.4581
G01 X116.5486 Y-85.4527
G01 X116.5587 Y-85.4448
G01 X116.5676 Y-85.4354
G01 X116.5750 Y-85.4249
G01 X116.5807 Y-85.4134
G01 X116.5842 Y-85.4033
G01 X116.5867 Y-85.3907
G01 X116.5874 Y-85.3800
G01 X116.5874 Y-82.3800
G01 X116.5865 Y-82.3672
G01 X116.5836 Y-82.3546
G01 X116.5815 Y-82.3485
G01 X116.5781 Y-82.3407
G01 X116.5715 Y-82.3297
G01 X116.5662 Y-82.3229
G01 X116.5587 Y-82.3152
G01 X116.5503 Y-82.3085
G01 X116.5412 Y-82.3029
G01 X116.5315 Y-82.2985
G01 X116.5212 Y-82.2952
G01 X116.5107 Y-82.2933
G01 X116.5000 Y-82.2926
G01 X113.5000 Y-82.2926
G01 X113.4872 Y-82.2935
G01 X113.4809 Y-82.2947
G01 X113.4726 Y-82.2970
G01 X113.4607 Y-82.3019
G01 X113.4532 Y-82.3062
G01 X113.4479 Y-82.3098
G01 X113.4413 Y-82.3152
G01 X113.4367 Y-82.3197
G01 X113.4324 Y-82.3246
G01 X113.4273 Y-82.3314
G01 X113.4240 Y-82.3369
G01 X113.4201 Y-82.3446
G01 X113.4170 Y-82.3526
G01 X113.4152 Y-82.3588
G01 X113.4135 Y-82.3672
G01 X113.4128 Y-82.3736
G01 X113.4126 Y-83.2923
G01 X110.5877 Y-83.2923
G01 X110.5876 Y-78.9979
G01 X110.5848 Y-78.9424
G01 X110.5764 Y-78.8854
G01 X110.5623 Y-78.8294
G01 X110.5445 Y-78.7791
G01 X110.5412 Y-78.7712
G01 X110.5202 Y-78.7268
G01 X110.5161 Y-78.7193
G01 X110.4886 Y-78.6735
G01 X110.4543 Y-78.6272
G01 X110.4155 Y-78.5845
G01 X110.3728 Y-78.5457
G01 X110.3265 Y-78.5114
G01 X110.2770 Y-78.4817
G01 X110.2249 Y-78.4571
G01 X110.1706 Y-78.4377
G01 X110.1146 Y-78.4236
G01 X110.0555 Y-78.4150
G01 X110.0000 Y-78.4123
G01 X107.9141 Y-78.4123
G01 X107.9029 Y-78.3941
G01 X107.8406 Y-78.3102
G01 X107.7689 Y-78.2311
G01 X107.6898 Y-78.1594
G01 X107.6076 Y-78.0983
G01 X107.6005 Y-78.0936
G01 X107.5126 Y-78.0410
G01 X107.4201 Y-77.9971
G01 X107.4121 Y-77.9938
G01 X107.3197 Y-77.9608
G01 X107.3115 Y-77.9583
G01 X107.2121 Y-77.9335
G01 X107.1087 Y-77.9181
G01 X107.0000 Y-77.9126
G01 X106.8934 Y-77.9178
G01 X106.7879 Y-77.9335
G01 X106.6885 Y-77.9583
G01 X106.6803 Y-77.9608
G01 X106.5879 Y-77.9938
G01 X106.5799 Y-77.9971
G01 X106.4874 Y-78.0410
G01 X106.3941 Y-78.0971
G01 X106.3135 Y-78.1568
G01 X106.3069 Y-78.1622
G01 X106.2311 Y-78.2311
G01 X106.1622 Y-78.3069
G01 X106.1568 Y-78.3135
G01 X106.0959 Y-78.3959
G01 X106.0431 Y-78.4837
G01 X106.0391 Y-78.4912
G01 X105.9954 Y-78.5839
G01 X105.9608 Y-78.6803
G01 X105.9583 Y-78.6885
G01 X105.9335 Y-78.7879
G01 X105.9184 Y-78.8892
G01 X105.9175 Y-78.8977
G01 X105.9126 Y-79.0000
G01 X105.9175 Y-79.1023
G01 X105.9184 Y-79.1108
G01 X105.9335 Y-79.2121
G01 X105.9583 Y-79.3115
G01 X105.9608 Y-79.3197
G01 X105.9954 Y-79.4161
G01 X106.0391 Y-79.5088
G01 X106.0431 Y-79.5163
G01 X106.0959 Y-79.6041
G01 X106.1568 Y-79.6865
G01 X106.1622 Y-79.6931
G01 X106.2311 Y-79.7689
G01 X106.3069 Y-79.8378
G01 X106.3135 Y-79.8432
G01 X106.3959 Y-79.9041
G01 X106.4893 Y-79.9600
G01 X106.5839 Y-80.0046
G01 X106.6803 Y-80.0392
G01 X106.6885 Y-80.0417
G01 X106.7879 Y-80.0665
G01 X106.8934 Y-80.0822
G01 X106.9957 Y-80.0873
G01 X107.0043 Y-80.0873
G01 X107.1087 Y-80.0819
G01 X107.2121 Y-80.0665
G01 X107.3115 Y-80.0417
G01 X107.3197 Y-80.0392
G01 X107.4121 Y-80.0062
G01 X107.4201 Y-80.0029
G01 X107.5126 Y-79.9590
G01 X107.6005 Y-79.9064
G01 X107.6076 Y-79.9017
G01 X107.6898 Y-79.8406
G01 X107.7689 Y-79.7689
G01 X107.8406 Y-79.6898
G01 X107.9029 Y-79.6059
G01 X107.9141 Y-79.5877
G01 X109.4123 Y-79.5877
G01 X109.4123 Y-83.2923
G01 X109.0554 Y-83.2924
G01 X108.9999 Y-83.2952
G01 X108.9450 Y-83.3032
G01 X108.8869 Y-83.3177
G01 X108.8366 Y-83.3355
G01 X108.8287 Y-83.3388
G01 X108.7805 Y-83.3617
G01 X108.7346 Y-83.3891
G01 X108.7275 Y-83.3939
G01 X108.6864 Y-83.4244
G01 X108.6420 Y-83.4645
G01 X105.8938 Y-86.2126
G01 X105.6938 Y-86.2126
G01 X105.6634 Y-86.2140
G01 X105.6334 Y-86.2182
G01 X105.6250 Y-86.2199
G01 X105.5976 Y-86.2269
G01 X105.5670 Y-86.2378
G01 X105.5376 Y-86.2517
G01 X105.5098 Y-86.2684
G01 X105.4837 Y-86.2878
G01 X105.4596 Y-86.3096
G01 X105.4378 Y-86.3337
G01 X105.4184 Y-86.3598
G01 X105.4017 Y-86.3876
G01 X105.3878 Y-86.4170
G01 X105.3769 Y-86.4476
G01 X105.3699 Y-86.4750
G01 X105.3682 Y-86.4834
G01 X105.3640 Y-86.5134
G01 X105.3626 Y-86.5438
G01 X105.3626 Y-86.8791
G01 X105.3604 Y-86.8896
G01 X105.3527 Y-86.9424
G01 X105.3498 Y-87.0000
G01 X105.3498 Y-92.8191
G01 X101.7566 Y-96.4123
G01 X96.6762 Y-96.4124
G01 X96.6208 Y-96.4152
G01 X96.5679 Y-96.4229
G01 X96.5595 Y-96.4246
G01 X96.5119 Y-96.4365
G01 X96.5037 Y-96.4390
G01 X96.4535 Y-96.4571
G01 X96.4013 Y-96.4817
G01 X96.3519 Y-96.5114
G01 X96.3164 Y-96.5375
G01 X95.5875 Y-96.5376
G01 X95.5749 Y-96.5381
G01 X95.5685 Y-96.5388
G01 X95.5583 Y-96.5405
G01 X95.5460 Y-96.5435
G01 X95.5301 Y-96.5490
G01 X95.5187 Y-96.5543
G01 X95.5131 Y-96.5574
G01 X95.5042 Y-96.5629
G01 X95.4941 Y-96.5703
G01 X95.4815 Y-96.5815
G01 X95.4730 Y-96.5908
G01 X95.4690 Y-96.5958
G01 X95.4629 Y-96.6042
G01 X95.4563 Y-96.6150
G01 X95.4482 Y-96.6321
G01 X95.4441 Y-96.6440
G01 X95.4405 Y-96.6583
G01 X95.4383 Y-96.6728
G01 X95.4376 Y-96.6854
G01 X95.4377 Y-96.8168
G01 X95.4383 Y-96.8272
G01 X95.4401 Y-96.8396
G01 X95.4441 Y-96.8560
G01 X95.4490 Y-96.8699
G01 X95.4563 Y-96.8850
G01 X95.4653 Y-96.8993
G01 X95.4716 Y-96.9076
G01 X95.4786 Y-96.9154
G01 X95.4908 Y-96.9270
G01 X95.5042 Y-96.9371
G01 X95.5168 Y-96.9447
G01 X95.5321 Y-96.9518
G01 X95.5440 Y-96.9559
G01 X95.5562 Y-96.9591
G01 X95.5685 Y-96.9612
G01 X95.5771 Y-96.9620
G01 X95.5875 Y-96.9624
G01 X95.7250 Y-96.9624
G01 X95.7250 Y-97.0376
G01 X95.5854 Y-97.0376
G01 X95.5728 Y-97.0383
G01 X95.5604 Y-97.0401
G01 X95.5481 Y-97.0429
G01 X95.5399 Y-97.0454
G01 X95.5282 Y-97.0499
G01 X95.5168 Y-97.0553
G01 X95.5060 Y-97.0617
G01 X95.4958 Y-97.0690
G01 X95.4892 Y-97.0744
G01 X95.4800 Y-97.0830
G01 X95.4716 Y-97.0924
G01 X95.4641 Y-97.1025
G01 X95.4543 Y-97.1187
G01 X95.4490 Y-97.1301
G01 X95.4447 Y-97.1419
G01 X95.4401 Y-97.1604
G01 X95.4383 Y-97.1728
G01 X95.4376 Y-97.1875
G01 X95.4376 Y-97.3125
G01 X95.4381 Y-97.3251
G01 X95.4388 Y-97.3315
G00 Z2.0000
G00 X95.4388 Y-94.8315
G01 F60.00
G01 Z0.0000
G01 F120.00
G01 X95.4405 Y-94.8417
G01 X95.4435 Y-94.8540
G01 X95.4499 Y-94.8718
G01 X95.4553 Y-94.8832
G01 X95.4606 Y-94.8922
G01 X95.4641 Y-94.8975
G01 X95.4716 Y-94.9076
G01 X95.4800 Y-94.9170
G01 X95.4892 Y-94.9256
G01 X95.4941 Y-94.9297
G01 X95.5042 Y-94.9371
G01 X95.5150 Y-94.9437
G01 X95.5207 Y-94.9466
G01 X95.5301 Y-94.9510
G01 X95.5419 Y-94.9553
G01 X95.5604 Y-94.9599
G01 X95.5728 Y-94.9617
G01 X95.5854 Y-94.9624
G01 X95.8316 Y-94.9624
G01 X95.8486 Y-94.9702
G01 X95.8706 Y-94.9778
G01 X95.8912 Y-94.9829
G01 X95.9164 Y-94.9865
G01 X95.9375 Y-94.9875
G01 X97.7521 Y-94.9874
G01 X97.7754 Y-94.9861
G01 X97.7942 Y-94.9833
G01 X97.8005 Y-94.9820
G01 X97.8189 Y-94.9772
G01 X97.8369 Y-94.9709
G01 X97.8428 Y-94.9686
G01 X97.8600 Y-94.9604
G01 X97.8819 Y-94.9475
G01 X97.8973 Y-94.9362
G01 X97.9039 Y-94.9308
G01 X97.9179 Y-94.9179
G01 X97.9983 Y-94.8375
G01 X98.0331 Y-94.8359
G01 X98.0658 Y-94.8310
G01 X98.0980 Y-94.8230
G01 X98.1292 Y-94.8118
G01 X98.1591 Y-94.7977
G01 X98.1875 Y-94.7806
G01 X98.2141 Y-94.7609
G01 X98.2371 Y-94.7402
G01 X98.2609 Y-94.7141
G01 X98.2806 Y-94.6875
G01 X98.2977 Y-94.6591
G01 X98.3118 Y-94.6292
G01 X98.3230 Y-94.5980
G01 X98.3310 Y-94.5658
G01 X98.3359 Y-94.5331
G01 X98.3375 Y-94.5021
G01 X98.3375 Y-90.7738
G01 X98.3705 Y-90.7622
G01 X98.3999 Y-90.7483
G01 X98.4277 Y-90.7316
G01 X98.4538 Y-90.7122
G01 X98.4779 Y-90.6904
G01 X98.4997 Y-90.6663
G01 X98.5191 Y-90.6402
G01 X98.5358 Y-90.6124
G01 X98.5497 Y-90.5830
G01 X98.5606 Y-90.5524
G01 X98.5685 Y-90.5209
G01 X98.5728 Y-90.4930
G01 X98.5736 Y-90.4844
G01 X98.5749 Y-90.4584
G01 X98.5749 Y-90.3375
G01 X100.0021 Y-90.3375
G01 X100.0331 Y-90.3359
G01 X100.0658 Y-90.3310
G01 X100.0980 Y-90.3230
G01 X100.1311 Y-90.3110
G01 X100.1591 Y-90.2977
G01 X100.1875 Y-90.2806
G01 X100.2141 Y-90.2609
G01 X100.2387 Y-90.2387
G01 X101.2387 Y-89.2387
G01 X101.2609 Y-89.2141
G01 X101.2782 Y-89.1910
G01 X101.2829 Y-89.1839
G01 X101.2966 Y-89.1610
G01 X101.2996 Y-89.1553
G01 X101.3110 Y-89.1311
G01 X101.3134 Y-89.1252
G01 X101.3230 Y-89.0980
G01 X101.3301 Y-89.0700
G01 X101.3318 Y-89.0616
G01 X101.3359 Y-89.0331
G01 X101.3375 Y-89.0000
G01 X101.3375 Y-81.1398
G01 X102.5083 Y-79.9690
G01 X102.5839 Y-80.0046
G01 X102.6843 Y-80.0406
G01 X102.7879 Y-80.0665
G01 X102.8934 Y-80.0822
G01 X103.0000 Y-80.0874
G01 X103.1066 Y-80.0822
G01 X103.2121 Y-80.0665
G01 X103.3115 Y-80.0417
G01 X103.3197 Y-80.0392
G01 X103.4121 Y-80.0062
G01 X103.4201 Y-80.0029
G01 X103.5126 Y-79.9590
G01 X103.6005 Y-79.9064
G01 X103.6076 Y-79.9017
G01 X103.6898 Y-79.8406
G01 X103.7689 Y-79.7689
G01 X103.8406 Y-79.6898
G01 X103.9029 Y-79.6059
G01 X103.9590 Y-79.5126
G01 X104.0046 Y-79.4161
G01 X104.0406 Y-79.3157
G01 X104.0656 Y-79.2163
G01 X104.0672 Y-79.2079
G01 X104.0822 Y-79.1066
G01 X104.0873 Y-79.0043
G01 X104.0873 Y-78.9957
G01 X104.0825 Y-78.8977
G01 X104.0816 Y-78.8892
G01 X104.0665 Y-78.7879
G01 X104.0417 Y-78.6885
G01 X104.0392 Y-78.6803
G01 X104.0046 Y-78.5839
G01 X103.9590 Y-78.4874
G01 X103.9041 Y-78.3959
G01 X103.8406 Y-78.3102
G01 X103.7689 Y-78.2311
G01 X103.6898 Y-78.1594
G01 X103.6041 Y-78.0959
G01 X103.5163 Y-78.0431
G01 X103.5088 Y-78.0391
G01 X103.4161 Y-77.9954
G01 X103.3157 Y-77.9594
G01 X103.2121 Y-77.9335
G01 X103.1108 Y-77.9184
G01 X103.1023 Y-77.9175
G01 X103.0043 Y-77.9127
G01 X102.9957 Y-77.9127
G01 X102.8934 Y-77.9178
G01 X102.7921 Y-77.9328
G01 X102.7837 Y-77.9344
G01 X102.6885 Y-77.9583
G01 X102.6803 Y-77.9608
G01 X102.5839 Y-77.9954
G01 X102.4874 Y-78.0410
G01 X102.3959 Y-78.0959
G01 X102.3135 Y-78.1568
G01 X102.3069 Y-78.1622
G01 X102.2311 Y-78.2311
G01 X102.1622 Y-78.3069
G01 X102.1568 Y-78.3135
G01 X102.0959 Y-78.3959
G01 X102.0410 Y-78.4874
G01 X101.9954 Y-78.5839
G01 X101.9608 Y-78.6803
G01 X101.9583 Y-78.6885
G01 X101.9344 Y-78.7837
G01 X101.9328 Y-78.7921
G01 X101.9178 Y-78.8934
G01 X101.9127 Y-78.9957
G01 X101.9127 Y-79.0043
G01 X101.9175 Y-79.1023
G01 X101.9184 Y-79.1108
G01 X101.9335 Y-79.2121
G01 X101.9594 Y-79.3157
G01 X101.9954 Y-79.4161
G01 X102.0310 Y-79.4917
G01 X100.7598 Y-80.7629
G01 X100.7419 Y-80.7826
G01 X100.7365 Y-80.7893
G01 X100.7194 Y-80.8125
G01 X100.7044 Y-80.8372
G01 X100.7004 Y-80.8447
G01 X100.6882 Y-80.8708
G01 X100.6784 Y-80.8979
G01 X100.6759 Y-80.9062
G01 X100.6690 Y-80.9342
G01 X100.6646 Y-80.9627
G01 X100.6638 Y-80.9712
G01 X100.6625 Y-81.0000
G01 X100.6625 Y-88.8602
G01 X99.8602 Y-89.6625
G01 X98.5749 Y-89.6625
G01 X98.5749 Y-89.5416
G01 X98.5733 Y-89.5113
G01 X98.5689 Y-89.4813
G01 X98.5606 Y-89.4476
G01 X98.5497 Y-89.4170
G01 X98.5358 Y-89.3876
G01 X98.5191 Y-89.3598
G01 X98.4997 Y-89.3337
G01 X98.4779 Y-89.3096
G01 X98.4538 Y-89.2878
G01 X98.4312 Y-89.2709
G01 X98.4241 Y-89.2661
G01 X98.3980 Y-89.2507
G01 X98.3744 Y-89.2395
G01 X98.3665 Y-89.2363
G01 X98.3419 Y-89.2275
G01 X98.3357 Y-89.2257
G01 X98.3084 Y-89.2190
G01 X98.2805 Y-89.2147
G01 X98.2719 Y-89.2139
G01 X98.2437 Y-89.2126
G01 X97.7563 Y-89.2126
G01 X97.7238 Y-89.2142
G01 X97.6959 Y-89.2182
G01 X97.6875 Y-89.2199
G01 X97.6622 Y-89.2263
G01 X97.6335 Y-89.2363
G01 X97.6256 Y-89.2395
G01 X97.6020 Y-89.2507
G01 X97.5964 Y-89.2538
G01 X97.5723 Y-89.2684
G01 X97.5462 Y-89.2878
G01 X97.5221 Y-89.3096
G01 X97.5016 Y-89.3320
G01 X97.4834 Y-89.3563
G01 X97.4786 Y-89.3634
G01 X97.4642 Y-89.3876
G01 X97.4503 Y-89.4170
G01 X97.4394 Y-89.4476
G01 X97.4324 Y-89.4750
G01 X97.4307 Y-89.4834
G01 X97.4265 Y-89.5134
G01 X97.4251 Y-89.5438
G01 X97.4251 Y-90.4562
G01 X97.4269 Y-90.4908
G01 X97.4315 Y-90.5209
G01 X97.4382 Y-90.5482
G01 X97.4407 Y-90.5564
G01 X97.4503 Y-90.5830
G01 X97.4642 Y-90.6124
G01 X97.4786 Y-90.6366
G01 X97.4834 Y-90.6437
G01 X97.5003 Y-90.6663
G01 X97.5191 Y-90.6873
G01 X97.5252 Y-90.6934
G01 X97.5462 Y-90.7122
G01 X97.5723 Y-90.7316
G01 X97.6001 Y-90.7483
G01 X97.6256 Y-90.7605
G01 X97.6335 Y-90.7637
G01 X97.6625 Y-90.7738
G01 X97.6625 Y-94.5017
G01 X97.6516 Y-94.5125
G01 X95.9354 Y-94.5126
G01 X95.9121 Y-94.5139
G01 X95.8933 Y-94.5167
G01 X95.8870 Y-94.5180
G01 X95.8706 Y-94.5222
G01 X95.8645 Y-94.5241
G01 X95.8466 Y-94.5306
G01 X95.8316 Y-94.5376
G01 X95.5875 Y-94.5376
G01 X95.5749 Y-94.5381
G01 X95.5685 Y-94.5388
G01 X95.5583 Y-94.5405
G01 X95.5460 Y-94.5435
G01 X95.5301 Y-94.5490
G01 X95.5150 Y-94.5563
G01 X95.5042 Y-94.5629
G01 X95.4958 Y-94.5690
G01 X95.4908 Y-94.5730
G01 X95.4815 Y-94.5815
G01 X95.4703 Y-94.5941
G01 X95.4606 Y-94.6078
G01 X95.4553 Y-94.6168
G01 X95.4499 Y-94.6282
G01 X95.4447 Y-94.6419
G01 X95.4414 Y-94.6541
G01 X95.4388 Y-94.6685
G01 X95.4380 Y-94.6771
G01 X95.4376 Y-94.6875
G01 X95.4376 Y-94.8125
G01 X95.4381 Y-94.8251
G01 X95.4388 Y-94.8315
G00 Z2.0000
G00 X91.4272 Y-103.4930
G01 F60.00
G01 Z0.0000
G01 F120.00
G01 X91.4315 Y-103.5209
G01 X91.4382 Y-103.5482
G01 X91.4407 Y-103.5564
G01 X91.4503 Y-103.5830
G01 X91.4642 Y-103.6124
G01 X91.4786 Y-103.6366
G01 X91.4834 Y-103.6437
G01 X91.5016 Y-103.6680
G01 X91.5221 Y-103.6904
G01 X91.5429 Y-103.7094
G01 X91.5496 Y-103.7149
G01 X91.5723 Y-103.7316
G01 X91.6001 Y-103.7483
G01 X91.6256 Y-103.7605
G01 X91.6335 Y-103.7637
G01 X91.6581 Y-103.7725
G01 X91.6643 Y-103.7743
G01 X91.6916 Y-103.7810
G01 X91.7195 Y-103.7853
G01 X91.7281 Y-103.7861
G01 X91.7541 Y-103.7874
G01 X92.2459 Y-103.7874
G01 X92.2719 Y-103.7861
G01 X92.2805 Y-103.7853
G01 X92.3084 Y-103.7810
G01 X92.3357 Y-103.7743
G01 X92.3439 Y-103.7718
G01 X92.3705 Y-103.7622
G01 X92.3999 Y-103.7483
G01 X92.4277 Y-103.7316
G01 X92.4538 Y-103.7122
G01 X92.4779 Y-103.6904
G01 X92.4997 Y-103.6663
G01 X92.5191 Y-103.6402
G01 X92.5358 Y-103.6124
G01 X92.5497 Y-103.5830
G01 X92.5600 Y-103.5544
G01 X92.5676 Y-103.5250
G01 X92.5693 Y-103.5166
G01 X92.5733 Y-103.4887
G01 X92.5748 Y-103.4605
G01 X92.5749 Y-103.2375
G01 X92.6021 Y-103.2374
G01 X92.6233 Y-103.2363
G01 X92.6463 Y-103.2329
G01 X92.6689 Y-103.2272
G01 X92.6909 Y-103.2194
G01 X92.7119 Y-103.2094
G01 X92.7319 Y-103.1975
G01 X92.7473 Y-103.1862
G01 X92.7539 Y-103.1808
G01 X92.7679 Y-103.1679
G01 X93.4194 Y-102.5164
G01 X93.4322 Y-102.5023
G01 X93.4362 Y-102.4973
G01 X93.4475 Y-102.4819
G01 X93.4573 Y-102.4657
G01 X93.4604 Y-102.4600
G01 X93.4686 Y-102.4428
G01 X93.4766 Y-102.4210
G01 X93.4820 Y-102.4005
G01 X93.4836 Y-102.3921
G01 X93.4863 Y-102.3733
G01 X93.4875 Y-102.3500
G01 X93.4874 Y-97.9354
G01 X93.4861 Y-97.9121
G01 X93.4833 Y-97.8933
G01 X93.4820 Y-97.8870
G01 X93.4778 Y-97.8706
G01 X93.4759 Y-97.8645
G01 X93.4694 Y-97.8466
G01 X93.4624 Y-97.8316
G01 X93.4624 Y-97.5854
G01 X93.4612 Y-97.5685
G01 X93.4595 Y-97.5583
G01 X93.4565 Y-97.5460
G01 X93.4510 Y-97.5301
G01 X93.4437 Y-97.5150
G01 X93.4371 Y-97.5042
G01 X93.4310 Y-97.4958
G01 X93.4200 Y-97.4830
G01 X93.4076 Y-97.4716
G01 X93.3940 Y-97.4617
G01 X93.3793 Y-97.4534
G01 X93.3699 Y-97.4490
G01 X93.3581 Y-97.4447
G01 X93.3396 Y-97.4401
G01 X93.3272 Y-97.4383
G01 X93.3146 Y-97.4376
G01 X93.1854 Y-97.4376
G01 X93.1728 Y-97.4383
G01 X93.1583 Y-97.4405
G01 X93.1440 Y-97.4441
G01 X93.1301 Y-97.4490
G01 X93.1168 Y-97.4553
G01 X93.1060 Y-97.4617
G01 X93.0941 Y-97.4703
G01 X93.0830 Y-97.4800
G01 X93.0730 Y-97.4908
G01 X93.0653 Y-97.5007
G01 X93.0617 Y-97.5060
G01 X93.0553 Y-97.5168
G01 X93.0482 Y-97.5321
G01 X93.0429 Y-97.5481
G01 X93.0405 Y-97.5583
G01 X93.0386 Y-97.5707
G01 X93.0376 Y-97.5875
G01 X93.0376 Y-97.8316
G01 X93.0298 Y-97.8486
G01 X93.0222 Y-97.8706
G01 X93.0171 Y-97.8912
G01 X93.0135 Y-97.9164
G01 X93.0125 Y-97.9375
G01 X93.0125 Y-102.2516
G01 X92.5749 Y-102.6893
G01 X92.5749 Y-102.5438
G01 X92.5733 Y-102.5113
G01 X92.5685 Y-102.4791
G01 X92.5618 Y-102.4518
G01 X92.5593 Y-102.4436
G01 X92.5488 Y-102.4151
G01 X92.5358 Y-102.3876
G01 X92.5191 Y-102.3598
G01 X92.4997 Y-102.3337
G01 X92.4779 Y-102.3096
G01 X92.4538 Y-102.2878
G01 X92.4277 Y-102.2684
G01 X92.3999 Y-102.2517
G01 X92.3685 Y-102.2370
G01 X92.3399 Y-102.2269
G01 X92.3084 Y-102.2190
G01 X92.2762 Y-102.2142
G01 X92.2459 Y-102.2126
G01 X91.7563 Y-102.2126
G01 X91.7281 Y-102.2139
G01 X91.7195 Y-102.2147
G01 X91.6938 Y-102.2186
G01 X91.6875 Y-102.2199
G01 X91.6601 Y-102.2269
G01 X91.6295 Y-102.2378
G01 X91.6040 Y-102.2498
G01 X91.5964 Y-102.2538
G01 X91.5723 Y-102.2684
G01 X91.5478 Y-102.2864
G01 X91.5221 Y-102.3096
G01 X91.5003 Y-102.3337
G01 X91.4809 Y-102.3598
G01 X91.4642 Y-102.3876
G01 X91.4503 Y-102.4170
G01 X91.4394 Y-102.4476
G01 X91.4315 Y-102.4791
G01 X91.4267 Y-102.5113
G01 X91.4251 Y-102.5438
G01 X91.4251 Y-103.4562
G01 X91.4264 Y-103.4844
G01 X91.4272 Y-103.4930
G00 Z2.0000
G00 X85.7147 Y-101.2805
G01 F60.00
G01 Z0.0000
G01 F120.00
G01 X85.7190 Y-101.3084
G01 X85.7257 Y-101.3357
G01 X85.7275 Y-101.3419
G01 X85.7363 Y-101.3665
G01 X85.7395 Y-101.3744
G01 X85.7507 Y-101.3980
G01 X85.7661 Y-101.4241
G01 X85.7709 Y-101.4312
G01 X85.7878 Y-101.4538
G01 X85.8096 Y-101.4779
G01 X85.8337 Y-101.4997
G01 X85.8598 Y-101.5191
G01 X85.8876 Y-101.5358
G01 X85.9170 Y-101.5497
G01 X85.9476 Y-101.5606
G01 X85.9813 Y-101.5689
G01 X86.0113 Y-101.5733
G01 X86.0416 Y-101.5749
G01 X86.1625 Y-101.5749
G01 X86.1626 Y-102.5043
G01 X86.1641 Y-102.5331
G01 X86.1682 Y-102.5616
G01 X86.1694 Y-102.5679
G01 X86.1759 Y-102.5938
G01 X86.1784 Y-102.6021
G01 X86.1882 Y-102.6292
G01 X86.2034 Y-102.6610
G01 X86.2194 Y-102.6875
G01 X86.2365 Y-102.7107
G01 X86.2419 Y-102.7174
G01 X86.2598 Y-102.7371
G01 X86.7613 Y-103.2387
G01 X86.7859 Y-103.2609
G01 X86.8125 Y-103.2806
G01 X86.8409 Y-103.2977
G01 X86.8669 Y-103.3101
G01 X86.8748 Y-103.3134
G01 X86.9020 Y-103.3230
G01 X86.9342 Y-103.3310
G01 X86.9669 Y-103.3359
G01 X87.0000 Y-103.3375
G01 X89.5501 Y-103.3375
G01 X89.5501 Y-103.4584
G01 X89.5517 Y-103.4887
G01 X89.5561 Y-103.5187
G01 X89.5644 Y-103.5524
G01 X89.5753 Y-103.5830
G01 X89.5892 Y-103.6124
G01 X89.6059 Y-103.6402
G01 X89.6253 Y-103.6663
G01 X89.6441 Y-103.6873
G01 X89.6502 Y-103.6934
G01 X89.6712 Y-103.7122
G01 X89.6938 Y-103.7291
G01 X89.6991 Y-103.7328
G01 X89.7214 Y-103.7462
G01 X89.7290 Y-103.7502
G01 X89.7545 Y-103.7622
G01 X89.7851 Y-103.7731
G01 X89.8166 Y-103.7810
G01 X89.8509 Y-103.7860
G01 X89.8813 Y-103.7874
G01 X90.3687 Y-103.7874
G01 X90.4012 Y-103.7858
G01 X90.4291 Y-103.7818
G01 X90.4375 Y-103.7801
G01 X90.4649 Y-103.7731
G01 X90.4915 Y-103.7637
G01 X90.4974 Y-103.7613
G01 X90.5210 Y-103.7502
G01 X90.5286 Y-103.7462
G01 X90.5527 Y-103.7316
G01 X90.5788 Y-103.7122
G01 X90.6029 Y-103.6904
G01 X90.6219 Y-103.6696
G01 X90.6274 Y-103.6629
G01 X90.6429 Y-103.6420
G01 X90.6464 Y-103.6366
G01 X90.6608 Y-103.6124
G01 X90.6730 Y-103.5869
G01 X90.6762 Y-103.5790
G01 X90.6856 Y-103.5524
G01 X90.6935 Y-103.5209
G01 X90.6983 Y-103.4887
G01 X90.6999 Y-103.4584
G01 X90.6999 Y-102.5438
G01 X90.6983 Y-102.5113
G01 X90.6943 Y-102.4834
G01 X90.6931 Y-102.4770
G01 X90.6868 Y-102.4518
G01 X90.6843 Y-102.4436
G01 X90.6747 Y-102.4170
G01 X90.6618 Y-102.3895
G01 X90.6464 Y-102.3634
G01 X90.6416 Y-102.3563
G01 X90.6247 Y-102.3337
G01 X90.6059 Y-102.3127
G01 X90.5998 Y-102.3066
G01 X90.5788 Y-102.2878
G01 X90.5562 Y-102.2709
G01 X90.5491 Y-102.2661
G01 X90.5249 Y-102.2517
G01 X90.4974 Y-102.2387
G01 X90.4689 Y-102.2282
G01 X90.4607 Y-102.2257
G01 X90.4334 Y-102.2190
G01 X90.4055 Y-102.2147
G01 X90.3969 Y-102.2139
G01 X90.3709 Y-102.2126
G01 X89.8791 Y-102.2126
G01 X89.8488 Y-102.2142
G01 X89.8209 Y-102.2182
G01 X89.8125 Y-102.2199
G01 X89.7851 Y-102.2269
G01 X89.7585 Y-102.2363
G01 X89.7526 Y-102.2387
G01 X89.7290 Y-102.2498
G01 X89.7233 Y-102.2527
G01 X89.7009 Y-102.2661
G01 X89.6938 Y-102.2709
G01 X89.6695 Y-102.2891
G01 X89.6502 Y-102.3066
G01 X89.6441 Y-102.3127
G01 X89.6253 Y-102.3337
G01 X89.6059 Y-102.3598
G01 X89.5892 Y-102.3876
G01 X89.5762 Y-102.4151
G01 X89.5657 Y-102.4436
G01 X89.5632 Y-102.4518
G01 X89.5565 Y-102.4791
G01 X89.5517 Y-102.5113
G01 X89.5501 Y-102.5437
G01 X89.5501 Y-102.6625
G01 X87.1398 Y-102.6625
G01 X86.8375 Y-102.3602
G01 X86.8375 Y-101.5749
G01 X86.9584 Y-101.5749
G01 X86.9887 Y-101.5733
G01 X87.0187 Y-101.5689
G01 X87.0524 Y-101.5606
G01 X87.0830 Y-101.5497
G01 X87.1124 Y-101.5358
G01 X87.1402 Y-101.5191
G01 X87.1663 Y-101.4997
G01 X87.1904 Y-101.4779
G01 X87.2122 Y-101.4538
G01 X87.2291 Y-101.4312
G01 X87.2339 Y-101.4241
G01 X87.2483 Y-101.3999
G01 X87.2605 Y-101.3744
G01 X87.2630 Y-101.3685
G01 X87.2718 Y-101.3439
G01 X87.2743 Y-101.3357
G01 X87.2810 Y-101.3084
G01 X87.2856 Y-101.2783
G01 X87.2874 Y-101.2437
G01 X87.2874 Y-100.7563
G01 X87.2858 Y-100.7238
G01 X87.2818 Y-100.6959
G01 X87.2801 Y-100.6875
G01 X87.2731 Y-100.6601
G01 X87.2637 Y-100.6335
G01 X87.2613 Y-100.6276
G01 X87.2502 Y-100.6040
G01 X87.2462 Y-100.5964
G01 X87.2316 Y-100.5723
G01 X87.2122 Y-100.5462
G01 X87.1904 Y-100.5221
G01 X87.1696 Y-100.5031
G01 X87.1629 Y-100.4976
G01 X87.1420 Y-100.4821
G01 X87.1366 Y-100.4786
G01 X87.1124 Y-100.4642
G01 X87.0869 Y-100.4520
G01 X87.0790 Y-100.4488
G01 X87.0524 Y-100.4394
G01 X87.0209 Y-100.4315
G01 X86.9887 Y-100.4267
G01 X86.9584 Y-100.4251
G01 X86.0416 Y-100.4251
G01 X86.0113 Y-100.4267
G01 X85.9834 Y-100.4307
G01 X85.9750 Y-100.4324
G01 X85.9476 Y-100.4394
G01 X85.9210 Y-100.4488
G01 X85.9131 Y-100.4520
G01 X85.8876 Y-100.4642
G01 X85.8634 Y-100.4786
G01 X85.8563 Y-100.4834
G01 X85.8337 Y-100.5003
G01 X85.8096 Y-100.5221
G01 X85.7878 Y-100.5462
G01 X85.7684 Y-100.5723
G01 X85.7517 Y-100.6001
G01 X85.7378 Y-100.6295
G01 X85.7269 Y-100.6601
G01 X85.7186 Y-100.6938
G01 X85.7142 Y-100.7238
G01 X85.7126 Y-100.7563
G01 X85.7126 Y-101.2437
G01 X85.7139 Y-101.2719
G01 X85.7147 Y-101.2805
G00 Z2.0000
G00 X80.9147 Y-99.3805
G01 F60.00
G01 Z0.0000
G01 F120.00
G01 X80.9190 Y-99.4084
G01 X80.9269 Y-99.4399
G01 X80.9378 Y-99.4705
G01 X80.9498 Y-99.4960
G01 X80.9527 Y-99.5017
G01 X80.9661 Y-99.5241
G01 X80.9709 Y-99.5312
G01 X80.9878 Y-99.5538
G01 X81.0111 Y-99.5794
G01 X81.0337 Y-99.5997
G01 X81.0598 Y-99.6191
G01 X81.0876 Y-99.6358
G01 X81.1131 Y-99.6480
G01 X81.1210 Y-99.6512
G01 X81.1456 Y-99.6600
G01 X81.1518 Y-99.6618
G01 X81.1813 Y-99.6689
G01 X81.2070 Y-99.6728
G01 X81.2156 Y-99.6736
G01 X81.2438 Y-99.6749
G01 X82.1562 Y-99.6749
G01 X82.1887 Y-99.6733
G01 X82.2209 Y-99.6685
G01 X82.2524 Y-99.6606
G01 X82.2790 Y-99.6512
G01 X82.2869 Y-99.6480
G01 X82.3124 Y-99.6358
G01 X82.3366 Y-99.6214
G01 X82.3437 Y-99.6166
G01 X82.3663 Y-99.5997
G01 X82.3873 Y-99.5809
G01 X82.3934 Y-99.5748
G01 X82.4122 Y-99.5538
G01 X82.4291 Y-99.5312
G01 X82.4339 Y-99.5241
G01 X82.4483 Y-99.4999
G01 X82.4605 Y-99.4744
G01 X82.4637 Y-99.4665
G01 X82.4738 Y-99.4375
G01 X85.7199 Y-99.4375
G01 X85.7269 Y-99.4649
G01 X85.7363 Y-99.4915
G01 X85.7395 Y-99.4994
G01 X85.7517 Y-99.5249
G01 X85.7661 Y-99.5491
G01 X85.7709 Y-99.5562
G01 X85.7878 Y-99.5788
G01 X85.8096 Y-99.6029
G01 X85.8337 Y-99.6247
G01 X85.8563 Y-99.6416
G01 X85.8634 Y-99.6464
G01 X85.8876 Y-99.6608
G01 X85.9131 Y-99.6730
G01 X85.9210 Y-99.6762
G01 X85.9476 Y-99.6856
G01 X85.9791 Y-99.6935
G01 X86.0113 Y-99.6983
G01 X86.0438 Y-99.6999
G01 X86.9562 Y-99.6999
G01 X86.9887 Y-99.6983
G01 X87.0209 Y-99.6935
G01 X87.0524 Y-99.6856
G01 X87.0790 Y-99.6762
G01 X87.0869 Y-99.6730
G01 X87.1124 Y-99.6608
G01 X87.1366 Y-99.6464
G01 X87.1437 Y-99.6416
G01 X87.1663 Y-99.6247
G01 X87.1873 Y-99.6059
G01 X87.1934 Y-99.5998
G01 X87.2122 Y-99.5788
G01 X87.2291 Y-99.5562
G01 X87.2339 Y-99.5491
G01 X87.2483 Y-99.5249
G01 X87.2605 Y-99.4994
G01 X87.2637 Y-99.4915
G01 X87.2731 Y-99.4649
G01 X87.2801 Y-99.4375
G01 X87.2818 Y-99.4291
G01 X87.2858 Y-99.4012
G01 X87.2874 Y-99.3709
G01 X87.2874 Y-98.8813
G01 X87.2858 Y-98.8488
G01 X87.2814 Y-98.8188
G01 X87.2731 Y-98.7851
G01 X87.2622 Y-98.7545
G01 X87.2483 Y-98.7251
G01 X87.2339 Y-98.7009
G01 X87.2291 Y-98.6938
G01 X87.2122 Y-98.6712
G01 X87.1934 Y-98.6502
G01 X87.1889 Y-98.6456
G01 X87.1696 Y-98.6281
G01 X87.1629 Y-98.6226
G01 X87.1402 Y-98.6059
G01 X87.1105 Y-98.5882
G01 X87.0830 Y-98.5753
G01 X87.0524 Y-98.5644
G01 X87.0209 Y-98.5565
G01 X86.9887 Y-98.5517
G01 X86.9563 Y-98.5501
G01 X86.7375 Y-98.5501
G01 X86.7375 Y-98.0984
G01 X87.3484 Y-97.4875
G01 X92.0625 Y-97.4875
G01 X92.0836 Y-97.4865
G01 X92.1088 Y-97.4829
G01 X92.1294 Y-97.4778
G01 X92.1514 Y-97.4702
G01 X92.1684 Y-97.4624
G01 X92.4125 Y-97.4624
G01 X92.4293 Y-97.4614
G01 X92.4417 Y-97.4595
G01 X92.4519 Y-97.4571
G01 X92.4679 Y-97.4518
G01 X92.4832 Y-97.4447
G01 X92.4975 Y-97.4359
G01 X92.5076 Y-97.4284
G01 X92.5185 Y-97.4185
G01 X92.5284 Y-97.4076
G01 X92.5371 Y-97.3958
G01 X92.5447 Y-97.3832
G01 X92.5510 Y-97.3699
G01 X92.5559 Y-97.3560
G01 X92.5591 Y-97.3438
G01 X92.5617 Y-97.3272
G01 X92.5624 Y-97.3125
G01 X92.5624 Y-97.1854
G01 X92.5617 Y-97.1728
G01 X92.5595 Y-97.1583
G01 X92.5565 Y-97.1460
G01 X92.5546 Y-97.1399
G01 X92.5510 Y-97.1301
G01 X92.5457 Y-97.1187
G01 X92.5371 Y-97.1042
G01 X92.5297 Y-97.0941
G01 X92.5256 Y-97.0892
G01 X92.5185 Y-97.0815
G01 X92.5092 Y-97.0730
G01 X92.4940 Y-97.0617
G01 X92.4832 Y-97.0553
G01 X92.4738 Y-97.0507
G01 X92.4679 Y-97.0482
G01 X92.4560 Y-97.0441
G01 X92.4438 Y-97.0409
G01 X92.4375 Y-97.0397
G01 X92.4272 Y-97.0383
G01 X92.4146 Y-97.0376
G01 X92.1684 Y-97.0376
G01 X92.1534 Y-97.0306
G01 X92.1355 Y-97.0241
G01 X92.1294 Y-97.0222
G01 X92.1130 Y-97.0180
G01 X92.1067 Y-97.0167
G01 X92.0879 Y-97.0139
G01 X92.0646 Y-97.0126
G01 X87.2500 Y-97.0125
G01 X87.2267 Y-97.0137
G01 X87.2037 Y-97.0171
G01 X87.1811 Y-97.0228
G01 X87.1631 Y-97.0291
G01 X87.1552 Y-97.0323
G01 X87.1381 Y-97.0406
G01 X87.1217 Y-97.0503
G01 X87.1146 Y-97.0550
G01 X87.0993 Y-97.0664
G01 X87.0836 Y-97.0806
G01 X86.3321 Y-97.8321
G01 X86.3164 Y-97.8493
G01 X86.3050 Y-97.8646
G01 X86.3003 Y-97.8717
G01 X86.2906 Y-97.8881
G01 X86.2823 Y-97.9052
G01 X86.2798 Y-97.9111
G01 X86.2734 Y-97.9290
G01 X86.2671 Y-97.9537
G01 X86.2642 Y-97.9725
G01 X86.2634 Y-97.9810
G01 X86.2625 Y-98.0000
G01 X86.2625 Y-98.5501
G01 X86.0438 Y-98.5501
G01 X86.0134 Y-98.5515
G01 X85.9834 Y-98.5557
G01 X85.9750 Y-98.5574
G01 X85.9476 Y-98.5644
G01 X85.9170 Y-98.5753
G01 X85.8876 Y-98.5892
G01 X85.8598 Y-98.6059
G01 X85.8337 Y-98.6253
G01 X85.8081 Y-98.6486
G01 X85.7878 Y-98.6712
G01 X85.7672 Y-98.6991
G01 X85.7507 Y-98.7270
G01 X85.7387 Y-98.7526
G01 X85.7349 Y-98.7625
G01 X82.4738 Y-98.7625
G01 X82.4637 Y-98.7335
G01 X82.4605 Y-98.7256
G01 X82.4483 Y-98.7001
G01 X82.4339 Y-98.6759
G01 X82.4291 Y-98.6688
G01 X82.4122 Y-98.6462
G01 X82.3934 Y-98.6252
G01 X82.3873 Y-98.6191
G01 X82.3663 Y-98.6003
G01 X82.3437 Y-98.5834
G01 X82.3366 Y-98.5786
G01 X82.3124 Y-98.5642
G01 X82.2869 Y-98.5520
G01 X82.2790 Y-98.5488
G01 X82.2524 Y-98.5394
G01 X82.2209 Y-98.5315
G01 X82.1887 Y-98.5267
G01 X82.1562 Y-98.5251
G01 X81.2438 Y-98.5251
G01 X81.2092 Y-98.5269
G01 X81.1791 Y-98.5315
G01 X81.1518 Y-98.5382
G01 X81.1436 Y-98.5407
G01 X81.1170 Y-98.5503
G01 X81.0876 Y-98.5642
G01 X81.0634 Y-98.5786
G01 X81.0563 Y-98.5834
G01 X81.0337 Y-98.6003
G01 X81.0127 Y-98.6191
G01 X81.0066 Y-98.6252
G01 X80.9878 Y-98.6462
G01 X80.9684 Y-98.6723
G01 X80.9538 Y-98.6964
G01 X80.9498 Y-98.7040
G01 X80.9378 Y-98.7295
G01 X80.9282 Y-98.7561
G01 X80.9257 Y-98.7643
G01 X80.9194 Y-98.7895
G01 X80.9182 Y-98.7959
G01 X80.9142 Y-98.8238
G01 X80.9126 Y-98.8541
G01 X80.9126 Y-99.3437
G01 X80.9139 Y-99.3719
G01 X80.9147 Y-99.3805
G00 Z2.0000
G00 X76.2274 Y-98.7210
G01 F60.00
G01 Z0.0000
G01 F120.00
G01 X76.2378 Y-98.6920
G01 X76.2517 Y-98.6626
G01 X76.2684 Y-98.6348
G01 X76.2878 Y-98.6087
G01 X76.3096 Y-98.5846
G01 X76.3337 Y-98.5628
G01 X76.3598 Y-98.5434
G01 X76.3876 Y-98.5267
G01 X76.4170 Y-98.5128
