(G-CODE GENERATED BY FLATCAM v8.994 - www.flatcam.org - Version Date: 2020/11/7)

(Name: bq24160-F_Cu.gbr_iso_combined_cnc)
(Type: G-code from Geometry)
(Units: MM)

(Created on Friday, 11 February 2022 at 14:40)

(This preprocessor is the default preprocessor used by FlatCAM.)
(It is made to work with MACH3 compatible motion controllers.)

(TOOL DIAMETER: 0.1 mm)
(Feedrate_XY: 120.0 mm/min)
(Feedrate_Z: 60.0 mm/min)
(Feedrate rapids 1500.0 mm/min)

(Z_Cut: 0.0 mm)
(Z_Move: 2.0 mm)
(Z Start: None mm)
(Z End: 15.0 mm)
(X,Y End: None mm)
(Steps per circle: 64)
(Preprocessor Geometry: default)

(X range:   -0.1450 ...   49.0291  mm)
(Y range:   -0.1450 ...   49.0291  mm)

(Spindle Speed: 1000.0 RPM)
G21
G90
G94

G01 F120.00

M5
G00 Z15.0000
G00 X0.0000 Y0.0000
T1
M6    
(MSG, Change to Tool Dia = 0.1000)
M0
G00 Z15.0000

M03 S1000.0
G01 F120.00
G00 X5.6938 Y18.2296
G01 F60.00
G01 Z0.0000
G01 F120.00
G01 X5.6977 Y18.2035
G01 X5.7047 Y18.1755
G01 X5.7144 Y18.1484
G01 X5.7267 Y18.1223
G01 X5.7416 Y18.0976
G01 X5.7587 Y18.0745
G01 X5.7781 Y18.0531
G01 X5.7976 Y18.0353
G01 X5.8247 Y18.0153
G01 X5.8473 Y18.0017
G01 X5.8757 Y17.9885
G01 X5.9005 Y17.9797
G01 X5.9285 Y17.9727
G01 X5.9570 Y17.9685
G01 X5.9858 Y17.9671
G01 X6.8983 Y17.9671
G01 X6.9271 Y17.9685
G01 X6.9556 Y17.9727
G01 X6.9836 Y17.9797
G01 X7.0084 Y17.9885
G01 X7.0368 Y18.0017
G01 X7.0635 Y18.0180
G01 X7.0847 Y18.0337
G01 X7.1060 Y18.0531
G01 X7.1254 Y18.0745
G01 X7.1411 Y18.0956
G01 X7.1574 Y18.1223
G01 X7.1697 Y18.1484
G01 X7.1786 Y18.1732
G01 X7.1866 Y18.2044
G01 X10.3929 Y18.2044
G01 X10.3936 Y18.1933
G01 X10.3980 Y18.1648
G01 X10.4047 Y18.1380
G01 X10.4140 Y18.1120
G01 X10.4280 Y18.0827
G01 X10.4416 Y18.0601
G01 X10.4580 Y18.0379
G01 X10.4799 Y18.0139
G01 X10.4995 Y17.9962
G01 X10.5226 Y17.9791
G01 X10.5495 Y17.9631
G01 X10.5734 Y17.9519
G01 X10.5982 Y17.9430
G01 X10.6309 Y17.9348
G01 X10.6570 Y17.9310
G01 X10.6846 Y17.9296
G01 X10.9743 Y17.9296
G01 X10.9813 Y17.9103
G01 X10.9877 Y17.8970
G01 X10.9965 Y17.8823
G01 X11.0067 Y17.8685
G01 X11.0166 Y17.8576
G01 X11.0310 Y17.8442
G01 X11.0448 Y17.8340
G01 X11.0574 Y17.8264
G01 X11.0751 Y17.8178
G01 X11.0912 Y17.8120
G01 X11.1055 Y17.8084
G01 X11.1261 Y17.8052
G01 X11.1421 Y17.8045
G01 X11.1568 Y17.8052
G01 X11.1762 Y17.8079
G01 X11.1952 Y17.8128
G01 X11.2091 Y17.8178
G01 X11.2235 Y17.8246
G01 X11.2413 Y17.8354
G01 X11.2531 Y17.8442
G01 X11.2650 Y17.8549
G01 X11.2782 Y17.8695
G01 X11.2876 Y17.8823
G01 X11.2932 Y17.8915
G01 X15.9548 Y13.2298
G01 X15.9786 Y13.2086
G01 X16.0003 Y13.1925
G01 X16.0256 Y13.1774
G01 X16.0545 Y13.1639
G01 X16.0799 Y13.1549
G01 X16.1073 Y13.1480
G01 X16.1376 Y13.1434
G01 X16.1671 Y13.1419
G01 X22.4421 Y13.1419
G01 X22.4727 Y13.1435
G01 X22.5006 Y13.1477
G01 X22.5268 Y13.1542
G01 X22.5592 Y13.1658
G01 X22.5835 Y13.1774
G01 X22.6088 Y13.1925
G01 X22.6325 Y13.2101
G01 X22.6534 Y13.2290
G01 X23.4060 Y13.9816
G01 X23.4241 Y14.0017
G01 X23.4402 Y14.0233
G01 X23.4568 Y14.0506
G01 X23.4702 Y14.0795
G01 X23.4793 Y14.1049
G01 X23.4862 Y14.1323
G01 X23.4907 Y14.1626
G01 X23.4922 Y14.1921
G01 X23.4922 Y15.1921
G01 X23.4908 Y15.2203
G01 X23.4864 Y15.2506
G01 X23.4793 Y15.2792
G01 X23.4693 Y15.3069
G01 X23.4573 Y15.3325
G01 X23.4416 Y15.3588
G01 X23.4248 Y15.3815
G01 X23.4051 Y15.4034
G01 X23.3921 Y15.4154
G01 X23.3921 Y21.5058
G01 X23.3909 Y21.5266
G01 X23.3883 Y21.5436
G01 X23.3842 Y21.5603
G01 X23.3769 Y21.5811
G01 X23.3671 Y21.6014
G01 X23.3671 Y21.8546
G01 X23.3665 Y21.8656
G01 X23.3644 Y21.8789
G01 X23.3622 Y21.8872
G01 X23.3594 Y21.8953
G01 X23.3538 Y21.9076
G01 X23.3481 Y21.9171
G01 X23.3430 Y21.9240
G01 X23.3341 Y21.9341
G01 X23.3240 Y21.9430
G01 X23.3171 Y21.9481
G01 X23.3076 Y21.9538
G01 X23.2953 Y21.9594
G01 X23.2872 Y21.9622
G01 X23.2777 Y21.9646
G01 X23.2656 Y21.9665
G01 X23.2546 Y21.9671
G01 X23.1283 Y21.9670
G01 X23.1185 Y21.9665
G01 X23.1076 Y21.9649
G01 X23.0969 Y21.9622
G01 X23.0865 Y21.9585
G01 X23.0765 Y21.9538
G01 X23.0671 Y21.9481
G01 X23.0582 Y21.9415
G01 X23.0500 Y21.9341
G01 X23.0426 Y21.9259
G01 X23.0354 Y21.9160
G01 X23.0292 Y21.9054
G01 X23.0256 Y21.8976
G01 X23.0223 Y21.8884
G01 X23.0192 Y21.8765
G01 X23.0174 Y21.8631
G01 X23.0171 Y21.8546
G01 X23.0171 Y21.6014
G01 X23.0072 Y21.5811
G01 X23.0006 Y21.5626
G01 X22.9958 Y21.5436
G01 X22.9928 Y21.5217
G01 X22.9920 Y21.5046
G01 X22.9920 Y15.4154
G01 X22.9790 Y15.4034
G01 X22.9593 Y15.3815
G01 X22.9425 Y15.3588
G01 X22.9268 Y15.3325
G01 X22.9148 Y15.3069
G01 X22.9049 Y15.2792
G01 X22.8977 Y15.2506
G01 X22.8934 Y15.2215
G01 X22.8919 Y15.1921
G01 X22.8919 Y14.3164
G01 X22.3177 Y13.7422
G01 X16.2914 Y13.7422
G01 X11.8827 Y18.1509
G01 X11.8866 Y18.1672
G01 X11.8905 Y18.1933
G01 X11.8921 Y18.2233
G01 X11.8921 Y18.7108
G01 X11.8906 Y18.7396
G01 X11.8859 Y18.7705
G01 X11.8794 Y18.7961
G01 X11.8706 Y18.8209
G01 X11.8574 Y18.8493
G01 X11.8411 Y18.8760
G01 X11.8254 Y18.8972
G01 X11.8077 Y18.9167
G01 X11.7847 Y18.9379
G01 X11.7594 Y18.9564
G01 X11.7368 Y18.9699
G01 X11.7130 Y18.9812
G01 X11.6824 Y18.9923
G01 X11.6556 Y18.9989
G01 X11.6295 Y19.0028
G01 X11.5983 Y19.0046
G01 X10.6858 Y19.0046
G01 X10.6546 Y19.0028
G01 X10.6285 Y18.9989
G01 X10.6029 Y18.9926
G01 X10.5734 Y18.9822
G01 X10.5473 Y18.9699
G01 X10.5247 Y18.9564
G01 X10.4995 Y18.9379
G01 X10.4764 Y18.9167
G01 X10.4587 Y18.8972
G01 X10.4423 Y18.8750
G01 X10.4262 Y18.8482
G01 X10.4144 Y18.8232
G01 X10.4077 Y18.8047
G01 X7.1866 Y18.8047
G01 X7.1786 Y18.8359
G01 X7.1697 Y18.8607
G01 X7.1574 Y18.8868
G01 X7.1411 Y18.9135
G01 X7.1254 Y18.9347
G01 X7.1060 Y18.9560
G01 X7.0847 Y18.9754
G01 X7.0635 Y18.9911
G01 X7.0368 Y19.0074
G01 X7.0084 Y19.0206
G01 X6.9836 Y19.0294
G01 X6.9556 Y19.0364
G01 X6.9271 Y19.0406
G01 X6.8983 Y19.0421
G01 X5.9858 Y19.0421
G01 X5.9558 Y19.0405
G01 X5.9285 Y19.0364
G01 X5.9029 Y19.0301
G01 X5.8734 Y19.0197
G01 X5.8473 Y19.0074
G01 X5.8247 Y18.9939
G01 X5.7995 Y18.9754
G01 X5.7764 Y18.9542
G01 X5.7587 Y18.9347
G01 X5.7416 Y18.9115
G01 X5.7256 Y18.8846
G01 X5.7144 Y18.8607
G01 X5.7051 Y18.8348
G01 X5.6973 Y18.8032
G01 X5.6935 Y18.7771
G01 X5.6921 Y18.7495
G01 X5.6921 Y18.2608
G01 X5.6938 Y18.2296
G00 Z2.0000
G00 X5.6984 Y20.6836
G01 F60.00
G01 Z0.0000
G01 F120.00
G01 X5.7047 Y20.7086
G01 X5.7135 Y20.7334
G01 X5.7256 Y20.7596
G01 X5.7416 Y20.7865
G01 X5.7572 Y20.8077
G01 X5.7781 Y20.8310
G01 X5.7995 Y20.8504
G01 X5.8226 Y20.8676
G01 X5.8473 Y20.8824
G01 X5.8734 Y20.8947
G01 X5.9005 Y20.9044
G01 X5.9285 Y20.9114
G01 X5.9558 Y20.9155
G01 X5.9858 Y20.9171
G01 X6.1380 Y20.9171
G01 X6.1380 Y21.2700
G01 X6.0824 Y21.3255
G01 X5.7501 Y21.3280
G01 X5.6523 Y21.3184
G01 X5.5660 Y21.2922
G01 X5.4864 Y21.2497
G01 X5.4167 Y21.1924
G01 X5.3595 Y21.1227
G01 X5.3169 Y21.0432
G01 X5.2908 Y20.9568
G01 X5.2812 Y20.8597
G01 X5.2830 Y20.7398
G01 X5.3392 Y20.6836
G01 X5.6984 Y20.6836
G00 Z2.0000
G00 X5.6296 Y20.7786
G01 F60.00
G01 Z0.0000
G01 F120.00
G01 X5.6430 Y20.8066
G01 X5.6626 Y20.8393
G01 X5.6853 Y20.8699
G01 X5.7060 Y20.8930
G01 X5.7161 Y20.9031
G01 X5.7338 Y20.9192
G01 X5.7420 Y20.9260
G01 X5.7698 Y20.9465
G01 X5.7994 Y20.9644
G01 X5.8089 Y20.9694
G01 X5.8305 Y20.9796
G01 X5.8437 Y20.9850
G01 X5.8730 Y20.9953
G01 X5.9100 Y21.0046
G01 X5.9406 Y21.0093
G01 X5.9548 Y21.0107
G01 X5.9823 Y21.0120
G01 X6.0430 Y21.0121
G01 X6.0428 Y21.2308
G01 X5.7544 Y21.2330
G01 X5.6709 Y21.2247
G01 X5.6025 Y21.2040
G01 X5.5395 Y21.1703
G01 X5.4842 Y21.1249
G01 X5.4388 Y21.0697
G01 X5.4051 Y21.0066
G01 X5.3844 Y20.9382
G01 X5.3763 Y20.8558
G01 X5.3774 Y20.7797
G01 X5.3785 Y20.7786
G01 X5.6296 Y20.7786
G00 Z2.0000
G00 X10.2998 Y20.0531
G01 F60.00
G01 Z0.0000
G01 F120.00
G01 X10.2984 Y20.0673
G01 X10.2971 Y20.0983
G01 X10.2971 Y20.5894
G01 X10.2989 Y20.6239
G01 X10.3033 Y20.6546
G01 X10.3061 Y20.6686
G01 X10.3138 Y20.6987
G01 X10.3241 Y20.7279
G01 X10.3295 Y20.7411
G01 X10.3430 Y20.7691
G01 X10.3588 Y20.7958
G01 X10.3667 Y20.8076
G01 X10.3853 Y20.8324
G01 X10.4109 Y20.8607
G01 X10.4338 Y20.8817
G01 X10.4448 Y20.8907
G01 X10.4698 Y20.9090
G01 X10.4964 Y20.9252
G01 X10.5089 Y20.9319
G01 X10.5370 Y20.9450
G01 X10.5662 Y20.9556
G01 X10.5764 Y20.9588
G01 X10.6100 Y20.9671
G01 X10.6406 Y20.9718
G01 X10.6548 Y20.9732
G01 X10.6858 Y20.9746
G01 X11.5983 Y20.9746
G01 X11.6364 Y20.9727
G01 X11.6671 Y20.9683
G01 X11.6811 Y20.9655
G01 X11.7112 Y20.9578
G01 X11.7404 Y20.9475
G01 X11.7504 Y20.9436
G01 X11.7816 Y20.9287
G01 X11.8083 Y20.9129
G01 X11.8172 Y20.9070
G01 X11.8422 Y20.8885
G01 X11.8503 Y20.8817
G01 X11.8732 Y20.8607
G01 X11.8942 Y20.8378
G01 X11.9032 Y20.8268
G01 X11.9215 Y20.8018
G01 X11.9377 Y20.7753
G01 X11.9428 Y20.7659
G01 X11.9564 Y20.7372
G01 X15.1395 Y20.7372
G01 X15.1465 Y20.7503
G01 X15.1606 Y20.7738
G01 X15.1667 Y20.7826
G01 X15.1809 Y20.8018
G01 X15.1876 Y20.8102
G01 X15.2084 Y20.8332
G01 X15.2161 Y20.8406
G01 X15.2392 Y20.8613
G01 X15.2698 Y20.8840
G01 X15.3026 Y20.9037
G01 X15.3370 Y20.9200
G01 X15.3662 Y20.9306
G01 X15.3798 Y20.9347
G01 X15.4100 Y20.9421
G01 X15.4477 Y20.9477
G01 X15.4858 Y20.9496
G01 X15.6470 Y20.9496
G01 X15.6470 Y21.4421
G01 X15.6481 Y21.4674
G01 X15.6493 Y21.4780
G01 X15.6527 Y21.4996
G01 X15.6587 Y21.5243
G01 X15.6619 Y21.5345
G01 X15.6694 Y21.5550
G01 X15.6786 Y21.5748
G01 X15.6835 Y21.5843
G01 X15.6948 Y21.6030
G01 X15.7008 Y21.6118
G01 X15.7140 Y21.6293
G01 X15.7334 Y21.6507
G01 X16.4860 Y22.4032
G01 X16.5049 Y22.4202
G01 X16.5223 Y22.4333
G01 X16.5311 Y22.4393
G01 X16.5468 Y22.4488
G01 X16.5561 Y22.4539
G01 X16.5759 Y22.4633
G01 X16.5858 Y22.4672
G01 X16.6064 Y22.4744
G01 X16.6345 Y22.4815
G01 X16.6631 Y22.4857
G01 X16.6921 Y22.4871
G01 X21.0037 Y22.4871
G01 X20.9919 Y22.5007
G01 X20.9801 Y22.5173
G01 X20.9699 Y22.5349
G01 X20.9615 Y22.5535
G01 X20.9560 Y22.5693
G01 X20.9510 Y22.5891
G01 X20.9481 Y22.6092
G01 X20.9471 Y22.6296
G01 X20.9471 Y22.7581
G01 X20.9485 Y22.7784
G01 X20.9518 Y22.7985
G01 X20.9560 Y22.8148
G01 X20.9603 Y22.8273
G01 X20.9643 Y22.8372
G01 X20.9716 Y22.8524
G01 X20.9782 Y22.8638
G01 X20.9840 Y22.8728
G01 X20.9942 Y22.8862
G01 X21.0037 Y22.8970
G01 X10.6921 Y22.8970
G01 X10.6631 Y22.8984
G01 X10.6345 Y22.9027
G01 X10.6064 Y22.9097
G01 X10.5858 Y22.9169
G01 X10.5759 Y22.9209
G01 X10.5530 Y22.9318
G01 X10.5281 Y22.9467
G01 X10.5105 Y22.9596
G01 X10.5021 Y22.9663
G01 X10.4834 Y22.9834
G01 X6.6899 Y26.7769
G01 X2.9513 Y26.7769
G01 X2.9429 Y26.7657
G01 X2.9360 Y26.7575
G01 X2.9031 Y26.7211
G01 X2.8930 Y26.7111
G01 X2.8512 Y26.6735
G01 X2.8062 Y26.6399
G01 X2.7944 Y26.6320
G01 X2.7461 Y26.6032
G01 X2.6954 Y26.5790
G01 X2.6856 Y26.5748
G01 X2.6361 Y26.5571
G01 X2.6259 Y26.5538
G01 X2.5714 Y26.5402
G01 X2.5530 Y26.5371
G01 X2.5714 Y26.5339
G01 X2.6259 Y26.5203
G01 X2.6361 Y26.5171
G01 X2.6889 Y26.4980
G01 X2.7461 Y26.4709
G01 X2.7944 Y26.4422
G01 X2.8062 Y26.4343
G01 X2.8512 Y26.4007
G01 X2.8930 Y26.3631
G01 X2.9031 Y26.3530
G01 X2.9384 Y26.3140
G01 X2.9450 Y26.3056
G01 X2.9784 Y26.2604
G01 X3.0074 Y26.2123
G01 X3.0153 Y26.1971
G01 X4.9856 Y26.1971
G01 X5.0074 Y26.1960
G01 X5.0180 Y26.1948
G01 X5.0396 Y26.1915
G01 X5.0609 Y26.1863
G01 X5.0711 Y26.1834
G01 X5.0950 Y26.1747
G01 X5.1148 Y26.1655
G01 X5.1243 Y26.1606
G01 X5.1460 Y26.1474
G01 X5.1636 Y26.1345
G01 X5.1720 Y26.1279
G01 X5.1907 Y26.1107
G01 X7.7532 Y23.5482
G01 X7.7702 Y23.5293
G01 X7.7874 Y23.5060
G01 X7.8023 Y23.4812
G01 X7.8147 Y23.4550
G01 X7.8244 Y23.4277
G01 X7.8315 Y23.3996
G01 X7.8357 Y23.3710
G01 X7.8371 Y23.3456
G01 X7.8371 Y21.0018
G01 X9.2018 Y19.6371
G01 X21.4198 Y19.6371
G01 X21.8970 Y20.1143
G01 X21.8970 Y21.5081
G01 X21.8984 Y21.5335
G01 X21.9014 Y21.5551
G01 X21.9034 Y21.5656
G01 X21.9078 Y21.5834
G01 X21.9108 Y21.5936
G01 X21.9181 Y21.6142
G01 X21.9221 Y21.6234
G01 X21.9221 Y21.8546
G01 X21.9225 Y21.8678
G01 X21.9235 Y21.8784
G01 X21.9254 Y21.8915
G01 X21.9291 Y21.9079
G01 X21.9321 Y21.9182
G01 X21.9353 Y21.9273
G01 X21.9410 Y21.9410
G01 X21.9273 Y21.9353
G01 X21.9182 Y21.9321
G01 X21.9079 Y21.9291
G01 X21.8915 Y21.9254
G01 X21.8784 Y21.9235
G01 X21.8678 Y21.9225
G01 X21.8546 Y21.9221
G01 X21.6234 Y21.9221
G01 X21.6142 Y21.9181
G01 X21.5902 Y21.9097
G01 X21.5621 Y21.9027
G01 X21.5335 Y21.8984
G01 X21.5046 Y21.8970
G01 X16.8143 Y21.8970
G01 X16.2371 Y21.3198
G01 X16.2371 Y20.9496
G01 X16.4019 Y20.9495
G01 X16.4364 Y20.9477
G01 X16.4707 Y20.9427
G01 X16.4811 Y20.9405
G01 X16.5112 Y20.9328
G01 X16.5471 Y20.9200
G01 X16.5816 Y20.9037
G01 X16.6113 Y20.8860
G01 X16.6201 Y20.8799
G01 X16.6449 Y20.8613
G01 X16.6732 Y20.8357
G01 X16.6988 Y20.8074
G01 X16.7174 Y20.7826
G01 X16.7235 Y20.7738
G01 X16.7377 Y20.7503
G01 X16.7428 Y20.7409
G01 X16.7561 Y20.7129
G01 X16.7600 Y20.7029
G01 X16.7692 Y20.6771
G01 X16.7722 Y20.6668
G01 X16.7796 Y20.6367
G01 X16.7843 Y20.6060
G01 X16.7857 Y20.5918
G01 X16.7871 Y20.5608
G01 X16.7870 Y20.0698
G01 X16.7852 Y20.0352
G01 X16.7808 Y20.0045
G01 X16.7780 Y19.9905
G01 X16.7722 Y19.9673
G01 X16.7692 Y19.9571
G01 X16.7575 Y19.9245
G01 X16.7444 Y19.8964
G01 X16.7377 Y19.8839
G01 X16.7215 Y19.8573
G01 X16.7032 Y19.8323
G01 X16.6942 Y19.8213
G01 X16.6732 Y19.7984
G01 X16.6503 Y19.7775
G01 X16.6393 Y19.7684
G01 X16.6143 Y19.7501
G01 X16.5878 Y19.7340
G01 X16.5752 Y19.7273
G01 X16.5471 Y19.7142
G01 X16.5146 Y19.7024
G01 X16.5043 Y19.6994
G01 X16.4811 Y19.6936
G01 X16.4707 Y19.6914
G01 X16.4364 Y19.6864
G01 X16.3983 Y19.6846
G01 X15.4858 Y19.6846
G01 X15.4477 Y19.6864
G01 X15.4100 Y19.6920
G01 X15.3798 Y19.6994
G01 X15.3662 Y19.7035
G01 X15.3370 Y19.7142
G01 X15.3089 Y19.7273
G01 X15.2964 Y19.7340
G01 X15.2698 Y19.7501
G01 X15.2448 Y19.7684
G01 X15.2365 Y19.7751
G01 X15.2135 Y19.7959
G01 X15.2060 Y19.8036
G01 X15.1853 Y19.8267
G01 X15.1646 Y19.8544
G01 X15.1588 Y19.8634
G01 X15.1465 Y19.8839
G01 X15.1413 Y19.8932
G01 X15.1267 Y19.9245
G01 X15.1185 Y19.9469
G01 X11.9564 Y19.9469
G01 X11.9428 Y19.9182
G01 X11.9377 Y19.9089
G01 X11.9215 Y19.8823
G01 X11.9032 Y19.8573
G01 X11.8942 Y19.8463
G01 X11.8732 Y19.8234
G01 X11.8449 Y19.7978
G01 X11.8201 Y19.7792
G01 X11.8083 Y19.7713
G01 X11.7816 Y19.7555
G01 X11.7536 Y19.7420
G01 X11.7404 Y19.7366
G01 X11.7112 Y19.7263
G01 X11.6811 Y19.7186
G01 X11.6707 Y19.7164
G01 X11.6364 Y19.7114
G01 X11.5983 Y19.7096
G01 X10.6858 Y19.7096
G01 X10.6548 Y19.7109
G01 X10.6406 Y19.7123
G01 X10.6135 Y19.7164
G01 X10.6030 Y19.7186
G01 X10.5798 Y19.7244
G01 X10.5696 Y19.7274
G01 X10.5437 Y19.7366
G01 X10.5338 Y19.7406
G01 X10.5026 Y19.7555
G01 X10.4698 Y19.7751
G01 X10.4392 Y19.7978
G01 X10.4135 Y19.8209
G01 X10.4060 Y19.8286
G01 X10.3876 Y19.8490
G01 X10.3809 Y19.8573
G01 X10.3667 Y19.8765
G01 X10.3588 Y19.8884
G01 X10.3465 Y19.9089
G01 X10.3413 Y19.9182
G01 X10.3267 Y19.9495
G01 X10.3138 Y19.9855
G01 X10.3045 Y20.0225
G01 X10.2998 Y20.0531
G00 Z2.0000
G00 X10.3938 Y20.0671
G01 F60.00
G01 Z0.0000
G01 F120.00
G01 X10.3977 Y20.0410
G01 X10.4047 Y20.0130
G01 X10.4144 Y19.9859
G01 X10.4256 Y19.9620
G01 X10.4430 Y19.9331
G01 X10.4587 Y19.9120
G01 X10.4799 Y19.8889
G01 X10.4995 Y19.8712
G01 X10.5226 Y19.8541
G01 X10.5473 Y19.8392
G01 X10.5734 Y19.8269
G01 X10.6005 Y19.8172
G01 X10.6285 Y19.8102
G01 X10.6570 Y19.8060
G01 X10.6834 Y19.8046
G01 X11.5983 Y19.8046
G01 X11.6271 Y19.8060
G01 X11.6556 Y19.8102
G01 X11.6836 Y19.8172
G01 X11.7084 Y19.8260
G01 X11.7368 Y19.8392
G01 X11.7635 Y19.8555
G01 X11.7847 Y19.8712
G01 X11.8060 Y19.8906
G01 X11.8254 Y19.9120
G01 X11.8411 Y19.9331
G01 X11.8574 Y19.9598
G01 X11.8697 Y19.9859
G01 X11.8786 Y20.0107
G01 X11.8866 Y20.0419
G01 X15.1938 Y20.0419
G01 X15.1977 Y20.0160
G01 X15.2047 Y19.9880
G01 X15.2144 Y19.9609
G01 X15.2256 Y19.9370
G01 X15.2430 Y19.9081
G01 X15.2587 Y19.8870
G01 X15.2764 Y19.8674
G01 X15.3014 Y19.8447
G01 X15.3226 Y19.8291
G01 X15.3473 Y19.8142
G01 X15.3757 Y19.8010
G01 X15.4005 Y19.7922
G01 X15.4285 Y19.7852
G01 X15.4570 Y19.7810
G01 X15.4858 Y19.7796
G01 X16.3983 Y19.7796
G01 X16.4271 Y19.7810
G01 X16.4556 Y19.7852
G01 X16.4836 Y19.7922
G01 X16.5084 Y19.8010
G01 X16.5368 Y19.8142
G01 X16.5635 Y19.8305
G01 X16.5847 Y19.8462
G01 X16.6042 Y19.8639
G01 X16.6254 Y19.8870
G01 X16.6439 Y19.9122
G01 X16.6574 Y19.9348
G01 X16.6687 Y19.9587
G01 X16.6798 Y19.9892
G01 X16.6864 Y20.0160
G01 X16.6903 Y20.0421
G01 X16.6921 Y20.0733
G01 X16.6921 Y20.5608
G01 X16.6906 Y20.5896
G01 X16.6864 Y20.6181
G01 X16.6794 Y20.6461
G01 X16.6687 Y20.6755
G01 X16.6574 Y20.6993
G01 X16.6439 Y20.7219
G01 X16.6254 Y20.7472
G01 X16.6060 Y20.7685
G01 X16.5827 Y20.7894
G01 X16.5615 Y20.8051
G01 X16.5389 Y20.8187
G01 X16.5119 Y20.8317
G01 X16.4812 Y20.8426
G01 X16.4556 Y20.8489
G01 X16.4259 Y20.8533
G01 X16.3983 Y20.8546
G01 X16.1421 Y20.8546
G01 X16.1421 Y21.3592
G01 X16.7749 Y21.9920
G01 X21.5046 Y21.9920
G01 X21.5217 Y21.9928
G01 X21.5436 Y21.9958
G01 X21.5626 Y22.0006
G01 X21.5811 Y22.0072
G01 X21.6014 Y22.0171
G01 X21.8546 Y22.0171
G01 X21.8631 Y22.0174
G01 X21.8765 Y22.0192
G01 X21.8884 Y22.0223
G01 X21.8976 Y22.0256
G01 X21.9054 Y22.0292
G01 X21.9160 Y22.0354
G01 X21.9259 Y22.0426
G01 X21.9341 Y22.0500
G01 X21.9415 Y22.0582
G01 X21.9481 Y22.0671
G01 X21.9538 Y22.0765
G01 X21.9585 Y22.0865
G01 X21.9622 Y22.0969
G01 X21.9649 Y22.1076
G01 X21.9665 Y22.1185
G01 X21.9670 Y22.1283
G01 X21.9671 Y22.2546
G01 X21.9665 Y22.2656
G01 X21.9649 Y22.2765
G01 X21.9614 Y22.2896
G01 X21.9585 Y22.2976
G01 X21.9538 Y22.3076
G01 X21.9467 Y22.3191
G01 X21.9415 Y22.3259
G01 X21.9358 Y22.3323
G01 X21.9259 Y22.3415
G01 X21.9150 Y22.3494
G01 X21.9076 Y22.3538
G01 X21.8987 Y22.3580
G01 X21.8849 Y22.3629
G01 X21.8765 Y22.3649
G01 X21.8680 Y22.3662
G01 X21.8558 Y22.3670
G01 X21.6014 Y22.3671
G01 X21.5811 Y22.3769
G01 X21.5603 Y22.3842
G01 X21.5436 Y22.3883
G01 X21.5266 Y22.3909
G01 X21.5058 Y22.3921
G01 X16.6921 Y22.3921
G01 X16.6725 Y22.3912
G01 X16.6530 Y22.3883
G01 X16.6340 Y22.3835
G01 X16.6178 Y22.3778
G01 X16.5977 Y22.3685
G01 X16.5789 Y22.3570
G01 X16.5651 Y22.3467
G01 X16.5515 Y22.3344
G01 X15.8006 Y21.5835
G01 X15.7859 Y21.5671
G01 X15.7757 Y21.5532
G01 X15.7668 Y21.5385
G01 X15.7572 Y21.5186
G01 X15.7499 Y21.4978
G01 X15.7458 Y21.4811
G01 X15.7433 Y21.4641
G01 X15.7420 Y21.4433
G01 X15.7420 Y20.8546
G01 X15.4858 Y20.8546
G01 X15.4595 Y20.8533
G01 X15.4261 Y20.8484
G01 X15.4005 Y20.8419
G01 X15.3745 Y20.8327
G01 X15.3473 Y20.8199
G01 X15.3206 Y20.8036
G01 X15.2995 Y20.7879
G01 X15.2799 Y20.7702
G01 X15.2603 Y20.7490
G01 X15.2416 Y20.7240
G01 X15.2267 Y20.6993
G01 X15.2144 Y20.6732
G01 X15.2055 Y20.6484
G01 X15.2037 Y20.6422
G01 X11.8866 Y20.6422
G01 X11.8786 Y20.6734
G01 X11.8697 Y20.6982
G01 X11.8574 Y20.7243
G01 X11.8411 Y20.7510
G01 X11.8254 Y20.7722
G01 X11.8060 Y20.7935
G01 X11.7847 Y20.8129
G01 X11.7635 Y20.8286
G01 X11.7368 Y20.8449
G01 X11.7084 Y20.8581
G01 X11.6836 Y20.8669
G01 X11.6556 Y20.8739
G01 X11.6271 Y20.8781
G01 X11.5983 Y20.8796
G01 X10.6858 Y20.8796
G01 X10.6558 Y20.8780
G01 X10.6285 Y20.8739
G01 X10.6029 Y20.8676
G01 X10.5734 Y20.8572
G01 X10.5473 Y20.8449
G01 X10.5247 Y20.8314
G01 X10.4995 Y20.8129
G01 X10.4764 Y20.7917
G01 X10.4587 Y20.7722
G01 X10.4416 Y20.7490
G01 X10.4256 Y20.7221
G01 X10.4144 Y20.6982
G01 X10.4051 Y20.6723
G01 X10.3973 Y20.6407
G01 X10.3935 Y20.6146
G01 X10.3921 Y20.5870
G01 X10.3921 Y20.0983
G01 X10.3938 Y20.0671
G00 Z2.0000
G00 X15.0998 Y18.1531
G01 F60.00
G01 Z0.0000
G01 F120.00
G01 X15.0984 Y18.1673
G01 X15.0971 Y18.1983
G01 X15.0971 Y18.6894
G01 X15.0986 Y18.7204
G01 X15.0998 Y18.7310
G01 X15.1045 Y18.7617
G01 X15.1128 Y18.7952
G01 X15.1160 Y18.8054
G01 X15.1267 Y18.8346
G01 X15.1398 Y18.8627
G01 X15.1447 Y18.8722
G01 X15.1606 Y18.8988
G01 X15.1667 Y18.9076
G01 X15.1853 Y18.9324
G01 X15.2060 Y18.9555
G01 X15.2161 Y18.9656
G01 X15.2392 Y18.9863
G01 X15.2698 Y19.0090
G01 X15.3026 Y19.0287
G01 X15.3305 Y19.0421
G01 X15.3422 Y19.0470
G01 X11.7930 Y19.0470
G01 X11.8143 Y19.0340
G01 X11.8393 Y19.0157
G01 X11.8477 Y19.0090
G01 X11.8680 Y18.9906
G01 X11.8757 Y18.9832
G01 X11.8965 Y18.9602
G01 X11.9032 Y18.9518
G01 X11.9174 Y18.9326
G01 X11.9235 Y18.9238
G01 X11.9394 Y18.8972
G01 X11.9444 Y18.8877
G01 X11.9561 Y18.8629
G01 X11.9600 Y18.8529
G01 X11.9703 Y18.8237
G01 X11.9789 Y18.7901
G01 X11.9808 Y18.7796
G01 X11.9852 Y18.7489
G01 X11.9871 Y18.7108
G01 X11.9871 Y18.2233
G01 X11.9857 Y18.1923
G01 X11.9849 Y18.1830
G01 X16.3307 Y13.8372
G01 X22.2784 Y13.8372
G01 X22.7969 Y14.3557
G01 X22.7969 Y15.1921
G01 X22.7988 Y15.2308
G01 X22.8045 Y15.2691
G01 X22.8121 Y15.2999
G01 X22.8162 Y15.3135
G01 X22.8245 Y15.3366
G01 X22.8284 Y15.3465
G01 X22.8436 Y15.3783
G01 X22.8616 Y15.4086
G01 X22.8676 Y15.4174
G01 X22.8844 Y15.4399
G01 X22.8970 Y15.4544
G01 X22.8970 Y16.8797
G01 X22.2507 Y16.2334
G01 X22.2346 Y16.2186
G01 X22.2236 Y16.2096
G01 X22.2030 Y16.1948
G01 X22.1812 Y16.1818
G01 X22.1583 Y16.1709
G01 X22.1345 Y16.1619
G01 X22.1209 Y16.1578
G01 X22.0996 Y16.1527
G01 X22.0746 Y16.1488
G01 X22.0746 Y15.9858
G01 X22.0727 Y15.9477
G01 X22.0671 Y15.9100
G01 X22.0597 Y15.8798
G01 X22.0556 Y15.8662
G01 X22.0475 Y15.8437
G01 X22.0436 Y15.8338
G01 X22.0287 Y15.8026
G01 X22.0090 Y15.7698
G01 X21.9863 Y15.7392
G01 X21.9607 Y15.7109
G01 X21.9324 Y15.6853
G01 X21.9018 Y15.6626
G01 X21.8691 Y15.6430
G01 X21.8379 Y15.6281
G01 X21.8279 Y15.6241
G01 X21.7987 Y15.6138
G01 X21.7617 Y15.6045
G01 X21.7239 Y15.5989
G01 X21.6894 Y15.5971
G01 X21.1948 Y15.5971
G01 X21.1602 Y15.5989
G01 X21.1295 Y15.6033
G01 X21.1155 Y15.6061
G01 X21.0855 Y15.6138
G01 X21.0562 Y15.6241
G01 X21.0430 Y15.6295
G01 X21.0151 Y15.6430
G01 X20.9823 Y15.6626
G01 X20.9517 Y15.6853
G01 X20.9286 Y15.7060
G01 X20.9185 Y15.7161
G01 X20.8978 Y15.7392
G01 X20.8792 Y15.7640
G01 X20.8713 Y15.7759
G01 X20.8555 Y15.8026
G01 X20.8392 Y15.8370
G01 X20.8263 Y15.8730
G01 X20.8186 Y15.9030
G01 X20.8158 Y15.9170
G01 X20.8123 Y15.9406
G01 X20.8111 Y15.9513
G01 X20.8096 Y15.9858
G01 X20.8096 Y16.8983
G01 X20.8109 Y16.9293
G01 X20.8118 Y16.9400
G01 X20.8170 Y16.9742
G01 X20.8263 Y17.0112
G01 X20.8392 Y17.0471
G01 X20.8555 Y17.0816
G01 X20.8751 Y17.1143
G01 X20.8978 Y17.1449
G01 X20.9234 Y17.1732
G01 X20.9463 Y17.1942
G01 X20.9545 Y17.2010
G01 X20.9823 Y17.2215
G01 X21.0089 Y17.2377
G01 X21.0214 Y17.2444
G01 X21.0495 Y17.2575
G01 X21.0855 Y17.2703
G01 X21.1155 Y17.2780
G01 X21.1295 Y17.2808
G01 X21.1531 Y17.2843
G01 X21.1638 Y17.2855
G01 X21.1983 Y17.2871
G01 X21.6894 Y17.2870
G01 X21.7204 Y17.2855
G01 X21.7310 Y17.2843
G01 X21.7617 Y17.2796
G01 X21.7952 Y17.2713
G01 X21.8054 Y17.2681
G01 X21.8279 Y17.2600
G01 X21.8411 Y17.2546
G01 X21.8627 Y17.2444
G01 X21.8722 Y17.2394
G01 X21.8958 Y17.2254
G01 X21.9047 Y17.2195
G01 X21.9324 Y17.1988
G01 X21.9607 Y17.1732
G01 X21.9863 Y17.1449
G01 X22.0049 Y17.1201
G01 X22.0129 Y17.1083
G01 X22.0269 Y17.0847
G01 X22.0319 Y17.0752
G01 X22.0450 Y17.0471
G01 X22.0578 Y17.0112
G01 X22.0671 Y16.9742
G01 X22.0718 Y16.9435
G01 X22.0732 Y16.9293
G01 X22.0745 Y16.9019
G01 X22.0746 Y16.8919
G01 X22.3970 Y17.2143
G01 X22.3970 Y19.7797
G01 X21.7507 Y19.1334
G01 X21.7346 Y19.1186
G01 X21.7236 Y19.1096
G01 X21.7030 Y19.0948
G01 X21.6812 Y19.0818
G01 X21.6583 Y19.0709
G01 X21.6345 Y19.0619
G01 X21.6209 Y19.0578
G01 X21.5996 Y19.0527
G01 X21.5745 Y19.0488
G01 X21.5639 Y19.0479
G01 X21.5421 Y19.0470
G01 X16.5419 Y19.0470
G01 X16.5536 Y19.0421
G01 X16.5816 Y19.0287
G01 X16.6143 Y19.0090
G01 X16.6449 Y18.9863
G01 X16.6680 Y18.9656
G01 X16.6781 Y18.9555
G01 X16.6988 Y18.9324
G01 X16.7174 Y18.9076
G01 X16.7235 Y18.8988
G01 X16.7394 Y18.8722
G01 X16.7444 Y18.8627
G01 X16.7575 Y18.8346
G01 X16.7681 Y18.8054
G01 X16.7713 Y18.7952
G01 X16.7796 Y18.7617
G01 X16.7843 Y18.7310
G01 X16.7855 Y18.7204
G01 X16.7870 Y18.6894
G01 X16.7871 Y18.1983
G01 X16.7852 Y18.1602
G01 X16.7796 Y18.1225
G01 X16.7703 Y18.0855
G01 X16.7575 Y18.0495
G01 X16.7412 Y18.0151
G01 X16.7215 Y17.9823
G01 X16.6988 Y17.9517
G01 X16.6732 Y17.9234
G01 X16.6503 Y17.9025
G01 X16.6422 Y17.8956
G01 X16.6143 Y17.8751
G01 X16.5816 Y17.8555
G01 X16.5471 Y17.8392
G01 X16.5179 Y17.8285
G01 X16.5077 Y17.8253
G01 X16.4742 Y17.8170
G01 X16.4364 Y17.8114
G01 X16.4019 Y17.8096
G01 X16.3372 Y17.8096
G01 X16.3372 Y17.1057
G01 X16.6057 Y16.8372
G01 X18.9346 Y16.8372
G01 X18.9346 Y16.9019
G01 X18.9359 Y16.9293
G01 X18.9373 Y16.9435
G01 X18.9420 Y16.9742
G01 X18.9513 Y17.0112
G01 X18.9616 Y17.0404
G01 X18.9670 Y17.0536
G01 X18.9773 Y17.0752
G01 X18.9822 Y17.0847
G01 X19.0001 Y17.1143
G01 X19.0228 Y17.1449
G01 X19.0484 Y17.1732
G01 X19.0713 Y17.1942
G01 X19.0795 Y17.2010
G01 X19.1015 Y17.2174
G01 X19.1134 Y17.2254
G01 X19.1401 Y17.2412
G01 X19.1745 Y17.2575
G01 X19.2105 Y17.2703
G01 X19.2475 Y17.2796
G01 X19.2852 Y17.2852
G01 X19.3233 Y17.2871
G01 X19.8179 Y17.2869
G01 X19.8489 Y17.2852
G01 X19.8867 Y17.2796
G01 X19.9237 Y17.2703
G01 X19.9596 Y17.2575
G01 X19.9941 Y17.2412
G01 X20.0208 Y17.2254
G01 X20.0326 Y17.2174
G01 X20.0574 Y17.1988
G01 X20.0805 Y17.1781
G01 X20.0906 Y17.1680
G01 X20.1113 Y17.1449
G01 X20.1299 Y17.1201
G01 X20.1379 Y17.1083
G01 X20.1537 Y17.0816
G01 X20.1671 Y17.0536
G01 X20.1725 Y17.0404
G01 X20.1828 Y17.0112
G01 X20.1921 Y16.9742
G01 X20.1977 Y16.9364
G01 X20.1996 Y16.8983
G01 X20.1994 Y15.9787
G01 X20.1977 Y15.9477
G01 X20.1921 Y15.9100
G01 X20.1828 Y15.8730
G01 X20.1725 Y15.8437
G01 X20.1671 Y15.8305
G01 X20.1553 Y15.8057
G01 X20.1502 Y15.7964
G01 X20.1340 Y15.7698
G01 X20.1113 Y15.7392
G01 X20.0857 Y15.7109
G01 X20.0628 Y15.6900
G01 X20.0547 Y15.6831
G01 X20.0326 Y15.6667
G01 X20.0208 Y15.6588
G01 X19.9941 Y15.6430
G01 X19.9596 Y15.6267
G01 X19.9237 Y15.6138
G01 X19.8901 Y15.6053
G01 X19.8796 Y15.6033
G01 X19.8489 Y15.5989
G01 X19.8144 Y15.5971
G01 X19.3198 Y15.5971
G01 X19.2852 Y15.5989
G01 X19.2545 Y15.6033
G01 X19.2440 Y15.6053
G01 X19.2173 Y15.6119
G01 X19.2071 Y15.6149
G01 X19.1779 Y15.6253
G01 X19.1680 Y15.6295
G01 X19.1401 Y15.6430
G01 X19.1073 Y15.6626
G01 X19.0767 Y15.6853
G01 X19.0536 Y15.7060
G01 X19.0435 Y15.7161
G01 X19.0275 Y15.7338
G01 X19.0206 Y15.7420
G01 X19.0001 Y15.7698
G01 X18.9822 Y15.7994
G01 X18.9773 Y15.8089
G01 X18.9670 Y15.8305
G01 X18.9616 Y15.8437
G01 X18.9513 Y15.8730
G01 X18.9420 Y15.9100
G01 X18.9373 Y15.9406
G01 X18.9359 Y15.9548
G01 X18.9346 Y15.9823
G01 X18.9346 Y16.0469
G01 X16.4385 Y16.0470
G01 X16.4069 Y16.0485
G01 X16.3963 Y16.0497
G01 X16.3650 Y16.0545
G01 X16.3342 Y16.0621
G01 X16.3206 Y16.0662
G01 X16.2909 Y16.0770
G01 X16.2558 Y16.0936
G01 X16.2225 Y16.1135
G01 X16.1970 Y16.1322
G01 X16.1860 Y16.1413
G01 X16.1627 Y16.1627
G01 X15.6602 Y16.6652
G01 X15.6366 Y16.6914
G01 X15.6176 Y16.7167
G01 X15.6116 Y16.7255
G01 X15.5953 Y16.7527
G01 X15.5904 Y16.7622
G01 X15.5770 Y16.7909
G01 X15.5662 Y16.8206
G01 X15.5630 Y16.8308
G01 X15.5553 Y16.8615
G01 X15.5533 Y16.8720
G01 X15.5488 Y16.9033
G01 X15.5471 Y16.9349
G01 X15.5469 Y17.8096
G01 X15.4823 Y17.8096
G01 X15.4477 Y17.8114
G01 X15.4100 Y17.8170
G01 X15.3764 Y17.8253
G01 X15.3662 Y17.8285
G01 X15.3370 Y17.8392
G01 X15.3026 Y17.8555
G01 X15.2698 Y17.8751
G01 X15.2420 Y17.8956
G01 X15.2338 Y17.9025
G01 X15.2109 Y17.9234
G01 X15.1853 Y17.9517
G01 X15.1626 Y17.9823
G01 X15.1447 Y18.0119
G01 X15.1398 Y18.0214
G01 X15.1267 Y18.0495
G01 X15.1149 Y18.0821
G01 X15.1119 Y18.0923
G01 X15.1053 Y18.1190
G01 X15.1033 Y18.1295
G01 X15.0998 Y18.1531
G00 Z2.0000
G00 X15.1938 Y18.1671
G01 F60.00
G01 Z0.0000
G01 F120.00
G01 X15.1977 Y18.1410
G01 X15.2041 Y18.1154
G01 X15.2135 Y18.0882
G01 X15.2267 Y18.0598
G01 X15.2416 Y18.0351
G01 X15.2587 Y18.0120
G01 X15.2799 Y17.9889
G01 X15.2995 Y17.9712
G01 X15.3206 Y17.9555
G01 X15.3452 Y17.9405
G01 X15.3734 Y17.9269
G01 X15.4005 Y17.9172
G01 X15.4285 Y17.9102
G01 X15.4558 Y17.9061
G01 X15.4858 Y17.9046
G01 X15.6419 Y17.9046
G01 X15.6420 Y16.9408
G01 X15.6434 Y16.9126
G01 X15.6477 Y16.8835
G01 X15.6549 Y16.8549
G01 X15.6643 Y16.8283
G01 X15.6774 Y16.8006
G01 X15.6925 Y16.7753
G01 X15.7101 Y16.7517
G01 X15.7298 Y16.7298
G01 X16.2307 Y16.2290
G01 X16.2517 Y16.2101
G01 X16.2753 Y16.1925
G01 X16.3006 Y16.1774
G01 X16.3250 Y16.1658
G01 X16.3549 Y16.1549
G01 X16.3835 Y16.1477
G01 X16.4126 Y16.1434
G01 X16.4421 Y16.1419
G01 X19.0296 Y16.1419
G01 X19.0296 Y15.9858
G01 X19.0311 Y15.9558
G01 X19.0352 Y15.9285
G01 X19.0422 Y15.9005
G01 X19.0519 Y15.8734
G01 X19.0655 Y15.8452
G01 X19.0805 Y15.8206
G01 X19.0962 Y15.7995
G01 X19.1139 Y15.7799
G01 X19.1370 Y15.7587
G01 X19.1601 Y15.7416
G01 X19.1870 Y15.7256
G01 X19.2109 Y15.7144
G01 X19.2357 Y15.7055
G01 X19.2660 Y15.6977
G01 X19.2957 Y15.6934
G01 X19.3233 Y15.6921
G01 X19.8108 Y15.6921
G01 X19.8396 Y15.6935
G01 X19.8693 Y15.6980
G01 X19.8984 Y15.7055
G01 X19.9232 Y15.7144
G01 X19.9471 Y15.7256
G01 X19.9740 Y15.7416
G01 X19.9972 Y15.7587
G01 X20.0185 Y15.7781
G01 X20.0394 Y15.8014
G01 X20.0564 Y15.8247
G01 X20.0699 Y15.8473
G01 X20.0812 Y15.8712
G01 X20.0919 Y15.9005
G01 X20.0989 Y15.9285
G01 X20.1031 Y15.9570
G01 X20.1045 Y15.9846
G01 X20.1046 Y16.8983
G01 X20.1031 Y16.9271
G01 X20.0993 Y16.9532
G01 X20.0911 Y16.9859
G01 X20.0822 Y17.0107
G01 X20.0699 Y17.0368
G01 X20.0536 Y17.0635
G01 X20.0379 Y17.0847
G01 X20.0185 Y17.1060
G01 X19.9972 Y17.1254
G01 X19.9760 Y17.1411
G01 X19.9493 Y17.1574
G01 X19.9209 Y17.1706
G01 X19.8961 Y17.1794
G01 X19.8705 Y17.1859
G01 X19.8396 Y17.1906
G01 X19.8108 Y17.1921
G01 X19.3209 Y17.1920
G01 X19.2921 Y17.1903
G01 X19.2660 Y17.1864
G01 X19.2404 Y17.1801
G01 X19.2109 Y17.1697
G01 X19.1848 Y17.1574
G01 X19.1601 Y17.1426
G01 X19.1370 Y17.1254
G01 X19.1156 Y17.1060
G01 X19.0978 Y17.0865
G01 X19.0778 Y17.0594
G01 X19.0642 Y17.0368
G01 X19.0515 Y17.0096
G01 X19.0422 Y16.9836
G01 X19.0357 Y16.9580
G01 X19.0309 Y16.9259
G01 X19.0296 Y16.8983
G01 X19.0296 Y16.7422
G01 X16.5664 Y16.7422
G01 X16.2422 Y17.0664
G01 X16.2422 Y17.9046
G01 X16.3983 Y17.9046
G01 X16.4283 Y17.9061
G01 X16.4556 Y17.9102
G01 X16.4836 Y17.9172
G01 X16.5107 Y17.9269
G01 X16.5389 Y17.9405
G01 X16.5635 Y17.9555
G01 X16.5847 Y17.9712
G01 X16.6042 Y17.9889
G01 X16.6254 Y18.0120
G01 X16.6426 Y18.0351
G01 X16.6574 Y18.0598
G01 X16.6706 Y18.0882
G01 X16.6801 Y18.1154
G01 X16.6864 Y18.1410
G01 X16.6903 Y18.1671
G01 X16.6921 Y18.1983
G01 X16.6921 Y18.6858
G01 X16.6906 Y18.7146
G01 X16.6862 Y18.7443
G01 X16.6786 Y18.7734
G01 X16.6697 Y18.7982
G01 X16.6585 Y18.8221
G01 X16.6426 Y18.8490
G01 X16.6254 Y18.8722
G01 X16.6060 Y18.8935
G01 X16.5827 Y18.9144
G01 X16.5594 Y18.9314
G01 X16.5368 Y18.9449
G01 X16.5130 Y18.9562
G01 X16.4836 Y18.9669
G01 X16.4556 Y18.9739
G01 X16.4271 Y18.9781
G01 X16.3995 Y18.9795
G01 X15.4858 Y18.9796
G01 X15.4546 Y18.9778
G01 X15.4285 Y18.9739
G01 X15.4029 Y18.9676
G01 X15.3734 Y18.9572
G01 X15.3452 Y18.9437
G01 X15.3226 Y18.9301
G01 X15.2976 Y18.9113
G01 X15.2764 Y18.8917
G01 X15.2587 Y18.8722
G01 X15.2430 Y18.8510
G01 X15.2267 Y18.8243
G01 X15.2144 Y18.7982
G01 X15.2047 Y18.7711
G01 X15.1977 Y18.7431
G01 X15.1935 Y18.7146
G01 X15.1921 Y18.6858
G01 X15.1921 Y18.1983
G01 X15.1938 Y18.1671
G00 Z2.0000
G00 X20.9063 Y15.9546
G01 F60.00
G01 Z0.0000
G01 F120.00
G01 X20.9102 Y15.9285
G01 X20.9166 Y15.9029
G01 X20.9279 Y15.8712
G01 X20.9392 Y15.8473
G01 X20.9541 Y15.8226
G01 X20.9712 Y15.7995
G01 X20.9889 Y15.7799
G01 X21.0139 Y15.7572
G01 X21.0351 Y15.7416
G01 X21.0598 Y15.7267
G01 X21.0882 Y15.7135
G01 X21.1130 Y15.7047
G01 X21.1386 Y15.6982
G01 X21.1695 Y15.6935
G01 X21.1983 Y15.6921
G01 X21.6883 Y15.6921
G01 X21.7170 Y15.6938
G01 X21.7431 Y15.6977
G01 X21.7687 Y15.7041
G01 X21.7982 Y15.7144
G01 X21.8243 Y15.7267
G01 X21.8490 Y15.7416
G01 X21.8722 Y15.7587
G01 X21.8935 Y15.7781
G01 X21.9129 Y15.7995
G01 X21.9301 Y15.8226
G01 X21.9449 Y15.8473
G01 X21.9572 Y15.8734
G01 X21.9669 Y15.9005
G01 X21.9743 Y15.9309
G01 X21.9781 Y15.9570
G01 X21.9795 Y15.9834
G01 X21.9796 Y16.2420
G01 X22.0445 Y16.2420
G01 X22.0617 Y16.2430
G01 X22.0835 Y16.2464
G01 X22.1001 Y16.2506
G01 X22.1163 Y16.2563
G01 X22.1342 Y16.2645
G01 X22.1532 Y16.2757
G01 X22.1699 Y16.2882
G01 X22.1835 Y16.3006
G01 X22.8344 Y16.9515
G01 X22.8482 Y16.9671
G01 X22.8584 Y16.9809
G01 X22.8673 Y16.9956
G01 X22.8769 Y17.0155
G01 X22.8835 Y17.0340
G01 X22.8887 Y17.0554
G01 X22.8912 Y17.0725
G01 X22.8921 Y17.0921
G01 X22.8921 Y21.5058
G01 X22.8909 Y21.5266
G01 X22.8883 Y21.5436
G01 X22.8842 Y21.5603
G01 X22.8769 Y21.5811
G01 X22.8671 Y21.6014
G01 X22.8671 Y21.8546
G01 X22.8665 Y21.8656
G01 X22.8646 Y21.8777
G01 X22.8622 Y21.8872
G01 X22.8594 Y21.8953
G01 X22.8538 Y21.9076
G01 X22.8467 Y21.9191
G01 X22.8415 Y21.9259
G01 X22.8358 Y21.9323
G01 X22.8259 Y21.9415
G01 X22.8150 Y21.9494
G01 X22.8076 Y21.9538
G01 X22.7999 Y21.9575
G01 X22.7872 Y21.9622
G01 X22.7741 Y21.9653
G01 X22.7656 Y21.9665
G01 X22.7558 Y21.9670
G01 X22.6283 Y21.9670
G01 X22.6185 Y21.9665
G01 X22.6088 Y21.9651
G01 X22.5969 Y21.9622
G01 X22.5865 Y21.9585
G01 X22.5765 Y21.9538
G01 X22.5671 Y21.9481
G01 X22.5582 Y21.9415
G01 X22.5500 Y21.9341
G01 X22.5426 Y21.9259
G01 X22.5360 Y21.9171
G01 X22.5292 Y21.9054
G01 X22.5256 Y21.8976
G01 X22.5227 Y21.8896
G01 X22.5192 Y21.8765
G01 X22.5174 Y21.8631
G01 X22.5171 Y21.8546
G01 X22.5171 Y21.6014
G01 X22.5072 Y21.5811
G01 X22.5006 Y21.5626
G01 X22.4958 Y21.5436
G01 X22.4928 Y21.5230
G01 X22.4920 Y21.5046
G01 X22.4920 Y17.1749
G01 X21.9796 Y16.6625
G01 X21.9795 Y16.9008
G01 X21.9781 Y16.9271
G01 X21.9743 Y16.9532
G01 X21.9665 Y16.9848
G01 X21.9572 Y17.0107
G01 X21.9449 Y17.0368
G01 X21.9301 Y17.0615
G01 X21.9129 Y17.0847
G01 X21.8935 Y17.1060
G01 X21.8722 Y17.1254
G01 X21.8490 Y17.1426
G01 X21.8221 Y17.1585
G01 X21.7982 Y17.1697
G01 X21.7711 Y17.1794
G01 X21.7431 Y17.1864
G01 X21.7122 Y17.1908
G01 X21.6858 Y17.1921
G01 X21.1959 Y17.1920
G01 X21.1695 Y17.1906
G01 X21.1410 Y17.1864
G01 X21.1130 Y17.1794
G01 X21.0882 Y17.1706
G01 X21.0577 Y17.1562
G01 X21.0351 Y17.1426
G01 X21.0129 Y17.1262
G01 X20.9906 Y17.1060
G01 X20.9712 Y17.0847
G01 X20.9541 Y17.0615
G01 X20.9392 Y17.0368
G01 X20.9269 Y17.0107
G01 X20.9172 Y16.9836
G01 X20.9102 Y16.9556
G01 X20.9060 Y16.9271
G01 X20.9046 Y16.8983
G01 X20.9046 Y15.9858
G01 X20.9063 Y15.9546
G00 Z2.0000
G00 X23.5179 Y21.1411
G01 F60.00
G01 Z0.0000
G01 F120.00
G01 X23.5192 Y21.1326
G01 X23.5219 Y21.1219
G01 X23.5256 Y21.1115
G01 X23.5298 Y21.1026
G01 X23.5354 Y21.0931
G01 X23.5411 Y21.0851
G01 X23.5509 Y21.0742
G01 X23.5582 Y21.0676
G01 X23.5671 Y21.0610
G01 X23.5765 Y21.0553
G01 X23.5854 Y21.0511
G01 X23.5957 Y21.0473
G01 X23.6052 Y21.0448
G01 X23.6210 Y21.0424
G01 X23.6296 Y21.0421
G01 X23.7558 Y21.0421
G01 X23.7656 Y21.0426
G01 X23.7741 Y21.0438
G01 X23.7884 Y21.0473
G01 X23.7999 Y21.0516
G01 X23.8076 Y21.0553
G01 X23.8150 Y21.0597
G01 X23.8250 Y21.0668
G01 X23.8341 Y21.0750
G01 X23.8423 Y21.0842
G01 X23.8494 Y21.0941
G01 X23.8538 Y21.1015
G01 X23.8575 Y21.1093
G01 X23.8618 Y21.1207
G01 X23.8653 Y21.1350
G01 X23.8665 Y21.1435
G01 X23.8671 Y21.1546
G01 X23.8671 Y21.8546
G01 X23.8665 Y21.8656
G01 X23.8649 Y21.8765
G01 X23.8629 Y21.8849
G01 X23.8585 Y21.8976
G01 X23.8538 Y21.9076
G01 X23.8494 Y21.9150
G01 X23.8415 Y21.9259
G01 X23.8341 Y21.9341
G01 X23.8278 Y21.9399
G01 X23.8171 Y21.9481
G01 X23.8054 Y21.9549
G01 X23.7976 Y21.9585
G01 X23.7884 Y21.9618
G01 X23.7741 Y21.9653
G01 X23.7656 Y21.9665
G01 X23.7546 Y21.9671
G01 X23.6283 Y21.9670
G01 X23.6161 Y21.9662
G01 X23.6076 Y21.9649
G01 X23.5981 Y21.9626
G01 X23.5865 Y21.9585
G01 X23.5744 Y21.9526
G01 X23.5671 Y21.9481
G01 X23.5601 Y21.9430
G01 X23.5500 Y21.9341
G01 X23.5418 Y21.9250
G01 X23.5347 Y21.9150
G01 X23.5303 Y21.9076
G01 X23.5266 Y21.8999
G01 X23.5223 Y21.8884
G01 X23.5188 Y21.8741
G01 X23.5176 Y21.8656
G01 X23.5171 Y21.8546
G01 X23.5171 Y21.1546
G01 X23.5179 Y21.1411
G00 Z2.0000
G00 X23.4053 Y21.9971
G01 F60.00
G01 Z0.0000
G01 F120.00
G01 X23.4172 Y21.9834
G01 X23.4271 Y21.9698
G01 X23.4358 Y21.9555
G01 X23.4421 Y21.9433
G01 X23.4483 Y21.9555
G01 X23.4570 Y21.9698
G01 X23.4669 Y21.9834
G01 X23.4788 Y21.9971
G01 X23.4053 Y21.9971
G00 Z2.0000
G00 X22.9053 Y21.9971
G01 F60.00
G01 Z0.0000
G01 F120.00
G01 X22.9172 Y21.9834
G01 X22.9271 Y21.9698
G01 X22.9358 Y21.9555
G01 X22.9421 Y21.9433
G01 X22.9483 Y21.9555
G01 X22.9570 Y21.9698
G01 X22.9669 Y21.9834
G01 X22.9788 Y21.9971
G01 X22.9053 Y21.9971
G00 Z2.0000
G00 X22.4421 Y21.9433
G01 F60.00
G01 Z0.0000
G01 F120.00
G01 X22.4483 Y21.9555
G01 X22.4570 Y21.9698
G01 X22.4669 Y21.9834
G01 X22.4788 Y21.9971
G01 X22.4053 Y21.9971
G01 X22.4172 Y21.9834
G01 X22.4271 Y21.9698
G01 X22.4358 Y21.9555
G01 X22.4421 Y21.9433
G00 Z2.0000
G00 X22.0621 Y22.1747
G01 F60.00
G01 Z0.0000
G01 F120.00
G01 X22.0620 Y22.1260
G01 X22.0614 Y22.1128
G01 X22.0602 Y22.1022
G01 X22.0581 Y22.0891
G01 X22.0541 Y22.0728
G01 X22.0488 Y22.0568
G01 X22.0431 Y22.0431
G01 X22.0568 Y22.0488
G01 X22.0728 Y22.0541
G01 X22.0891 Y22.0581
G01 X22.1022 Y22.0602
G01 X22.1128 Y22.0614
G01 X22.1260 Y22.0620
G01 X22.1747 Y22.0621
G01 X22.1666 Y22.0677
G01 X22.1413 Y22.0866
G01 X22.1126 Y22.1126
G01 X22.0866 Y22.1413
G01 X22.0677 Y22.1666
G01 X22.0621 Y22.1747
G00 Z2.0000
G00 X21.9770 Y22.4220
G01 F60.00
G01 Z0.0000
G01 F120.00
G01 X21.9862 Y22.4150
G01 X21.9971 Y22.4053
G01 X21.9971 Y22.4220
G01 X21.9770 Y22.4220
G00 Z2.0000
G00 X21.9770 Y22.9621
G01 F60.00
G01 Z0.0000
G01 F120.00
G01 X21.9971 Y22.9621
G01 X21.9971 Y22.9788
G01 X21.9862 Y22.9692
G01 X21.9770 Y22.9621
G00 Z2.0000
G00 X21.9433 Y23.4421
G01 F60.00
G01 Z0.0000
G01 F120.00
G01 X21.9555 Y23.4358
G01 X21.9698 Y23.4271
G01 X21.9834 Y23.4172
G01 X21.9971 Y23.4053
G01 X21.9971 Y23.4788
G01 X21.9834 Y23.4669
G01 X21.9698 Y23.4570
G01 X21.9555 Y23.4483
G01 X21.9433 Y23.4421
G00 Z2.0000
G00 X21.9971 Y23.9053
G01 F60.00
G01 Z0.0000
G01 F120.00
G01 X21.9971 Y23.9788
G01 X21.9834 Y23.9669
G01 X21.9698 Y23.9570
G01 X21.9555 Y23.9483
G01 X21.9433 Y23.9421
G01 X21.9555 Y23.9358
G01 X21.9698 Y23.9271
G01 X21.9834 Y23.9172
G01 X21.9971 Y23.9053
G00 Z2.0000
G00 X21.9433 Y24.4421
G01 F60.00
G01 Z0.0000
G01 F120.00
G01 X21.9555 Y24.4358
G01 X21.9698 Y24.4271
G01 X21.9834 Y24.4172
G01 X21.9971 Y24.4053
G01 X21.9971 Y24.4788
G01 X21.9834 Y24.4669
G01 X21.9698 Y24.4570
G01 X21.9555 Y24.4483
G01 X21.9433 Y24.4421
G00 Z2.0000
G00 X21.0429 Y24.6161
G01 F60.00
G01 Z0.0000
G01 F120.00
G01 X21.0442 Y24.6076
G01 X21.0469 Y24.5969
G01 X21.0506 Y24.5865
G01 X21.0542 Y24.5787
G01 X21.0624 Y24.5651
G01 X21.0676 Y24.5582
G01 X21.0750 Y24.5500
G01 X21.0832 Y24.5426
G01 X21.0901 Y24.5374
G01 X21.1037 Y24.5292
G01 X21.1115 Y24.5256
G01 X21.1219 Y24.5219
G01 X21.1326 Y24.5192
G01 X21.1423 Y24.5177
G01 X21.1546 Y24.5171
G01 X21.8546 Y24.5171
G01 X21.8656 Y24.5176
G01 X21.8753 Y24.5190
G01 X21.8884 Y24.5223
G01 X21.8976 Y24.5256
G01 X21.9054 Y24.5292
G01 X21.9171 Y24.5360
G01 X21.9269 Y24.5434
G01 X21.9341 Y24.5500
G01 X21.9399 Y24.5563
G01 X21.9481 Y24.5671
G01 X21.9549 Y24.5787
G01 X21.9585 Y24.5865
G01 X21.9614 Y24.5946
G01 X21.9651 Y24.6088
G01 X21.9665 Y24.6185
G01 X21.9670 Y24.6283
G01 X21.9670 Y24.7558
G01 X21.9665 Y24.7656
G01 X21.9651 Y24.7753
G01 X21.9614 Y24.7896
G01 X21.9585 Y24.7976
G01 X21.9538 Y24.8076
G01 X21.9481 Y24.8171
G01 X21.9430 Y24.8240
G01 X21.9323 Y24.8358
G01 X21.9259 Y24.8415
G01 X21.9171 Y24.8481
G01 X21.9076 Y24.8538
G01 X21.8999 Y24.8575
G01 X21.8849 Y24.8629
G01 X21.8765 Y24.8649
G01 X21.8656 Y24.8665
G01 X21.8546 Y24.8671
G01 X21.1546 Y24.8671
G01 X21.1435 Y24.8665
G01 X21.1338 Y24.8651
G01 X21.1219 Y24.8622
G01 X21.1093 Y24.8575
G01 X21.1015 Y24.8538
G01 X21.0941 Y24.8494
G01 X21.0832 Y24.8415
G01 X21.0733 Y24.8323
G01 X21.0676 Y24.8259
G01 X21.0624 Y24.8191
G01 X21.0553 Y24.8076
G01 X21.0497 Y24.7953
G01 X21.0469 Y24.7872
G01 X21.0442 Y24.7765
G01 X21.0426 Y24.7656
G01 X21.0421 Y24.7570
G01 X21.0421 Y24.6296
G01 X21.0429 Y24.6161
G00 Z2.0000
G00 X21.0429 Y24.1161
G01 F60.00
G01 Z0.0000
G01 F120.00
G01 X21.0442 Y24.1076
G01 X21.0469 Y24.0969
G01 X21.0506 Y24.0865
G01 X21.0542 Y24.0787
G01 X21.0624 Y24.0651
G01 X21.0676 Y24.0582
G01 X21.0750 Y24.0500
G01 X21.0832 Y24.0426
G01 X21.0901 Y24.0374
G01 X21.1037 Y24.0292
G01 X21.1115 Y24.0256
G01 X21.1219 Y24.0219
G01 X21.1326 Y24.0192
G01 X21.1423 Y24.0177
G01 X21.1546 Y24.0171
G01 X21.8546 Y24.0171
G01 X21.8656 Y24.0176
G01 X21.8753 Y24.0190
G01 X21.8884 Y24.0223
G01 X21.8976 Y24.0256
G01 X21.9054 Y24.0292
G01 X21.9171 Y24.0360
G01 X21.9269 Y24.0434
G01 X21.9341 Y24.0500
G01 X21.9399 Y24.0563
G01 X21.9481 Y24.0671
G01 X21.9549 Y24.0787
G01 X21.9585 Y24.0865
G01 X21.9614 Y24.0946
G01 X21.9651 Y24.1088
G01 X21.9665 Y24.1185
G01 X21.9670 Y24.1283
G01 X21.9670 Y24.2558
G01 X21.9665 Y24.2656
G01 X21.9651 Y24.2753
G01 X21.9614 Y24.2896
G01 X21.9585 Y24.2976
G01 X21.9538 Y24.3076
G01 X21.9481 Y24.3171
G01 X21.9430 Y24.3240
G01 X21.9323 Y24.3358
G01 X21.9259 Y24.3415
G01 X21.9171 Y24.3481
G01 X21.9076 Y24.3538
G01 X21.8999 Y24.3575
G01 X21.8849 Y24.3629
G01 X21.8765 Y24.3649
G01 X21.8656 Y24.3665
G01 X21.8546 Y24.3671
G01 X21.1546 Y24.3671
G01 X21.1435 Y24.3665
G01 X21.1338 Y24.3651
G01 X21.1219 Y24.3622
G01 X21.1093 Y24.3575
G01 X21.1015 Y24.3538
G01 X21.0941 Y24.3494
G01 X21.0832 Y24.3415
G01 X21.0733 Y24.3323
G01 X21.0676 Y24.3259
G01 X21.0624 Y24.3191
G01 X21.0553 Y24.3076
G01 X21.0497 Y24.2953
G01 X21.0469 Y24.2872
G01 X21.0442 Y24.2765
G01 X21.0426 Y24.2656
G01 X21.0421 Y24.2570
G01 X21.0421 Y24.1296
G01 X21.0429 Y24.1161
G00 Z2.0000
G00 X22.9053 Y24.8871
G01 F60.00
G01 Z0.0000
G01 F120.00
G01 X22.9788 Y24.8871
G01 X22.9669 Y24.9007
G01 X22.9570 Y24.9143
G01 X22.9483 Y24.9286
G01 X22.9421 Y24.9409
G01 X22.9358 Y24.9286
G01 X22.9271 Y24.9143
G01 X22.9172 Y24.9007
G01 X22.9053 Y24.8871
G00 Z2.0000
G00 X23.4053 Y24.8871
G01 F60.00
G01 Z0.0000
G01 F120.00
G01 X23.4788 Y24.8871
G01 X23.4669 Y24.9007
G01 X23.4570 Y24.9143
G01 X23.4483 Y24.9286
G01 X23.4421 Y24.9409
G01 X23.4358 Y24.9286
G01 X23.4271 Y24.9143
G01 X23.4172 Y24.9007
G01 X23.4053 Y24.8871
G00 Z2.0000
G00 X23.9053 Y24.8871
G01 F60.00
G01 Z0.0000
G01 F120.00
G01 X23.9788 Y24.8871
G01 X23.9669 Y24.9007
G01 X23.9570 Y24.9143
G01 X23.9483 Y24.9286
G01 X23.9421 Y24.9409
G01 X23.9358 Y24.9286
G01 X23.9271 Y24.9143
G01 X23.9172 Y24.9007
G01 X23.9053 Y24.8871
G00 Z2.0000
G00 X24.4053 Y24.8871
G01 F60.00
G01 Z0.0000
G01 F120.00
G01 X24.4788 Y24.8871
G01 X24.4669 Y24.9007
G01 X24.4570 Y24.9143
G01 X24.4483 Y24.9286
G01 X24.4421 Y24.9409
G01 X24.4358 Y24.9286
G01 X24.4271 Y24.9143
G01 X24.4172 Y24.9007
G01 X24.4053 Y24.8871
G00 Z2.0000
G00 X24.7094 Y24.8221
G01 F60.00
G01 Z0.0000
G01 F120.00
G01 X24.7175 Y24.8165
G01 X24.7428 Y24.7975
G01 X24.7715 Y24.7715
G01 X24.7975 Y24.7428
G01 X24.8165 Y24.7175
G01 X24.8221 Y24.7094
G01 X24.8221 Y24.7581
G01 X24.8228 Y24.7714
G01 X24.8239 Y24.7820
G01 X24.8260 Y24.7950
G01 X24.8300 Y24.8114
G01 X24.8353 Y24.8273
G01 X24.8410 Y24.8410
G01 X24.8273 Y24.8353
G01 X24.8114 Y24.8300
G01 X24.7950 Y24.8260
G01 X24.7820 Y24.8239
G01 X24.7714 Y24.8228
G01 X24.7581 Y24.8221
G01 X24.7094 Y24.8221
G00 Z2.0000
G00 X24.9179 Y24.6161
G01 F60.00
G01 Z0.0000
G01 F120.00
G01 X24.9192 Y24.6076
G01 X24.9216 Y24.5981
G01 X24.9261 Y24.5854
G01 X24.9303 Y24.5765
G01 X24.9347 Y24.5691
G01 X24.9434 Y24.5573
G01 X24.9500 Y24.5500
G01 X24.9563 Y24.5442
G01 X24.9671 Y24.5360
G01 X24.9765 Y24.5303
G01 X24.9843 Y24.5266
G01 X24.9981 Y24.5216
G01 X25.0076 Y24.5192
G01 X25.0161 Y24.5179
G01 X25.0283 Y24.5171
G01 X25.2827 Y24.5171
G01 X25.3030 Y24.5072
G01 X25.3215 Y24.5006
G01 X25.3405 Y24.4958
G01 X25.3624 Y24.4928
G01 X25.3796 Y24.4920
G01 X27.1945 Y24.4920
G01 X27.2117 Y24.4930
G01 X27.2287 Y24.4954
G01 X27.2501 Y24.5006
G01 X27.2709 Y24.5082
G01 X27.2864 Y24.5156
G01 X27.3032 Y24.5257
G01 X27.3190 Y24.5374
G01 X27.3327 Y24.5497
G01 X27.4256 Y24.6427
G01 X27.4433 Y24.6420
G01 X27.4703 Y24.6433
G01 X27.4994 Y24.6475
G01 X27.5292 Y24.6549
G01 X27.5558 Y24.6643
G01 X27.5835 Y24.6774
G01 X27.6088 Y24.6925
G01 X27.6325 Y24.7101
G01 X27.6543 Y24.7298
G01 X27.6741 Y24.7517
G01 X27.6916 Y24.7753
G01 X27.7068 Y24.8006
G01 X27.7193 Y24.8272
G01 X27.7293 Y24.8549
G01 X27.7364 Y24.8835
G01 X27.7407 Y24.9126
G01 X27.7422 Y24.9408
G01 X27.7422 Y28.6975
G01 X27.7711 Y28.7047
G01 X27.7982 Y28.7144
G01 X27.8243 Y28.7267
G01 X27.8510 Y28.7430
G01 X27.8722 Y28.7587
G01 X27.8917 Y28.7764
G01 X27.9113 Y28.7976
G01 X27.9301 Y28.8226
G01 X27.9449 Y28.8473
G01 X27.9572 Y28.8734
G01 X27.9669 Y28.9005
G01 X27.9739 Y28.9285
G01 X27.9780 Y28.9558
G01 X27.9796 Y28.9858
G01 X27.9796 Y29.1419
G01 X29.4433 Y29.1420
G01 X29.4715 Y29.1434
G01 X29.5006 Y29.1477
G01 X29.5292 Y29.1549
G01 X29.5569 Y29.1648
G01 X29.5835 Y29.1774
G01 X29.6088 Y29.1925
G01 X29.6325 Y29.2101
G01 X29.6543 Y29.2298
G01 X30.6543 Y30.2298
G01 X30.6741 Y30.2517
G01 X30.6902 Y30.2733
G01 X30.7079 Y30.3028
G01 X30.7202 Y30.3295
G01 X30.7293 Y30.3549
G01 X30.7359 Y30.3811
G01 X30.7407 Y30.4126
G01 X30.7422 Y30.4421
G01 X30.7422 Y38.3177
G01 X31.9429 Y39.5185
G01 X31.9493 Y39.5149
G01 X32.0425 Y39.4711
G01 X32.1373 Y39.4373
G01 X32.2396 Y39.4118
G01 X32.3391 Y39.3971
G01 X32.4421 Y39.3921
G01 X32.5450 Y39.3971
G01 X32.6493 Y39.4128
G01 X32.7469 Y39.4373
G01 X32.8439 Y39.4720
G01 X32.9370 Y39.5160
G01 X33.0254 Y39.5690
G01 X33.1082 Y39.6304
G01 X33.1845 Y39.6996
G01 X33.2537 Y39.7760
G01 X33.3144 Y39.8577
G01 X33.3681 Y39.9471
G01 X33.4121 Y40.0402
G01 X33.4469 Y40.1373
G01 X33.4723 Y40.2396
G01 X33.4870 Y40.3391
G01 X33.4920 Y40.4445
G01 X33.4867 Y40.5474
G01 X33.4719 Y40.6469
G01 X33.4475 Y40.7445
G01 X33.4121 Y40.8439
G01 X33.3681 Y40.9370
G01 X33.3151 Y41.0254
G01 X33.2537 Y41.1082
G01 X33.1845 Y41.1845
G01 X33.1082 Y41.2537
G01 X33.0254 Y41.3151
G01 X32.9348 Y41.3692
G01 X32.8439 Y41.4121
G01 X32.7469 Y41.4469
G01 X32.6469 Y41.4719
G01 X32.5474 Y41.4867
G01 X32.4396 Y41.4920
G01 X32.3391 Y41.4870
G01 X32.2396 Y41.4723
G01 X32.1349 Y41.4461
G01 X32.0402 Y41.4121
G01 X31.9471 Y41.3681
G01 X31.8587 Y41.3151
G01 X31.7779 Y41.2552
G01 X31.6996 Y41.1845
G01 X31.6304 Y41.1082
G01 X31.5704 Y41.0274
G01 X31.5149 Y40.9348
G01 X31.4720 Y40.8439
G01 X31.4373 Y40.7469
G01 X31.4122 Y40.6469
G01 X31.3974 Y40.5474
G01 X31.3921 Y40.4396
G01 X31.3971 Y40.3391
G01 X31.4122 Y40.2372
G01 X31.4373 Y40.1373
G01 X31.4711 Y40.0425
G01 X31.5149 Y39.9493
G01 X31.5185 Y39.9429
G01 X30.2290 Y38.6534
G01 X30.2086 Y38.6305
G01 X30.1925 Y38.6088
G01 X30.1786 Y38.5857
G01 X30.1648 Y38.5569
G01 X30.1542 Y38.5268
G01 X30.1477 Y38.5006
G01 X30.1437 Y38.4739
G01 X30.1419 Y38.4421
G01 X30.1419 Y30.5664
G01 X29.3177 Y29.7422
G01 X27.9796 Y29.7422
G01 X27.9796 Y29.8983
G01 X27.9780 Y29.9283
G01 X27.9739 Y29.9556
G01 X27.9669 Y29.9836
G01 X27.9572 Y30.0107
G01 X27.9437 Y30.0389
G01 X27.9286 Y30.0635
G01 X27.9129 Y30.0847
G01 X27.8952 Y30.1042
G01 X27.8722 Y30.1254
G01 X27.8490 Y30.1426
G01 X27.8243 Y30.1574
G01 X27.7959 Y30.1706
G01 X27.7687 Y30.1801
G01 X27.7431 Y30.1864
G01 X27.7170 Y30.1903
G01 X27.6858 Y30.1921
G01 X27.1983 Y30.1921
G01 X27.1671 Y30.1903
G01 X27.1410 Y30.1864
G01 X27.1130 Y30.1794
G01 X27.0859 Y30.1697
G01 X27.0598 Y30.1574
G01 X27.0351 Y30.1426
G01 X27.0120 Y30.1254
G01 X26.9906 Y30.1060
G01 X26.9720 Y30.0856
G01 X26.9528 Y30.0594
G01 X26.9392 Y30.0368
G01 X26.9269 Y30.0107
G01 X26.9172 Y29.9836
G01 X26.9107 Y29.9580
G01 X26.9058 Y29.9247
G01 X26.9046 Y29.8983
G01 X26.9046 Y28.9858
G01 X26.9061 Y28.9558
G01 X26.9102 Y28.9285
G01 X26.9166 Y28.9029
G01 X26.9279 Y28.8712
G01 X26.9392 Y28.8473
G01 X26.9541 Y28.8226
G01 X26.9712 Y28.7995
G01 X26.9889 Y28.7799
G01 X27.0139 Y28.7572
G01 X27.0351 Y28.7416
G01 X27.0598 Y28.7267
G01 X27.0859 Y28.7144
G01 X27.1107 Y28.7055
G01 X27.1419 Y28.6975
G01 X27.1419 Y24.9421
G01 X27.1427 Y24.9256
G01 X27.1092 Y24.8921
G01 X25.3783 Y24.8921
G01 X25.3575 Y24.8909
G01 X25.3405 Y24.8883
G01 X25.3238 Y24.8842
G01 X25.3030 Y24.8769
G01 X25.2827 Y24.8671
G01 X25.0296 Y24.8671
G01 X25.0161 Y24.8662
G01 X25.0076 Y24.8649
G01 X24.9993 Y24.8629
G01 X24.9865 Y24.8585
G01 X24.9744 Y24.8526
G01 X24.9671 Y24.8481
G01 X24.9592 Y24.8423
G01 X24.9500 Y24.8341
G01 X24.9411 Y24.8240
G01 X24.9360 Y24.8171
G01 X24.9309 Y24.8087
G01 X24.9252 Y24.7965
G01 X24.9219 Y24.7872
G01 X24.9192 Y24.7765
G01 X24.9176 Y24.7656
G01 X24.9171 Y24.7570
G01 X24.9171 Y24.6296
G01 X24.9179 Y24.6161
G00 Z2.0000
G00 X24.8871 Y24.4788
G01 F60.00
G01 Z0.0000
G01 F120.00
G01 X24.8871 Y24.4053
G01 X24.9007 Y24.4172
G01 X24.9143 Y24.4271
G01 X24.9286 Y24.4358
G01 X24.9409 Y24.4421
G01 X24.9286 Y24.4483
G01 X24.9143 Y24.4570
G01 X24.9007 Y24.4669
G01 X24.8871 Y24.4788
G00 Z2.0000
G00 X24.9409 Y22.9421
G01 F60.00
G01 Z0.0000
G01 F120.00
G01 X24.9286 Y22.9483
G01 X24.9143 Y22.9570
G01 X24.9007 Y22.9669
G01 X24.8871 Y22.9788
G01 X24.8871 Y22.9053
G01 X24.9007 Y22.9172
G01 X24.9143 Y22.9271
G01 X24.9286 Y22.9358
G01 X24.9409 Y22.9421
G00 Z2.0000
G00 X24.8871 Y22.4788
G01 F60.00
G01 Z0.0000
G01 F120.00
G01 X24.8871 Y22.4053
G01 X24.9007 Y22.4172
G01 X24.9143 Y22.4271
G01 X24.9286 Y22.4358
G01 X24.9409 Y22.4421
G01 X24.9286 Y22.4483
G01 X24.9143 Y22.4570
G01 X24.9007 Y22.4669
G01 X24.8871 Y22.4788
G00 Z2.0000
G00 X24.8221 Y22.1747
G01 F60.00
G01 Z0.0000
G01 F120.00
G01 X24.8165 Y22.1666
G01 X24.7975 Y22.1413
G01 X24.7715 Y22.1126
G01 X24.7428 Y22.0866
G01 X24.7175 Y22.0677
G01 X24.7094 Y22.0621
G01 X24.7581 Y22.0620
G01 X24.7714 Y22.0614
G01 X24.7820 Y22.0602
G01 X24.7950 Y22.0581
G01 X24.8114 Y22.0541
G01 X24.8273 Y22.0488
G01 X24.8410 Y22.0431
G01 X24.8353 Y22.0568
G01 X24.8300 Y22.0728
G01 X24.8260 Y22.0891
G01 X24.8239 Y22.1022
G01 X24.8228 Y22.1128
G01 X24.8221 Y22.1260
G01 X24.8221 Y22.1747
G00 Z2.0000
G00 X24.9179 Y22.1161
G01 F60.00
G01 Z0.0000
G01 F120.00
G01 X24.9192 Y22.1076
G01 X24.9219 Y22.0969
G01 X24.9256 Y22.0865
G01 X24.9292 Y22.0787
G01 X24.9367 Y22.0661
G01 X24.9426 Y22.0582
G01 X24.9483 Y22.0518
G01 X24.9601 Y22.0411
G01 X24.9671 Y22.0360
G01 X24.9765 Y22.0303
G01 X24.9865 Y22.0256
G01 X24.9946 Y22.0227
G01 X25.0076 Y22.0192
G01 X25.0185 Y22.0176
G01 X25.0296 Y22.0171
G01 X25.7296 Y22.0171
G01 X25.7406 Y22.0176
G01 X25.7503 Y22.0190
G01 X25.7646 Y22.0227
G01 X25.7733 Y22.0152
G01 X25.8168 Y21.9832
G01 X25.8610 Y21.9568
G01 X25.9121 Y21.9328
G01 X25.9607 Y21.9155
G01 X26.0131 Y21.9024
G01 X26.0665 Y21.8945
G01 X26.1192 Y21.8918
G01 X31.4433 Y21.8918
G01 X31.4960 Y21.8945
G01 X31.5470 Y21.9020
G01 X31.6018 Y21.9155
G01 X31.6526 Y21.9337
G01 X31.6993 Y21.9557
G01 X31.7488 Y21.9852
G01 X31.7911 Y22.0167
G01 X31.8311 Y22.0530
G01 X35.7686 Y25.9905
G01 X35.8049 Y26.0305
G01 X35.8371 Y26.0739
G01 X35.8648 Y26.1202
G01 X35.8879 Y26.1690
G01 X35.9061 Y26.2198
G01 X35.9192 Y26.2722
G01 X35.9272 Y26.3256
G01 X35.9298 Y26.3796
G01 X35.9298 Y32.2141
G01 X38.7275 Y35.0118
G01 X42.8921 Y35.0118
G01 X42.8921 Y34.0608
G01 X42.8928 Y34.0535
G01 X42.8946 Y34.0464
G01 X42.8974 Y34.0396
G01 X42.9019 Y34.0323
G01 X42.9076 Y34.0259
G01 X42.9133 Y34.0212
G01 X42.9196 Y34.0174
G01 X42.9264 Y34.0146
G01 X42.9347 Y34.0126
G01 X42.9421 Y34.0121
G01 X45.9421 Y34.0121
G01 X45.9470 Y34.0123
G01 X45.9530 Y34.0133
G01 X45.9589 Y34.0150
G01 X45.9634 Y34.0169
G01 X45.9688 Y34.0198
G01 X45.9747 Y34.0242
G01 X45.9799 Y34.0294
G01 X45.9843 Y34.0353
G01 X45.9878 Y34.0418
G01 X45.9899 Y34.0475
G01 X45.9915 Y34.0547
G01 X45.9921 Y34.0621
G01 X45.9921 Y37.0621
G01 X45.9915 Y37.0694
G01 X45.9895 Y37.0777
G01 X45.9867 Y37.0845
G01 X45.9829 Y37.0909
G01 X45.9791 Y37.0956
G01 X45.9747 Y37.0999
G01 X45.9698 Y37.1036
G01 X45.9645 Y37.1067
G01 X45.9589 Y37.1091
G01 X45.9542 Y37.1106
G01 X45.9482 Y37.1117
G01 X45.9421 Y37.1121
G01 X42.9421 Y37.1121
G01 X42.9335 Y37.1113
G01 X42.9252 Y37.1091
G01 X42.9185 Y37.1062
G01 X42.9113 Y37.1015
G01 X42.9050 Y37.0956
G01 X42.8998 Y37.0888
G01 X42.8959 Y37.0812
G01 X42.8933 Y37.0730
G01 X42.8921 Y37.0645
G01 X42.8921 Y36.1123
G01 X39.9923 Y36.1123
G01 X39.9923 Y40.4433
G01 X39.9897 Y40.4960
G01 X39.9822 Y40.5470
G01 X39.9679 Y40.6041
G01 X39.9504 Y40.6526
G01 X39.9273 Y40.7014
G01 X39.8996 Y40.7478
G01 X39.8682 Y40.7902
G01 X39.8311 Y40.8311
G01 X39.7911 Y40.8674
G01 X39.7478 Y40.8996
G01 X39.7014 Y40.9273
G01 X39.6526 Y40.9504
G01 X39.6018 Y40.9686
G01 X39.5494 Y40.9817
G01 X39.4948 Y40.9898
G01 X39.4421 Y40.9923
G01 X37.3350 Y40.9923
G01 X37.3144 Y41.0264
G01 X37.2545 Y41.1072
G01 X37.1854 Y41.1836
G01 X37.1082 Y41.2537
G01 X37.0244 Y41.3158
G01 X36.9370 Y41.3681
G01 X36.8416 Y41.4130
G01 X36.7469 Y41.4469
G01 X36.6493 Y41.4714
G01 X36.5462 Y41.4869
G01 X36.4421 Y41.4921
G01 X36.3391 Y41.4870
G01 X36.2372 Y41.4719
G01 X36.1396 Y41.4475
G01 X36.0380 Y41.4111
G01 X35.9471 Y41.3681
G01 X35.8577 Y41.3144
G01 X35.7760 Y41.2537
G01 X35.7014 Y41.1862
G01 X35.6304 Y41.1082
G01 X35.5677 Y41.0233
G01 X35.5160 Y40.9370
G01 X35.4730 Y40.8461
G01 X35.4373 Y40.7469
G01 X35.4118 Y40.6445
G01 X35.3971 Y40.5450
G01 X35.3921 Y40.4445
G01 X35.3971 Y40.3391
G01 X35.4128 Y40.2348
G01 X35.4373 Y40.1373
G01 X35.4711 Y40.0425
G01 X35.5160 Y39.9471
G01 X35.5704 Y39.8567
G01 X35.6304 Y39.7760
G01 X35.6979 Y39.7014
G01 X35.7760 Y39.6304
G01 X35.8608 Y39.5677
G01 X35.9471 Y39.5160
G01 X36.0380 Y39.4730
G01 X36.1396 Y39.4366
G01 X36.2372 Y39.4122
G01 X36.3416 Y39.3969
G01 X36.4421 Y39.3921
G01 X36.5450 Y39.3971
G01 X36.6469 Y39.4122
G01 X36.7480 Y39.4376
G01 X36.8439 Y39.4720
G01 X36.9370 Y39.5160
G01 X37.0254 Y39.5690
G01 X37.1072 Y39.6296
G01 X37.1845 Y39.6996
G01 X37.2529 Y39.7750
G01 X37.3144 Y39.8577
G01 X37.3350 Y39.8918
G01 X38.8918 Y39.8918
G01 X38.8918 Y36.1123
G01 X38.4983 Y36.1123
G01 X38.4456 Y36.1097
G01 X38.3934 Y36.1020
G01 X38.3398 Y36.0886
G01 X38.2867 Y36.0694
G01 X38.2402 Y36.0473
G01 X38.1959 Y36.0209
G01 X38.1514 Y35.9882
G01 X38.1105 Y35.9511
G01 X35.3514 Y33.1921
G01 X35.1358 Y33.1921
G01 X35.1082 Y33.1908
G01 X35.0761 Y33.1859
G01 X35.0505 Y33.1794
G01 X35.0245 Y33.1702
G01 X34.9973 Y33.1574
G01 X34.9726 Y33.1426
G01 X34.9495 Y33.1254
G01 X34.9281 Y33.1060
G01 X34.9087 Y33.0847
G01 X34.8916 Y33.0615
G01 X34.8767 Y33.0368
G01 X34.8644 Y33.0107
G01 X34.8547 Y32.9836
G01 X34.8482 Y32.9580
G01 X34.8434 Y32.9259
G01 X34.8421 Y32.8983
G01 X34.8421 Y32.5584
G01 X34.8397 Y32.5482
G01 X34.8320 Y32.4960
G01 X34.8293 Y32.4421
G01 X34.8293 Y26.6075
G01 X31.2141 Y22.9923
G01 X26.1192 Y22.9923
G01 X26.0665 Y22.9897
G01 X26.0131 Y22.9817
G01 X25.9607 Y22.9686
G01 X25.9121 Y22.9513
G01 X25.8589 Y22.9261
G01 X25.8147 Y22.8996
G01 X25.7710 Y22.8671
G01 X25.0296 Y22.8671
G01 X25.0161 Y22.8662
G01 X25.0076 Y22.8649
G01 X24.9993 Y22.8629
G01 X24.9865 Y22.8585
G01 X24.9765 Y22.8538
G01 X24.9691 Y22.8494
G01 X24.9582 Y22.8415
G01 X24.9500 Y22.8341
G01 X24.9442 Y22.8278
G01 X24.9360 Y22.8171
G01 X24.9292 Y22.8054
G01 X24.9256 Y22.7976
G01 X24.9223 Y22.7884
G01 X24.9188 Y22.7741
G01 X24.9176 Y22.7656
G01 X24.9171 Y22.7558
G01 X24.9171 Y22.6283
G01 X24.9176 Y22.6185
G01 X24.9192 Y22.6076
G01 X24.9219 Y22.5969
G01 X24.9252 Y22.5876
G01 X24.9303 Y22.5765
G01 X24.9367 Y22.5661
G01 X24.9442 Y22.5563
G01 X24.9500 Y22.5500
G01 X24.9563 Y22.5442
G01 X24.9661 Y22.5367
G01 X24.9765 Y22.5303
G01 X24.9876 Y22.5252
G01 X24.9993 Y22.5213
G01 X25.0076 Y22.5192
G01 X25.0161 Y22.5179
G01 X25.0283 Y22.5171
G01 X25.2045 Y22.5171
G01 X25.2045 Y22.3671
G01 X25.0296 Y22.3671
G01 X25.0185 Y22.3665
G01 X25.0076 Y22.3649
G01 X24.9993 Y22.3629
G01 X24.9865 Y22.3585
G01 X24.9765 Y22.3538
G01 X24.9691 Y22.3494
G01 X24.9573 Y22.3407
G01 X24.9500 Y22.3341
G01 X24.9426 Y22.3259
G01 X24.9360 Y22.3171
G01 X24.9316 Y22.3097
G01 X24.9247 Y22.2953
G01 X24.9216 Y22.2860
G01 X24.9190 Y22.2753
G01 X24.9176 Y22.2656
G01 X24.9171 Y22.2546
G01 X24.9171 Y22.1296
G01 X24.9179 Y22.1161
G00 Z2.0000
G00 X24.4053 Y21.9971
G01 F60.00
G01 Z0.0000
G01 F120.00
G01 X24.4172 Y21.9834
G01 X24.4271 Y21.9698
G01 X24.4358 Y21.9555
G01 X24.4421 Y21.9433
G01 X24.4483 Y21.9555
G01 X24.4570 Y21.9698
G01 X24.4669 Y21.9834
G01 X24.4788 Y21.9971
G01 X24.4053 Y21.9971
G00 Z2.0000
G00 X23.9421 Y21.9433
G01 F60.00
G01 Z0.0000
G01 F120.00
G01 X23.9483 Y21.9555
G01 X23.9570 Y21.9698
G01 X23.9669 Y21.9834
G01 X23.9788 Y21.9971
G01 X23.9053 Y21.9971
G01 X23.9172 Y21.9834
G01 X23.9271 Y21.9698
G01 X23.9358 Y21.9555
G01 X23.9421 Y21.9433
G00 Z2.0000
G00 X24.4920 Y28.5671
G01 F60.00
G01 Z0.0000
G01 F120.00
G01 X24.4920 Y25.3796
G01 X24.4933 Y25.3575
G01 X24.4958 Y25.3405
G01 X24.4999 Y25.3238
G01 X24.5072 Y25.3030
G01 X24.5171 Y25.2827
G01 X24.5171 Y25.0296
G01 X24.5175 Y25.0198
G01 X24.5195 Y25.0064
G01 X24.5219 Y24.9969
G01 X24.5247 Y24.9888
G01 X24.5303 Y24.9765
G01 X24.5374 Y24.9651
G01 X24.5426 Y24.9582
G01 X24.5483 Y24.9518
G01 X24.5582 Y24.9426
G01 X24.5691 Y24.9347
G01 X24.5765 Y24.9303
G01 X24.5865 Y24.9256
G01 X24.5969 Y24.9219
G01 X24.6076 Y24.9192
G01 X24.6185 Y24.9176
G01 X24.6271 Y24.9171
G01 X24.7546 Y24.9171
G01 X24.7644 Y24.9175
G01 X24.7789 Y24.9198
G01 X24.7872 Y24.9219
G01 X24.7976 Y24.9256
G01 X24.8076 Y24.9303
G01 X24.8150 Y24.9347
G01 X24.8259 Y24.9426
G01 X24.8341 Y24.9500
G01 X24.8399 Y24.9563
G01 X24.8481 Y24.9671
G01 X24.8538 Y24.9765
G01 X24.8575 Y24.9843
G01 X24.8626 Y24.9981
G01 X24.8649 Y25.0076
G01 X24.8662 Y25.0161
G01 X24.8670 Y25.0283
G01 X24.8671 Y25.2827
G01 X24.8769 Y25.3030
G01 X24.8842 Y25.3238
G01 X24.8883 Y25.3405
G01 X24.8909 Y25.3575
G01 X24.8921 Y25.3783
G01 X24.8921 Y28.4842
G01 X25.1541 Y28.7459
G01 X25.1611 Y28.7409
G01 X25.1848 Y28.7267
G01 X25.2132 Y28.7135
G01 X25.2380 Y28.7047
G01 X25.2636 Y28.6982
G01 X25.2957 Y28.6934
G01 X25.3233 Y28.6921
G01 X25.8108 Y28.6921
G01 X25.8384 Y28.6934
G01 X25.8681 Y28.6977
G01 X25.8961 Y28.7047
G01 X25.9232 Y28.7144
G01 X25.9514 Y28.7280
G01 X25.9760 Y28.7430
G01 X25.9972 Y28.7587
G01 X26.0167 Y28.7764
G01 X26.0379 Y28.7995
G01 X26.0544 Y28.8216
G01 X26.0710 Y28.8495
G01 X26.0822 Y28.8734
G01 X26.0919 Y28.9005
G01 X26.0993 Y28.9309
G01 X26.1031 Y28.9570
G01 X26.1045 Y28.9834
G01 X26.1045 Y29.8995
G01 X26.1031 Y29.9271
G01 X26.0989 Y29.9556
G01 X26.0919 Y29.9836
G01 X26.0822 Y30.0107
G01 X26.0699 Y30.0368
G01 X26.0551 Y30.0615
G01 X26.0379 Y30.0847
G01 X26.0185 Y30.1060
G01 X25.9972 Y30.1254
G01 X25.9760 Y30.1411
G01 X25.9471 Y30.1585
G01 X25.9232 Y30.1697
G01 X25.8961 Y30.1794
G01 X25.8681 Y30.1864
G01 X25.8408 Y30.1905
G01 X25.8108 Y30.1921
G01 X25.3233 Y30.1921
G01 X25.2945 Y30.1906
G01 X25.2660 Y30.1864
G01 X25.2380 Y30.1794
G01 X25.2109 Y30.1697
G01 X25.1848 Y30.1574
G01 X25.1601 Y30.1426
G01 X25.1370 Y30.1254
G01 X25.1156 Y30.1060
G01 X25.0962 Y30.0847
G01 X25.0791 Y30.0615
G01 X25.0642 Y30.0368
G01 X25.0529 Y30.0130
G01 X25.0416 Y29.9812
G01 X25.0352 Y29.9556
G01 X25.0310 Y29.9271
G01 X25.0296 Y29.8983
G01 X25.0296 Y29.1875
G01 X24.5506 Y28.7085
G01 X24.5382 Y28.6949
G01 X24.5257 Y28.6782
G01 X24.5168 Y28.6635
G01 X24.5063 Y28.6413
G01 X24.5006 Y28.6251
G01 X24.4958 Y28.6061
G01 X24.4930 Y28.5867
G01 X24.4920 Y28.5671
G00 Z2.0000
G00 X20.8438 Y27.9546
G01 F60.00
G01 Z0.0000
G01 F120.00
G01 X20.8477 Y27.9285
G01 X20.8547 Y27.9005
G01 X20.8644 Y27.8734
G01 X20.8767 Y27.8473
G01 X20.8916 Y27.8226
G01 X20.9087 Y27.7995
G01 X20.9281 Y27.7781
G01 X20.9504 Y27.7580
G01 X20.9726 Y27.7416
G01 X20.9973 Y27.7267
G01 X21.0234 Y27.7144
G01 X21.0517 Y27.7044
G01 X21.0785 Y27.6977
G01 X21.1070 Y27.6935
G01 X21.1346 Y27.6921
G01 X21.1795 Y27.6921
G01 X21.1795 Y27.3408
G01 X21.1805 Y27.3225
G01 X21.1833 Y27.3030
G01 X21.1881 Y27.2840
G01 X21.1947 Y27.2655
G01 X21.2031 Y27.2477
G01 X21.2132 Y27.2309
G01 X21.2249 Y27.2151
G01 X21.2372 Y27.2015
G01 X21.4506 Y26.9881
G01 X21.4651 Y26.9749
G01 X21.4819 Y26.9625
G01 X21.4977 Y26.9531
G01 X21.5133 Y26.9457
G01 X21.5340 Y26.9381
G01 X21.5554 Y26.9329
G01 X21.5725 Y26.9305
G01 X21.5908 Y26.9295
G01 X22.4920 Y26.9295
G01 X22.4920 Y25.3783
G01 X22.4933 Y25.3575
G01 X22.4958 Y25.3405
G01 X22.4999 Y25.3238
G01 X22.5072 Y25.3030
G01 X22.5171 Y25.2827
G01 X22.5171 Y25.0296
G01 X22.5176 Y25.0185
G01 X22.5190 Y25.0088
G01 X22.5227 Y24.9946
G01 X22.5256 Y24.9865
G01 X22.5303 Y24.9765
G01 X22.5374 Y24.9651
G01 X22.5426 Y24.9582
G01 X22.5492 Y24.9509
G01 X22.5601 Y24.9411
G01 X22.5671 Y24.9360
G01 X22.5755 Y24.9309
G01 X22.5876 Y24.9252
G01 X22.5969 Y24.9219
G01 X22.6052 Y24.9198
G01 X22.6173 Y24.9177
G01 X22.6283 Y24.9171
G01 X22.7546 Y24.9171
G01 X22.7644 Y24.9175
G01 X22.7765 Y24.9192
G01 X22.7896 Y24.9227
G01 X22.7976 Y24.9256
G01 X22.8054 Y24.9292
G01 X22.8171 Y24.9360
G01 X22.8259 Y24.9426
G01 X22.8341 Y24.9500
G01 X22.8415 Y24.9582
G01 X22.8481 Y24.9671
G01 X22.8538 Y24.9765
G01 X22.8585 Y24.9865
G01 X22.8622 Y24.9969
G01 X22.8651 Y25.0088
G01 X22.8665 Y25.0185
G01 X22.8671 Y25.0296
G01 X22.8671 Y25.2827
G01 X22.8769 Y25.3030
G01 X22.8842 Y25.3238
G01 X22.8883 Y25.3405
G01 X22.8909 Y25.3575
G01 X22.8921 Y25.3783
G01 X22.8921 Y27.1308
G01 X22.8912 Y27.1492
G01 X22.8878 Y27.1710
G01 X22.8835 Y27.1876
G01 X22.8778 Y27.2038
G01 X22.8691 Y27.2228
G01 X22.8584 Y27.2407
G01 X22.8451 Y27.2583
G01 X22.8318 Y27.2727
G01 X22.8190 Y27.2842
G01 X22.8052 Y27.2945
G01 X22.7864 Y27.3060
G01 X22.7686 Y27.3144
G01 X22.7501 Y27.3210
G01 X22.7287 Y27.3262
G01 X22.7117 Y27.3287
G01 X22.6921 Y27.3296
G01 X21.6749 Y27.3296
G01 X21.5796 Y27.4249
G01 X21.5796 Y27.6921
G01 X21.6245 Y27.6921
G01 X21.6521 Y27.6935
G01 X21.6806 Y27.6977
G01 X21.7074 Y27.7044
G01 X21.7357 Y27.7144
G01 X21.7618 Y27.7267
G01 X21.7865 Y27.7416
G01 X21.8087 Y27.7580
G01 X21.8310 Y27.7781
G01 X21.8504 Y27.7995
G01 X21.8676 Y27.8226
G01 X21.8824 Y27.8473
G01 X21.8947 Y27.8734
G01 X21.9044 Y27.9005
G01 X21.9114 Y27.9285
G01 X21.9155 Y27.9558
G01 X21.9171 Y27.9858
G01 X21.9171 Y28.8983
G01 X21.9156 Y28.9271
G01 X21.9114 Y28.9556
G01 X21.9044 Y28.9836
G01 X21.8947 Y29.0107
G01 X21.8824 Y29.0368
G01 X21.8676 Y29.0615
G01 X21.8504 Y29.0847
G01 X21.8310 Y29.1060
G01 X21.8097 Y29.1254
G01 X21.7844 Y29.1439
G01 X21.7618 Y29.1574
G01 X21.7357 Y29.1697
G01 X21.7062 Y29.1801
G01 X21.6806 Y29.1864
G01 X21.6521 Y29.1906
G01 X21.6233 Y29.1921
G01 X21.1334 Y29.1920
G01 X21.1046 Y29.1903
G01 X21.0785 Y29.1864
G01 X21.0529 Y29.1801
G01 X21.0234 Y29.1697
G01 X20.9995 Y29.1585
G01 X20.9726 Y29.1426
G01 X20.9495 Y29.1254
G01 X20.9281 Y29.1060
G01 X20.9087 Y29.0847
G01 X20.8903 Y29.0594
G01 X20.8767 Y29.0368
G01 X20.8644 Y29.0107
G01 X20.8547 Y28.9836
G01 X20.8482 Y28.9580
G01 X20.8433 Y28.9247
G01 X20.8421 Y28.8983
G01 X20.8421 Y27.9858
G01 X20.8438 Y27.9546
G00 Z2.0000
G00 X18.9671 Y28.1380
G01 F60.00
G01 Z0.0000
G01 F120.00
G01 X18.6142 Y28.1380
G01 X18.5586 Y28.0824
G01 X18.5561 Y27.7501
G01 X18.5658 Y27.6523
G01 X18.5919 Y27.5660
G01 X18.6345 Y27.4864
G01 X18.6917 Y27.4167
G01 X18.7614 Y27.3595
G01 X18.8410 Y27.3169
G01 X18.9273 Y27.2908
G01 X19.0244 Y27.2812
G01 X19.1444 Y27.2830
G01 X19.2005 Y27.3392
G01 X19.2005 Y27.6984
G01 X19.1755 Y27.7047
G01 X19.1507 Y27.7135
G01 X19.1245 Y27.7256
G01 X19.0976 Y27.7416
G01 X19.0764 Y27.7572
G01 X19.0531 Y27.7781
G01 X19.0337 Y27.7995
G01 X19.0166 Y27.8226
G01 X19.0017 Y27.8473
G01 X18.9894 Y27.8734
G01 X18.9797 Y27.9005
G01 X18.9727 Y27.9285
G01 X18.9686 Y27.9558
G01 X18.9671 Y27.9858
G01 X18.9671 Y28.1380
G00 Z2.0000
G00 X18.8721 Y28.0430
G01 F60.00
G01 Z0.0000
G01 F120.00
G01 X18.6533 Y28.0428
G01 X18.6512 Y27.7544
G01 X18.6594 Y27.6709
G01 X18.6801 Y27.6025
G01 X18.7138 Y27.5395
G01 X18.7592 Y27.4842
G01 X18.8145 Y27.4388
G01 X18.8775 Y27.4051
G01 X18.9459 Y27.3844
G01 X19.0284 Y27.3763
G01 X19.1044 Y27.3774
G01 X19.1055 Y27.3785
G01 X19.1055 Y27.6296
G01 X19.0776 Y27.6430
G01 X19.0448 Y27.6626
G01 X19.0142 Y27.6853
G01 X18.9911 Y27.7060
G01 X18.9810 Y27.7161
G01 X18.9650 Y27.7338
G01 X18.9581 Y27.7420
G01 X18.9376 Y27.7698
G01 X18.9197 Y27.7994
G01 X18.9148 Y27.8089
G01 X18.9045 Y27.8305
G01 X18.8991 Y27.8437
G01 X18.8888 Y27.8730
G01 X18.8795 Y27.9100
G01 X18.8748 Y27.9406
G01 X18.8734 Y27.9548
G01 X18.8721 Y27.9823
G01 X18.8721 Y28.0430
G00 Z2.0000
G00 X19.3096 Y34.9805
G01 F60.00
G01 Z0.0000
G01 F120.00
G01 X19.0908 Y34.9803
G01 X19.0887 Y34.6919
G01 X19.0969 Y34.6084
G01 X19.1176 Y34.5400
G01 X19.1513 Y34.4770
G01 X19.1967 Y34.4217
G01 X19.2520 Y34.3763
G01 X19.3150 Y34.3426
G01 X19.3834 Y34.3219
G01 X19.4659 Y34.3138
G01 X19.5419 Y34.3149
G01 X19.5430 Y34.3160
G01 X19.5430 Y34.5671
G01 X19.5151 Y34.5805
G01 X19.4823 Y34.6001
G01 X19.4517 Y34.6228
G01 X19.4286 Y34.6435
G01 X19.4185 Y34.6536
G01 X19.4025 Y34.6713
G01 X19.3956 Y34.6795
G01 X19.3751 Y34.7073
G01 X19.3572 Y34.7369
G01 X19.3523 Y34.7464
G01 X19.3420 Y34.7680
G01 X19.3366 Y34.7812
G01 X19.3263 Y34.8105
G01 X19.3170 Y34.8475
G01 X19.3123 Y34.8781
G01 X19.3109 Y34.8923
G01 X19.3096 Y34.9198
G01 X19.3096 Y34.9805
G00 Z2.0000
G00 X19.4046 Y35.0755
G01 F60.00
G01 Z0.0000
G01 F120.00
G01 X19.0517 Y35.0755
G01 X18.9961 Y35.0199
G01 X18.9936 Y34.6876
G01 X19.0033 Y34.5898
G01 X19.0294 Y34.5035
G01 X19.0720 Y34.4239
G01 X19.1292 Y34.3542
G01 X19.1989 Y34.2970
G01 X19.2785 Y34.2544
G01 X19.3648 Y34.2283
G01 X19.4619 Y34.2187
G01 X19.5819 Y34.2205
G01 X19.6380 Y34.2767
G01 X19.6380 Y34.6359
G01 X19.6130 Y34.6422
G01 X19.5882 Y34.6510
G01 X19.5620 Y34.6631
G01 X19.5351 Y34.6791
G01 X19.5139 Y34.6947
G01 X19.4906 Y34.7156
G01 X19.4712 Y34.7370
G01 X19.4541 Y34.7601
G01 X19.4392 Y34.7848
G01 X19.4269 Y34.8109
G01 X19.4172 Y34.8380
G01 X19.4102 Y34.8660
G01 X19.4061 Y34.8933
G01 X19.4046 Y34.9233
G01 X19.4046 Y35.0755
G00 Z2.0000
G00 X19.4098 Y35.8907
G01 F60.00
G01 Z0.0000
G01 F120.00
G01 X19.4180 Y35.9234
G01 X19.4269 Y35.9482
G01 X19.4392 Y35.9743
G01 X19.4555 Y36.0010
G01 X19.4712 Y36.0222
G01 X19.4906 Y36.0435
G01 X19.5120 Y36.0629
G01 X19.5331 Y36.0786
G01 X19.5598 Y36.0949
G01 X19.5882 Y36.1081
G01 X19.6130 Y36.1169
G01 X19.6380 Y36.1232
G01 X19.6380 Y36.4825
G01 X19.5819 Y36.5386
G01 X19.4619 Y36.5404
G01 X19.3648 Y36.5309
G01 X19.2785 Y36.5047
G01 X19.1989 Y36.4622
G01 X19.1292 Y36.4049
G01 X19.0720 Y36.3352
G01 X19.0294 Y36.2557
G01 X19.0033 Y36.1693
G01 X18.9936 Y36.0715
G01 X18.9961 Y35.7392
G01 X19.0517 Y35.6836
G01 X19.4046 Y35.6836
G01 X19.4046 Y35.8370
G01 X19.4060 Y35.8646
G01 X19.4098 Y35.8907
G00 Z2.0000
G00 X19.3158 Y35.9046
G01 F60.00
G01 Z0.0000
G01 F120.00
G01 X19.3186 Y35.9186
G01 X19.3263 Y35.9487
G01 X19.3366 Y35.9779
G01 X19.3406 Y35.9879
G01 X19.3555 Y36.0191
G01 X19.3713 Y36.0458
G01 X19.3771 Y36.0547
G01 X19.3956 Y36.0797
G01 X19.4025 Y36.0878
G01 X19.4234 Y36.1107
G01 X19.4463 Y36.1317
G01 X19.4545 Y36.1385
G01 X19.4794 Y36.1570
G01 X19.4884 Y36.1629
G01 X19.5151 Y36.1787
G01 X19.5430 Y36.1921
G01 X19.5430 Y36.4431
G01 X19.5419 Y36.4442
G01 X19.4659 Y36.4454
G01 X19.3834 Y36.4372
G01 X19.3150 Y36.4165
G01 X19.2520 Y36.3828
G01 X19.1967 Y36.3374
G01 X19.1513 Y36.2822
G01 X19.1176 Y36.2191
G01 X19.0969 Y36.1507
G01 X19.0887 Y36.0672
G01 X19.0908 Y35.7788
G01 X19.3096 Y35.7786
G01 X19.3096 Y35.8394
G01 X19.3109 Y35.8668
G01 X19.3118 Y35.8775
G01 X19.3158 Y35.9046
G00 Z2.0000
G00 X21.2668 Y35.3796
G01 F60.00
G01 Z0.0000
G01 F120.00
G01 X21.2668 Y33.8671
G01 X21.2695 Y33.8131
G01 X21.2774 Y33.7597
G01 X21.2913 Y33.7050
G01 X21.3097 Y33.6542
G01 X21.3318 Y33.6077
G01 X21.3582 Y33.5634
G01 X21.3917 Y33.5180
G01 X21.4280 Y33.4780
G01 X21.4680 Y33.4417
G01 X21.5094 Y33.4110
G01 X21.5169 Y33.4061
G01 X21.5170 Y32.7658
G01 X21.5184 Y32.7376
G01 X21.5227 Y32.7085
G01 X21.5299 Y32.6799
G01 X21.5408 Y32.6500
G01 X21.5524 Y32.6256
G01 X21.5675 Y32.6003
G01 X21.5851 Y32.5767
G01 X21.6048 Y32.5548
G01 X23.3220 Y30.8377
G01 X23.3232 Y30.8311
G01 X23.3299 Y30.8049
G01 X23.3408 Y30.7750
G01 X23.3524 Y30.7506
G01 X23.3662 Y30.7274
G01 X23.3843 Y30.7026
G01 X23.4048 Y30.6798
G01 X23.4276 Y30.6593
G01 X23.4513 Y30.6418
G01 X23.4756 Y30.6274
G01 X23.4920 Y30.6195
G01 X23.4920 Y25.3796
G01 X23.4928 Y25.3624
G01 X23.4958 Y25.3405
G01 X23.5006 Y25.3215
G01 X23.5072 Y25.3030
G01 X23.5171 Y25.2827
G01 X23.5171 Y25.0296
G01 X23.5174 Y25.0210
G01 X23.5192 Y25.0076
G01 X23.5223 Y24.9957
G01 X23.5256 Y24.9865
G01 X23.5292 Y24.9787
G01 X23.5354 Y24.9681
G01 X23.5426 Y24.9582
G01 X23.5500 Y24.9500
G01 X23.5582 Y24.9426
G01 X23.5671 Y24.9360
G01 X23.5765 Y24.9303
G01 X23.5865 Y24.9256
G01 X23.5969 Y24.9219
G01 X23.6076 Y24.9192
G01 X23.6185 Y24.9176
G01 X23.6283 Y24.9171
G01 X23.7546 Y24.9171
G01 X23.7656 Y24.9176
G01 X23.7789 Y24.9198
G01 X23.7872 Y24.9219
G01 X23.7953 Y24.9247
G01 X23.8076 Y24.9303
G01 X23.8171 Y24.9360
G01 X23.8240 Y24.9411
G01 X23.8341 Y24.9500
G01 X23.8430 Y24.9601
G01 X23.8481 Y24.9671
G01 X23.8538 Y24.9765
G01 X23.8594 Y24.9888
G01 X23.8622 Y24.9969
G01 X23.8644 Y25.0052
G01 X23.8665 Y25.0185
G01 X23.8671 Y25.0296
G01 X23.8671 Y25.2827
G01 X23.8769 Y25.3030
G01 X23.8842 Y25.3238
G01 X23.8883 Y25.3405
G01 X23.8909 Y25.3575
G01 X23.8921 Y25.3783
G01 X23.8921 Y30.7724
G01 X23.8952 Y30.7795
G01 X23.9049 Y30.8073
G01 X23.9114 Y30.8335
G01 X23.9157 Y30.8626
G01 X23.9172 Y30.8908
G01 X23.9172 Y30.9671
G01 X23.9154 Y30.9989
G01 X23.9114 Y31.0256
G01 X23.9043 Y31.0542
G01 X23.8943 Y31.0819
G01 X23.8828 Y31.1064
G01 X23.8652 Y31.1358
G01 X23.8491 Y31.1575
G01 X23.8301 Y31.1784
G01 X22.1172 Y32.8914
G01 X22.1172 Y33.4061
G01 X22.1248 Y33.4110
G01 X22.1661 Y33.4417
G01 X22.2061 Y33.4780
G01 X22.2424 Y33.5180
G01 X22.2759 Y33.5634
G01 X22.3023 Y33.6077
G01 X22.3244 Y33.6542
G01 X22.3429 Y33.7050
G01 X22.3567 Y33.7597
G01 X22.3645 Y33.8119
G01 X22.3673 Y33.8671
G01 X22.3673 Y34.8293
G01 X22.9421 Y34.8293
G01 X22.9972 Y34.8321
G01 X23.0494 Y34.8399
G01 X23.0994 Y34.8524
G01 X23.1526 Y34.8712
G01 X23.2014 Y34.8943
G01 X23.2457 Y34.9207
G01 X23.2911 Y34.9542
G01 X23.3311 Y34.9905
G01 X26.3311 Y37.9905
G01 X26.3674 Y38.0305
G01 X26.3982 Y38.0719
G01 X26.4284 Y38.1224
G01 X26.4513 Y38.1713
G01 X26.4686 Y38.2198
G01 X26.4812 Y38.2698
G01 X26.4897 Y38.3256
G01 X26.4923 Y38.3783
G01 X26.4923 Y42.3921
G01 X27.4433 Y42.3921
G01 X27.4506 Y42.3928
G01 X27.4577 Y42.3946
G01 X27.4656 Y42.3980
G01 X27.4718 Y42.4019
G01 X27.4783 Y42.4076
G01 X27.4829 Y42.4133
G01 X27.4873 Y42.4207
G01 X27.4899 Y42.4275
G01 X27.4915 Y42.4347
G01 X27.4921 Y42.4421
G01 X27.4921 Y45.4421
G01 X27.4917 Y45.4482
G01 X27.4903 Y45.4554
G01 X27.4883 Y45.4612
G01 X27.4856 Y45.4667
G01 X27.4822 Y45.4718
G01 X27.4783 Y45.4765
G01 X27.4738 Y45.4807
G01 X27.4678 Y45.4849
G01 X27.4623 Y45.4878
G01 X27.4554 Y45.4903
G01 X27.4482 Y45.4917
G01 X27.4421 Y45.4921
G01 X24.4421 Y45.4921
G01 X24.4359 Y45.4917
G01 X24.4299 Y45.4906
G01 X24.4229 Y45.4883
G01 X24.4174 Y45.4856
G01 X24.4113 Y45.4815
G01 X24.4067 Y45.4774
G01 X24.4026 Y45.4728
G01 X24.3992 Y45.4678
G01 X24.3964 Y45.4623
G01 X24.3939 Y45.4554
G01 X24.3924 Y45.4482
G01 X24.3921 Y45.4421
G01 X24.3921 Y42.4421
G01 X24.3928 Y42.4335
G01 X24.3946 Y42.4264
G01 X24.3980 Y42.4185
G01 X24.4019 Y42.4123
G01 X24.4067 Y42.4067
G01 X24.4123 Y42.4019
G01 X24.4196 Y42.3974
G01 X24.4264 Y42.3946
G01 X24.4335 Y42.3928
G01 X24.4408 Y42.3921
G01 X25.3918 Y42.3921
G01 X25.3918 Y38.6075
G01 X22.7141 Y35.9298
G01 X22.3389 Y35.9298
G01 X22.3322 Y35.9482
G01 X22.3204 Y35.9732
G01 X22.3044 Y36.0000
G01 X22.2879 Y36.0222
G01 X22.2702 Y36.0417
G01 X22.2462 Y36.0637
G01 X22.2240 Y36.0801
G01 X22.2014 Y36.0937
G01 X22.1732 Y36.1072
G01 X22.1437 Y36.1176
G01 X22.1181 Y36.1239
G01 X22.0896 Y36.1281
G01 X22.0608 Y36.1296
G01 X21.5733 Y36.1296
G01 X21.5445 Y36.1281
G01 X21.5160 Y36.1239
G01 X21.4904 Y36.1176
G01 X21.4609 Y36.1072
G01 X21.4327 Y36.0937
G01 X21.4101 Y36.0801
G01 X21.3879 Y36.0637
G01 X21.3656 Y36.0435
G01 X21.3478 Y36.0240
G01 X21.3278 Y35.9969
G01 X21.3142 Y35.9743
G01 X21.3019 Y35.9482
G01 X21.2922 Y35.9211
G01 X21.2850 Y35.8919
G01 X21.2810 Y35.8646
G01 X21.2796 Y35.8370
G01 X21.2796 Y35.4959
G01 X21.2772 Y35.4857
G01 X21.2695 Y35.4335
G01 X21.2668 Y35.3796
G00 Z2.0000
G00 X23.9920 Y33.0671
G01 F60.00
G01 Z0.0000
G01 F120.00
G01 X23.9920 Y25.3783
G01 X23.9933 Y25.3575
G01 X23.9958 Y25.3405
G01 X23.9999 Y25.3238
G01 X24.0072 Y25.3030
G01 X24.0171 Y25.2827
G01 X24.0171 Y25.0271
G01 X24.0176 Y25.0185
G01 X24.0188 Y25.0100
G01 X24.0216 Y24.9981
G01 X24.0256 Y24.9865
G01 X24.0309 Y24.9755
G01 X24.0360 Y24.9671
G01 X24.0426 Y24.9582
G01 X24.0500 Y24.9500
G01 X24.0592 Y24.9418
G01 X24.0671 Y24.9360
G01 X24.0776 Y24.9298
G01 X24.0876 Y24.9252
G01 X24.0993 Y24.9213
G01 X24.1076 Y24.9192
G01 X24.1161 Y24.9179
G01 X24.1283 Y24.9171
G01 X24.2558 Y24.9171
G01 X24.2656 Y24.9176
G01 X24.2753 Y24.9190
G01 X24.2896 Y24.9227
G01 X24.2976 Y24.9256
G01 X24.3076 Y24.9303
G01 X24.3171 Y24.9360
G01 X24.3240 Y24.9411
G01 X24.3358 Y24.9518
G01 X24.3415 Y24.9582
G01 X24.3481 Y24.9671
G01 X24.3549 Y24.9787
G01 X24.3585 Y24.9865
G01 X24.3622 Y24.9969
G01 X24.3653 Y25.0100
G01 X24.3665 Y25.0185
G01 X24.3670 Y25.0283
G01 X24.3671 Y25.2827
G01 X24.3769 Y25.3030
G01 X24.3842 Y25.3238
G01 X24.3883 Y25.3405
G01 X24.3909 Y25.3575
G01 X24.3921 Y25.3783
G01 X24.3921 Y32.9842
G01 X25.1541 Y33.7459
G01 X25.1611 Y33.7409
G01 X25.1848 Y33.7267
G01 X25.2132 Y33.7135
G01 X25.2380 Y33.7047
G01 X25.2636 Y33.6982
G01 X25.2957 Y33.6934
G01 X25.3233 Y33.6921
G01 X25.8108 Y33.6921
G01 X25.8384 Y33.6934
G01 X25.8681 Y33.6977
G01 X25.8961 Y33.7047
G01 X25.9232 Y33.7144
G01 X25.9493 Y33.7267
G01 X25.9740 Y33.7416
G01 X25.9972 Y33.7587
G01 X26.0185 Y33.7781
G01 X26.0387 Y33.8004
G01 X26.0551 Y33.8226
G01 X26.0687 Y33.8452
G01 X26.0822 Y33.8734
G01 X26.0919 Y33.9005
G01 X26.0984 Y33.9261
G01 X26.1033 Y33.9595
G01 X26.1046 Y33.9858
G01 X26.1045 Y34.8995
G01 X26.1031 Y34.9271
G01 X26.0989 Y34.9556
G01 X26.0919 Y34.9836
G01 X26.0822 Y35.0107
G01 X26.0699 Y35.0368
G01 X26.0551 Y35.0615
G01 X26.0379 Y35.0847
G01 X26.0185 Y35.1060
G01 X25.9972 Y35.1254
G01 X25.9760 Y35.1411
G01 X25.9471 Y35.1585
G01 X25.9232 Y35.1697
G01 X25.8961 Y35.1794
G01 X25.8681 Y35.1864
G01 X25.8408 Y35.1905
G01 X25.8108 Y35.1921
G01 X25.3233 Y35.1921
G01 X25.2945 Y35.1906
G01 X25.2660 Y35.1864
G01 X25.2380 Y35.1794
G01 X25.2109 Y35.1697
G01 X25.1848 Y35.1574
G01 X25.1601 Y35.1426
G01 X25.1370 Y35.1254
G01 X25.1156 Y35.1060
G01 X25.0962 Y35.0847
G01 X25.0791 Y35.0615
G01 X25.0642 Y35.0368
G01 X25.0529 Y35.0130
G01 X25.0416 Y34.9812
G01 X25.0352 Y34.9556
G01 X25.0310 Y34.9271
G01 X25.0296 Y34.8983
G01 X25.0296 Y34.1875
G01 X24.0489 Y33.2068
G01 X24.0374 Y33.1940
G01 X24.0257 Y33.1782
G01 X24.0156 Y33.1614
G01 X24.0072 Y33.1436
G01 X24.0006 Y33.1251
G01 X23.9958 Y33.1061
G01 X23.9930 Y33.0867
G01 X23.9920 Y33.0671
G00 Z2.0000
G00 X27.7461 Y33.6984
G01 F60.00
G01 Z0.0000
G01 F120.00
G01 X27.7461 Y33.3392
G01 X27.8023 Y33.2830
G01 X27.9222 Y33.2812
G01 X28.0193 Y33.2908
G01 X28.1057 Y33.3169
G01 X28.1852 Y33.3595
G01 X28.2549 Y33.4167
G01 X28.3122 Y33.4864
G01 X28.3547 Y33.5660
G01 X28.3809 Y33.6523
G01 X28.3905 Y33.7501
G01 X28.3880 Y34.0824
G01 X28.3325 Y34.1380
G01 X27.9796 Y34.1380
G01 X27.9796 Y33.9858
G01 X27.9780 Y33.9558
G01 X27.9739 Y33.9285
G01 X27.9669 Y33.9005
G01 X27.9572 Y33.8734
G01 X27.9449 Y33.8473
G01 X27.9301 Y33.8226
G01 X27.9129 Y33.7995
G01 X27.8935 Y33.7781
G01 X27.8702 Y33.7572
G01 X27.8490 Y33.7416
G01 X27.8221 Y33.7256
G01 X27.7959 Y33.7135
G01 X27.7711 Y33.7047
G01 X27.7461 Y33.6984
G00 Z2.0000
G00 X27.8411 Y33.6296
G01 F60.00
G01 Z0.0000
G01 F120.00
G01 X27.8411 Y33.3785
G01 X27.8422 Y33.3774
G01 X27.9183 Y33.3763
G01 X28.0007 Y33.3844
G01 X28.0691 Y33.4051
G01 X28.1322 Y33.4388
G01 X28.1874 Y33.4842
G01 X28.2328 Y33.5395
G01 X28.2665 Y33.6025
G01 X28.2872 Y33.6709
G01 X28.2955 Y33.7544
G01 X28.2933 Y34.0428
G01 X28.0746 Y34.0430
G01 X28.0745 Y33.9823
G01 X28.0732 Y33.9548
G01 X28.0718 Y33.9406
G01 X28.0671 Y33.9100
G01 X28.0578 Y33.8730
G01 X28.0475 Y33.8437
G01 X28.0421 Y33.8305
G01 X28.0319 Y33.8089
G01 X28.0269 Y33.7994
G01 X28.0090 Y33.7698
G01 X27.9885 Y33.7420
G01 X27.9817 Y33.7338
G01 X27.9656 Y33.7161
G01 X27.9555 Y33.7060
G01 X27.9324 Y33.6853
G01 X27.9018 Y33.6626
G01 X27.8691 Y33.6430
G01 X27.8411 Y33.6296
G00 Z2.0000
G00 X27.7461 Y35.1857
G01 F60.00
G01 Z0.0000
G01 F120.00
G01 X27.7711 Y35.1794
G01 X27.7959 Y35.1706
G01 X27.8221 Y35.1585
G01 X27.8490 Y35.1426
G01 X27.8702 Y35.1269
G01 X27.8935 Y35.1060
G01 X27.9129 Y35.0847
G01 X27.9301 Y35.0615
G01 X27.9449 Y35.0368
G01 X27.9572 Y35.0107
G01 X27.9669 Y34.9836
G01 X27.9739 Y34.9556
G01 X27.9780 Y34.9283
G01 X27.9796 Y34.8983
G01 X27.9796 Y34.7461
G01 X28.3325 Y34.7461
G01 X28.3880 Y34.8017
G01 X28.3905 Y35.1340
G01 X28.3809 Y35.2318
G01 X28.3547 Y35.3182
G01 X28.3122 Y35.3977
G01 X28.2549 Y35.4674
G01 X28.1852 Y35.5247
G01 X28.1057 Y35.5672
G01 X28.0193 Y35.5934
G01 X27.9222 Y35.6029
G01 X27.8023 Y35.6011
G01 X27.7461 Y35.5450
G01 X27.7461 Y35.1857
G00 Z2.0000
G00 X27.8411 Y35.2546
G01 F60.00
G01 Z0.0000
G01 F120.00
G01 X27.8691 Y35.2412
G01 X27.9018 Y35.2215
G01 X27.9324 Y35.1988
G01 X27.9555 Y35.1781
G01 X27.9656 Y35.1680
G01 X27.9817 Y35.1503
G01 X27.9885 Y35.1422
G01 X28.0090 Y35.1143
G01 X28.0269 Y35.0847
G01 X28.0319 Y35.0752
G01 X28.0421 Y35.0536
G01 X28.0475 Y35.0404
G01 X28.0578 Y35.0112
G01 X28.0671 Y34.9742
G01 X28.0718 Y34.9435
G01 X28.0732 Y34.9293
G01 X28.0745 Y34.9019
G01 X28.0746 Y34.8411
G01 X28.2933 Y34.8413
G01 X28.2955 Y35.1297
G01 X28.2872 Y35.2132
G01 X28.2665 Y35.2816
G01 X28.2328 Y35.3447
G01 X28.1874 Y35.3999
G01 X28.1322 Y35.4453
G01 X28.0691 Y35.4790
G01 X28.0007 Y35.4997
G01 X27.9183 Y35.5079
G01 X27.8422 Y35.5067
G01 X27.8411 Y35.5056
G01 X27.8411 Y35.2546
G00 Z2.0000
G00 X32.8783 Y32.9671
G01 F60.00
G01 Z0.0000
G01 F120.00
G01 X32.8811 Y32.9811
G01 X32.8888 Y33.0112
G01 X32.8991 Y33.0404
G01 X32.9031 Y33.0504
G01 X32.9180 Y33.0816
G01 X32.9338 Y33.1083
G01 X32.9396 Y33.1172
G01 X32.9581 Y33.1422
G01 X32.9650 Y33.1503
G01 X32.9859 Y33.1732
G01 X33.0088 Y33.1942
G01 X33.0170 Y33.2010
G01 X33.0419 Y33.2195
G01 X33.0509 Y33.2254
G01 X33.0776 Y33.2412
G01 X33.1055 Y33.2546
G01 X33.1055 Y33.5056
G01 X33.1044 Y33.5067
G01 X33.0284 Y33.5079
G01 X32.9459 Y33.4997
G01 X32.8775 Y33.4790
G01 X32.8145 Y33.4453
G01 X32.7592 Y33.3999
G01 X32.7138 Y33.3447
G01 X32.6801 Y33.2816
G01 X32.6594 Y33.2132
G01 X32.6512 Y33.1297
G01 X32.6533 Y32.8413
G01 X32.8721 Y32.8411
G01 X32.8721 Y32.9019
G01 X32.8734 Y32.9293
G01 X32.8743 Y32.9400
G01 X32.8783 Y32.9671
G00 Z2.0000
G00 X32.9723 Y32.9532
G01 F60.00
G01 Z0.0000
G01 F120.00
G01 X32.9805 Y32.9859
G01 X32.9894 Y33.0107
G01 X33.0017 Y33.0368
G01 X33.0180 Y33.0635
G01 X33.0337 Y33.0847
G01 X33.0531 Y33.1060
G01 X33.0745 Y33.1254
G01 X33.0956 Y33.1411
G01 X33.1223 Y33.1574
G01 X33.1507 Y33.1706
G01 X33.1755 Y33.1794
G01 X33.2005 Y33.1857
G01 X33.2005 Y33.5450
G01 X33.1444 Y33.6011
G01 X33.0244 Y33.6029
G01 X32.9273 Y33.5934
G01 X32.8410 Y33.5672
G01 X32.7614 Y33.5247
G01 X32.6917 Y33.4674
G01 X32.6345 Y33.3977
G01 X32.5919 Y33.3182
G01 X32.5658 Y33.2318
G01 X32.5561 Y33.1340
G01 X32.5586 Y32.8017
G01 X32.6142 Y32.7461
G01 X32.9671 Y32.7461
G01 X32.9671 Y32.8995
G01 X32.9685 Y32.9271
G01 X32.9723 Y32.9532
G00 Z2.0000
G00 X32.9671 Y32.1380
G01 F60.00
G01 Z0.0000
G01 F120.00
G01 X32.6142 Y32.1380
G01 X32.5586 Y32.0824
G01 X32.5561 Y31.7501
G01 X32.5658 Y31.6523
G01 X32.5919 Y31.5660
G01 X32.6345 Y31.4864
G01 X32.6917 Y31.4167
G01 X32.7614 Y31.3595
G01 X32.8410 Y31.3169
G01 X32.9273 Y31.2908
G01 X33.0244 Y31.2812
G01 X33.1444 Y31.2830
G01 X33.2005 Y31.3392
G01 X33.2005 Y31.6984
G01 X33.1755 Y31.7047
G01 X33.1507 Y31.7135
G01 X33.1245 Y31.7256
G01 X33.0976 Y31.7416
G01 X33.0764 Y31.7572
G01 X33.0531 Y31.7781
G01 X33.0337 Y31.7995
G01 X33.0166 Y31.8226
G01 X33.0017 Y31.8473
G01 X32.9894 Y31.8734
G01 X32.9797 Y31.9005
G01 X32.9727 Y31.9285
G01 X32.9686 Y31.9558
G01 X32.9671 Y31.9858
G01 X32.9671 Y32.1380
G00 Z2.0000
G00 X32.8721 Y32.0430
G01 F60.00
G01 Z0.0000
G01 F120.00
G01 X32.6533 Y32.0428
G01 X32.6512 Y31.7544
G01 X32.6594 Y31.6709
G01 X32.6801 Y31.6025
G01 X32.7138 Y31.5395
G01 X32.7592 Y31.4842
G01 X32.8145 Y31.4388
G01 X32.8775 Y31.4051
G01 X32.9459 Y31.3844
G01 X33.0284 Y31.3763
G01 X33.1044 Y31.3774
G01 X33.1055 Y31.3785
G01 X33.1055 Y31.6296
G01 X33.0776 Y31.6430
G01 X33.0448 Y31.6626
G01 X33.0142 Y31.6853
G01 X32.9911 Y31.7060
G01 X32.9810 Y31.7161
G01 X32.9650 Y31.7338
G01 X32.9581 Y31.7420
G01 X32.9376 Y31.7698
G01 X32.9197 Y31.7994
G01 X32.9148 Y31.8089
G01 X32.9045 Y31.8305
G01 X32.8991 Y31.8437
G01 X32.8888 Y31.8730
G01 X32.8795 Y31.9100
G01 X32.8748 Y31.9406
G01 X32.8734 Y31.9548
G01 X32.8721 Y31.9823
G01 X32.8721 Y32.0430
G00 Z2.0000
G00 X42.8059 Y39.2738
G01 F60.00
G01 Z0.0000
G01 F120.00
G01 X42.8045 Y39.2879
G01 X42.7972 Y39.4349
G01 X42.7972 Y39.4492
G01 X42.8050 Y39.6033
G01 X42.8275 Y39.7560
G01 X42.8294 Y39.7665
G01 X42.8679 Y39.9196
G01 X42.9210 Y40.0683
G01 X42.9252 Y40.0781
G01 X42.9897 Y40.2144
G01 X42.9948 Y40.2237
G01 X43.0328 Y40.2870
G01 X42.8960 Y40.4237
G01 X42.8363 Y40.3942
G01 X42.6987 Y40.1238
G01 X42.5992 Y39.7705
G01 X42.5705 Y39.4047
G01 X42.6137 Y39.0403
G01 X42.7281 Y38.6887
G01 X42.8337 Y38.4912
G01 X42.8960 Y38.4604
G01 X43.0328 Y38.5971
G01 X42.9948 Y38.6604
G01 X42.9897 Y38.6698
G01 X42.9237 Y38.8093
G01 X42.9197 Y38.8192
G01 X42.8690 Y38.9612
G01 X42.8660 Y38.9714
G01 X42.8287 Y39.1211
G01 X42.8059 Y39.2738
G00 Z2.0000
G00 X42.8998 Y39.2877
G01 F60.00
G01 Z0.0000
G01 F120.00
G01 X42.8921 Y39.4445
G01 X42.8995 Y39.5940
G01 X42.9224 Y39.7468
G01 X42.9588 Y39.8920
G01 X43.0101 Y40.0352
G01 X43.0751 Y40.1727
G01 X43.1524 Y40.3018
G01 X42.9150 Y40.5391
G01 X42.7660 Y40.4654
G01 X42.6097 Y40.1585
G01 X42.5052 Y39.7873
G01 X42.4750 Y39.4028
G01 X42.5205 Y39.0198
G01 X42.6404 Y38.6513
G01 X42.7642 Y38.4196
G01 X42.9150 Y38.3450
G01 X43.1524 Y38.5824
G01 X43.0751 Y38.7114
G01 X43.0092 Y38.8512
G01 X42.9588 Y38.9921
G01 X42.9224 Y39.1373
G01 X42.8998 Y39.2877
G00 Z2.0000
G00 X43.5824 Y40.7318
G01 F60.00
G01 Z0.0000
G01 F120.00
G01 X43.7114 Y40.8090
G01 X43.8467 Y40.8731
G01 X43.9921 Y40.9253
G01 X44.1421 Y40.9627
G01 X44.2901 Y40.9846
G01 X44.4421 Y40.9921
G01 X44.5940 Y40.9846
G01 X44.7420 Y40.9627
G01 X44.8920 Y40.9253
G01 X45.0375 Y40.8731
G01 X45.1727 Y40.8090
G01 X45.3018 Y40.7318
G01 X45.5391 Y40.9691
G01 X45.4654 Y41.1181
G01 X45.1585 Y41.2744
G01 X44.7873 Y41.3789
G01 X44.4028 Y41.4091
G01 X44.0198 Y41.3636
G01 X43.6513 Y41.2438
G01 X43.4196 Y41.1199
G01 X43.3450 Y40.9691
G01 X43.5824 Y40.7318
G00 Z2.0000
G00 X43.5971 Y40.8514
G01 F60.00
G01 Z0.0000
G01 F120.00
G01 X43.6604 Y40.8893
G01 X43.6698 Y40.8945
G01 X43.8093 Y40.9604
G01 X43.8192 Y40.9644
G01 X43.9612 Y41.0152
G01 X43.9714 Y41.0181
G01 X44.1211 Y41.0555
G01 X44.2738 Y41.0783
G01 X44.2844 Y41.0794
G01 X44.4421 Y41.0871
G01 X44.5962 Y41.0797
G01 X44.6104 Y41.0783
G01 X44.7560 Y41.0567
G01 X44.7665 Y41.0547
G01 X44.9196 Y41.0162
G01 X45.0683 Y40.9632
G01 X45.0781 Y40.9590
G01 X45.2144 Y40.8945
G01 X45.2237 Y40.8893
G01 X45.2870 Y40.8514
G01 X45.4237 Y40.9881
G01 X45.3942 Y41.0478
G01 X45.1238 Y41.1855
G01 X44.7705 Y41.2850
G01 X44.4047 Y41.3136
G01 X44.0403 Y41.2704
G01 X43.6887 Y41.1560
G01 X43.4912 Y41.0505
G01 X43.4604 Y40.9881
G01 X43.5971 Y40.8514
G00 Z2.0000
G00 X45.7318 Y40.3018
G01 F60.00
G01 Z0.0000
G01 F120.00
G01 X45.8090 Y40.1727
G01 X45.8731 Y40.0375
G01 X45.9253 Y39.8920
G01 X45.9627 Y39.7420
G01 X45.9846 Y39.5940
G01 X45.9921 Y39.4421
G01 X45.9846 Y39.2901
G01 X45.9627 Y39.1421
G01 X45.9253 Y38.9921
G01 X45.8731 Y38.8467
G01 X45.8090 Y38.7114
G01 X45.7318 Y38.5824
G01 X45.9691 Y38.3450
G01 X46.1181 Y38.4187
G01 X46.2744 Y38.7256
G01 X46.3789 Y39.0968
G01 X46.4091 Y39.4813
G01 X46.3636 Y39.8643
G01 X46.2438 Y40.2328
G01 X46.1199 Y40.4645
G01 X45.9691 Y40.5391
G01 X45.7318 Y40.3018
G00 Z2.0000
G00 X45.8514 Y40.2870
G01 F60.00
G01 Z0.0000
G01 F120.00
G01 X45.8893 Y40.2237
G01 X45.8945 Y40.2144
G01 X45.9604 Y40.0748
G01 X45.9644 Y40.0649
G01 X46.0152 Y39.9230
G01 X46.0181 Y39.9127
G01 X46.0555 Y39.7630
G01 X46.0783 Y39.6104
G01 X46.0794 Y39.5998
G01 X46.0871 Y39.4421
G01 X46.0797 Y39.2879
G01 X46.0783 Y39.2738
G01 X46.0567 Y39.1282
G01 X46.0547 Y39.1177
G01 X46.0162 Y38.9645
G01 X45.9632 Y38.8159
G01 X45.9590 Y38.8060
G01 X45.8945 Y38.6698
G01 X45.8893 Y38.6604
G01 X45.8514 Y38.5971
G01 X45.9881 Y38.4604
G01 X46.0478 Y38.4899
G01 X46.1855 Y38.7604
G01 X46.2850 Y39.1136
G01 X46.3136 Y39.4794
G01 X46.2704 Y39.8438
G01 X46.1560 Y40.1954
G01 X46.0505 Y40.3929
G01 X45.9881 Y40.4237
G01 X45.8514 Y40.2870
G00 Z2.0000
G00 X21.2171 Y42.5328
G01 F60.00
G01 Z0.0000
G01 F120.00
G01 X21.0804 Y42.3960
G01 X21.1099 Y42.3363
G01 X21.3804 Y42.1987
G01 X21.7336 Y42.0992
G01 X22.0994 Y42.0705
G01 X22.4638 Y42.1137
G01 X22.8154 Y42.2281
G01 X23.0129 Y42.3337
G01 X23.0437 Y42.3960
G01 X22.9070 Y42.5328
G01 X22.8437 Y42.4948
G01 X22.8344 Y42.4897
G01 X22.6981 Y42.4252
G01 X22.6883 Y42.4210
G01 X22.5396 Y42.3679
G01 X22.3865 Y42.3294
G01 X22.3760 Y42.3275
G01 X22.2304 Y42.3059
G01 X22.2162 Y42.3045
G01 X22.0621 Y42.2971
G01 X21.9044 Y42.3047
G01 X21.8938 Y42.3059
G01 X21.7411 Y42.3287
G01 X21.5914 Y42.3660
G01 X21.5812 Y42.3690
G01 X21.4392 Y42.4197
G01 X21.4293 Y42.4237
G01 X21.2898 Y42.4897
G01 X21.2804 Y42.4948
G01 X21.2171 Y42.5328
G00 Z2.0000
G00 X21.2024 Y42.6524
G01 F60.00
G01 Z0.0000
G01 F120.00
G01 X20.9650 Y42.4150
G01 X21.0387 Y42.2660
G01 X21.3456 Y42.1097
G01 X21.7168 Y42.0052
G01 X22.1013 Y41.9750
G01 X22.4843 Y42.0205
G01 X22.8528 Y42.1404
G01 X23.0845 Y42.2642
G01 X23.1591 Y42.4150
G01 X22.9218 Y42.6524
G01 X22.7927 Y42.5751
G01 X22.6575 Y42.5110
G01 X22.5120 Y42.4588
G01 X22.3620 Y42.4214
G01 X22.2140 Y42.3995
G01 X22.0621 Y42.3921
G01 X21.9101 Y42.3995
G01 X21.7621 Y42.4214
G01 X21.6121 Y42.4588
G01 X21.4667 Y42.5110
G01 X21.3314 Y42.5751
G01 X21.2024 Y42.6524
G00 Z2.0000
G00 X20.5198 Y43.7877
G01 F60.00
G01 Z0.0000
G01 F120.00
G01 X20.5121 Y43.9445
G01 X20.5195 Y44.0940
G01 X20.5424 Y44.2468
G01 X20.5788 Y44.3920
G01 X20.6301 Y44.5352
G01 X20.6951 Y44.6727
G01 X20.7724 Y44.8018
G01 X20.5350 Y45.0391
G01 X20.3860 Y44.9654
G01 X20.2297 Y44.6585
G01 X20.1252 Y44.2873
G01 X20.0950 Y43.9028
G01 X20.1405 Y43.5198
G01 X20.2604 Y43.1513
G01 X20.3842 Y42.9196
G01 X20.5350 Y42.8450
G01 X20.7724 Y43.0824
G01 X20.6951 Y43.2114
G01 X20.6292 Y43.3512
G01 X20.5788 Y43.4921
G01 X20.5424 Y43.6373
G01 X20.5198 Y43.7877
G00 Z2.0000
G00 X20.4259 Y43.7738
G01 F60.00
G01 Z0.0000
G01 F120.00
G01 X20.4245 Y43.7879
G01 X20.4172 Y43.9349
G01 X20.4172 Y43.9492
G01 X20.4250 Y44.1033
G01 X20.4475 Y44.2560
G01 X20.4494 Y44.2665
G01 X20.4879 Y44.4196
G01 X20.5410 Y44.5683
G01 X20.5452 Y44.5781
G01 X20.6097 Y44.7144
G01 X20.6148 Y44.7237
G01 X20.6528 Y44.7870
G01 X20.5160 Y44.9237
G01 X20.4563 Y44.8942
G01 X20.3187 Y44.6238
G01 X20.2192 Y44.2705
G01 X20.1905 Y43.9047
G01 X20.2337 Y43.5403
G01 X20.3481 Y43.1887
G01 X20.4537 Y42.9912
G01 X20.5160 Y42.9604
G01 X20.6528 Y43.0971
G01 X20.6148 Y43.1604
G01 X20.6097 Y43.1698
G01 X20.5437 Y43.3093
G01 X20.5397 Y43.3192
G01 X20.4890 Y43.4612
G01 X20.4860 Y43.4714
G01 X20.4487 Y43.6211
G01 X20.4259 Y43.7738
G00 Z2.0000
G00 X21.2024 Y45.2318
G01 F60.00
G01 Z0.0000
G01 F120.00
G01 X21.3314 Y45.3090
G01 X21.4667 Y45.3731
G01 X21.6121 Y45.4253
G01 X21.7621 Y45.4627
G01 X21.9101 Y45.4846
G01 X22.0621 Y45.4921
G01 X22.2140 Y45.4846
G01 X22.3620 Y45.4627
G01 X22.5120 Y45.4253
G01 X22.6575 Y45.3731
G01 X22.7927 Y45.3090
G01 X22.9218 Y45.2318
G01 X23.1591 Y45.4691
G01 X23.0854 Y45.6181
G01 X22.7785 Y45.7744
G01 X22.4073 Y45.8789
G01 X22.0228 Y45.9091
G01 X21.6398 Y45.8636
G01 X21.2713 Y45.7438
G01 X21.0396 Y45.6199
G01 X20.9650 Y45.4691
G01 X21.2024 Y45.2318
G00 Z2.0000
G00 X21.2171 Y45.3514
G01 F60.00
G01 Z0.0000
G01 F120.00
G01 X21.2804 Y45.3893
G01 X21.2898 Y45.3945
G01 X21.4293 Y45.4604
G01 X21.4392 Y45.4644
G01 X21.5812 Y45.5152
G01 X21.5914 Y45.5181
G01 X21.7411 Y45.5555
G01 X21.8938 Y45.5783
G01 X21.9044 Y45.5794
G01 X22.0621 Y45.5871
G01 X22.2162 Y45.5797
G01 X22.2304 Y45.5783
G01 X22.3760 Y45.5567
G01 X22.3865 Y45.5547
G01 X22.5396 Y45.5162
G01 X22.6883 Y45.4632
G01 X22.6981 Y45.4590
G01 X22.8344 Y45.3945
G01 X22.8437 Y45.3893
G01 X22.9070 Y45.3514
G01 X23.0437 Y45.4881
G01 X23.0142 Y45.5478
G01 X22.7438 Y45.6855
G01 X22.3905 Y45.7850
G01 X22.0247 Y45.8136
G01 X21.6603 Y45.7704
G01 X21.3087 Y45.6560
G01 X21.1112 Y45.5505
G01 X21.0804 Y45.4881
G01 X21.2171 Y45.3514
G00 Z2.0000
G00 X11.4421 Y42.3921
G01 F60.00
G01 Z0.0000
G01 F120.00
G01 X13.7139 Y42.3921
G01 X14.3293 Y41.7766
G01 X14.3293 Y35.4408
G01 X14.3320 Y35.3881
G01 X14.3397 Y35.3359
G01 X14.3421 Y35.3258
G01 X14.3421 Y34.9858
G01 X14.3438 Y34.9546
G01 X14.3477 Y34.9285
G01 X14.3541 Y34.9029
G01 X14.3654 Y34.8712
G01 X14.3767 Y34.8473
G01 X14.3916 Y34.8226
G01 X14.4087 Y34.7995
G01 X14.4264 Y34.7799
G01 X14.4495 Y34.7587
G01 X14.4726 Y34.7416
G01 X14.4973 Y34.7267
G01 X14.5234 Y34.7144
G01 X14.5505 Y34.7047
G01 X14.5785 Y34.6977
G01 X14.6070 Y34.6935
G01 X14.6334 Y34.6921
G01 X15.1233 Y34.6921
G01 X15.1509 Y34.6934
G01 X15.1830 Y34.6982
G01 X15.2086 Y34.7047
G01 X15.2334 Y34.7135
G01 X15.2618 Y34.7267
G01 X15.2882 Y34.7428
G01 X20.2280 Y29.8030
G01 X20.2699 Y29.7652
G01 X20.3114 Y29.7345
G01 X20.3566 Y29.7074
G01 X20.4065 Y29.6837
G01 X20.4573 Y29.6655
G01 X20.5097 Y29.6524
G01 X20.5644 Y29.6444
G01 X20.6171 Y29.6418
G01 X21.2921 Y29.6418
G01 X21.3448 Y29.6444
G01 X21.3994 Y29.6524
G01 X21.4541 Y29.6663
G01 X21.5049 Y29.6847
G01 X21.5514 Y29.7068
G01 X21.5957 Y29.7332
G01 X21.6411 Y29.7667
G01 X21.6811 Y29.8030
G01 X21.7174 Y29.8430
G01 X21.7482 Y29.8844
G01 X21.7530 Y29.8919
G01 X22.9920 Y29.8919
G01 X22.9920 Y25.3796
G01 X22.9928 Y25.3612
G01 X22.9958 Y25.3405
G01 X23.0006 Y25.3215
G01 X23.0072 Y25.3030
G01 X23.0171 Y25.2827
G01 X23.0171 Y25.0296
G01 X23.0177 Y25.0173
G01 X23.0192 Y25.0076
G01 X23.0213 Y24.9993
G01 X23.0256 Y24.9865
G01 X23.0316 Y24.9744
G01 X23.0360 Y24.9671
G01 X23.0418 Y24.9592
G01 X23.0500 Y24.9500
G01 X23.0582 Y24.9426
G01 X23.0671 Y24.9360
G01 X23.0765 Y24.9303
G01 X23.0865 Y24.9256
G01 X23.0969 Y24.9219
G01 X23.1076 Y24.9192
G01 X23.1198 Y24.9175
G01 X23.1296 Y24.9171
G01 X23.2546 Y24.9171
G01 X23.2656 Y24.9176
G01 X23.2777 Y24.9195
G01 X23.2896 Y24.9227
G01 X23.2976 Y24.9256
G01 X23.3054 Y24.9292
G01 X23.3171 Y24.9360
G01 X23.3259 Y24.9426
G01 X23.3341 Y24.9500
G01 X23.3415 Y24.9582
G01 X23.3481 Y24.9671
G01 X23.3538 Y24.9765
G01 X23.3585 Y24.9865
G01 X23.3622 Y24.9969
G01 X23.3651 Y25.0088
G01 X23.3665 Y25.0185
G01 X23.3671 Y25.0296
G01 X23.3671 Y25.2827
G01 X23.3769 Y25.3030
G01 X23.3842 Y25.3238
G01 X23.3883 Y25.3405
G01 X23.3909 Y25.3575
G01 X23.3921 Y25.3796
G01 X23.3921 Y30.0724
G01 X23.3948 Y30.0784
G01 X23.4043 Y30.1049
G01 X23.4114 Y30.1335
G01 X23.4157 Y30.1626
G01 X23.4172 Y30.1921
G01 X23.4157 Y30.2215
G01 X23.4118 Y30.2482
G01 X23.4043 Y30.2792
G01 X23.3943 Y30.3069
G01 X23.3828 Y30.3313
G01 X23.3659 Y30.3598
G01 X23.3491 Y30.3825
G01 X23.3275 Y30.4060
G01 X23.3055 Y30.4256
G01 X23.2838 Y30.4416
G01 X23.2607 Y30.4555
G01 X23.2319 Y30.4693
G01 X23.2042 Y30.4793
G01 X23.1756 Y30.4864
G01 X23.1452 Y30.4908
G01 X23.1171 Y30.4922
G01 X21.7530 Y30.4922
G01 X21.7482 Y30.4998
G01 X21.7158 Y30.5430
G01 X21.6811 Y30.5811
G01 X21.6392 Y30.6189
G01 X21.5978 Y30.6496
G01 X21.5514 Y30.6773
G01 X21.5026 Y30.7004
G01 X21.4506 Y30.7190
G01 X21.3970 Y30.7322
G01 X21.3460 Y30.7397
G01 X21.2945 Y30.7423
G01 X20.8450 Y30.7423
G01 X15.7553 Y35.8320
G01 X15.7161 Y35.8674
G01 X15.6748 Y35.8982
G01 X15.6243 Y35.9284
G01 X15.5776 Y35.9504
G01 X15.5268 Y35.9686
G01 X15.4744 Y35.9817
G01 X15.4298 Y35.9884
G01 X15.4298 Y42.0046
G01 X15.4272 Y42.0585
G01 X15.4192 Y42.1119
G01 X15.4068 Y42.1619
G01 X15.3879 Y42.2151
G01 X15.3648 Y42.2639
G01 X15.3384 Y42.3082
G01 X15.3049 Y42.3536
G01 X15.2686 Y42.3936
G01 X14.4921 Y43.1702
G01 X14.4921 Y45.4421
G01 X14.4911 Y45.4518
G01 X14.4883 Y45.4612
G01 X14.4836 Y45.4698
G01 X14.4774 Y45.4774
G01 X14.4698 Y45.4836
G01 X14.4612 Y45.4883
G01 X14.4518 Y45.4911
G01 X14.4421 Y45.4921
G01 X11.4421 Y45.4921
G01 X11.4323 Y45.4911
G01 X11.4229 Y45.4883
G01 X11.4143 Y45.4836
G01 X11.4067 Y45.4774
G01 X11.4005 Y45.4698
G01 X11.3959 Y45.4612
G01 X11.3930 Y45.4518
G01 X11.3921 Y45.4421
G01 X11.3921 Y42.4421
G01 X11.3930 Y42.4323
G01 X11.3959 Y42.4229
G01 X11.4005 Y42.4143
G01 X11.4067 Y42.4067
G01 X11.4143 Y42.4005
G01 X11.4229 Y42.3959
G01 X11.4323 Y42.3930
G01 X11.4421 Y42.3921
G00 Z2.0000
G00 X10.4714 Y43.0971
G01 F60.00
G01 Z0.0000
G01 F120.00
G01 X10.6081 Y42.9604
G01 X10.6866 Y42.9991
G01 X10.7075 Y43.0081
G01 X10.7292 Y43.0153
G01 X10.7547 Y43.0213
G01 X10.7808 Y43.0248
G01 X10.8071 Y43.0258
G01 X10.8298 Y43.0245
G01 X10.8403 Y43.0234
G01 X10.8593 Y43.0201
G01 X10.8847 Y43.0135
G01 X10.9094 Y43.0045
G01 X10.9331 Y42.9932
G01 X10.9556 Y42.9796
G01 X10.9767 Y42.9639
G01 X10.9962 Y42.9463
G01 X11.0139 Y42.9268
G01 X11.0276 Y42.9086
G01 X11.0334 Y42.8999
G01 X11.0449 Y42.8802
G01 X11.0532 Y42.8628
G01 X11.0573 Y42.8531
G01 X11.0647 Y42.8315
G01 X11.0703 Y42.8094
G01 X11.0722 Y42.7991
G01 X11.0748 Y42.7800
G01 X11.0761 Y42.7537
G01 X11.0761 Y42.4554
G01 X11.0844 Y42.3709
G01 X11.1051 Y42.3025
G01 X11.1388 Y42.2395
G01 X11.1842 Y42.1842
G01 X11.2395 Y42.1388
G01 X11.3025 Y42.1051
G01 X11.3709 Y42.0844
G01 X11.4554 Y42.0761
G01 X13.4750 Y42.0761
G01 X13.5017 Y42.0747
G01 X13.5246 Y42.0715
G01 X13.5350 Y42.0693
G01 X13.5574 Y42.0633
G01 X13.5791 Y42.0553
G01 X13.6001 Y42.0456
G01 X13.6094 Y42.0404
G01 X13.6291 Y42.0282
G01 X13.6476 Y42.0143
G01 X13.6648 Y41.9989
G01 X13.9369 Y41.7268
G01 X13.9502 Y41.7124
G01 X13.9571 Y41.7042
G01 X13.9688 Y41.6885
G01 X13.9727 Y41.6826
G01 X13.9828 Y41.6658
G01 X13.9861 Y41.6595
G01 X13.9945 Y41.6418
G01 X13.9972 Y41.6352
G01 X14.0038 Y41.6168
G01 X14.0098 Y41.5945
G01 X14.0126 Y41.5805
G01 X14.0153 Y41.5611
G01 X14.0166 Y41.5344
G01 X14.0166 Y36.7271
G01 X14.0156 Y36.7040
G01 X14.0126 Y36.6811
G01 X14.0107 Y36.6706
G01 X14.0049 Y36.6481
G01 X13.9972 Y36.6263
G01 X13.9877 Y36.6052
G01 X13.9828 Y36.5957
G01 X13.9708 Y36.5760
G01 X13.9571 Y36.5573
G01 X13.9502 Y36.5491
G01 X13.9344 Y36.5323
G01 X13.9172 Y36.5168
G01 X13.8986 Y36.5029
G01 X13.8790 Y36.4907
G01 X13.8697 Y36.4855
G01 X13.8487 Y36.4758
G01 X13.8269 Y36.4678
G01 X13.8167 Y36.4649
G01 X13.7976 Y36.4603
G01 X13.7712 Y36.4564
G01 X13.7446 Y36.4551
G01 X13.7179 Y36.4564
G01 X13.6915 Y36.4603
G01 X13.6690 Y36.4658
G01 X13.6471 Y36.4732
G01 X13.6362 Y36.4776
G01 X13.5632 Y36.4997
G01 X13.4808 Y36.5079
G01 X13.4047 Y36.5067
G01 X13.4036 Y36.5056
G01 X13.4036 Y36.2546
G01 X13.4316 Y36.2412
G01 X13.4583 Y36.2254
G01 X13.4672 Y36.2195
G01 X13.4922 Y36.2010
G01 X13.5003 Y36.1942
G01 X13.5232 Y36.1732
G01 X13.5442 Y36.1503
G01 X13.5510 Y36.1422
G01 X13.5695 Y36.1172
G01 X13.5754 Y36.1083
G01 X13.5912 Y36.0816
G01 X13.6061 Y36.0504
G01 X13.6100 Y36.0404
G01 X13.6203 Y36.0112
G01 X13.6280 Y35.9811
G01 X13.6308 Y35.9671
G01 X13.6352 Y35.9364
G01 X13.6371 Y35.8983
G01 X13.6371 Y34.9858
G01 X13.6357 Y34.9548
G01 X13.6343 Y34.9406
G01 X13.6296 Y34.9100
G01 X13.6203 Y34.8730
G01 X13.6100 Y34.8437
G01 X13.6046 Y34.8305
G01 X13.5912 Y34.8026
G01 X13.5715 Y34.7698
G01 X13.5488 Y34.7392
G01 X13.5281 Y34.7161
G01 X13.5180 Y34.7060
G01 X13.4949 Y34.6853
G01 X13.4701 Y34.6667
G01 X13.4583 Y34.6588
G01 X13.4316 Y34.6430
G01 X13.4036 Y34.6296
G01 X13.4036 Y34.3785
G01 X13.4047 Y34.3774
G01 X13.4808 Y34.3763
G01 X13.5632 Y34.3844
G01 X13.6316 Y34.4051
G01 X13.6947 Y34.4388
G01 X13.7499 Y34.4842
G01 X13.7990 Y34.5439
G01 X13.8147 Y34.5610
G01 X13.8291 Y34.5743
G01 X13.8372 Y34.5812
G01 X13.8530 Y34.5928
G01 X13.8619 Y34.5986
G01 X13.8788 Y34.6086
G01 X13.8997 Y34.6186
G01 X13.9096 Y34.6225
G01 X13.9315 Y34.6300
G01 X13.9540 Y34.6355
G01 X13.9769 Y34.6390
G01 X13.9999 Y34.6405
G01 X14.0142 Y34.6405
G01 X14.0302 Y34.6397
G01 X14.0408 Y34.6385
G01 X14.0601 Y34.6355
G01 X14.0792 Y34.6309
G01 X14.0894 Y34.6279
G01 X14.1079 Y34.6213
G01 X14.1144 Y34.6186
G01 X14.1322 Y34.6102
G01 X14.1384 Y34.6068
G01 X14.1552 Y34.5968
G01 X14.1611 Y34.5928
G01 X14.1769 Y34.5812
G01 X14.1850 Y34.5743
G01 X14.2013 Y34.5591
G01 X14.2978 Y34.4799
G01 X14.4030 Y34.4237
G01 X14.5171 Y34.3891
G01 X14.6492 Y34.3761
G01 X15.1000 Y34.3761
G01 X15.1196 Y34.3753
G01 X15.1302 Y34.3744
G01 X15.1531 Y34.3708
G01 X15.1756 Y34.3653
G01 X15.1975 Y34.3579
G01 X15.2106 Y34.3525
G01 X15.2283 Y34.3439
G01 X15.2512 Y34.3302
G01 X15.2726 Y34.3143
G01 X15.2898 Y34.2989
G01 X19.6193 Y29.9694
G01 X19.6372 Y29.9497
G01 X19.6490 Y29.9340
G01 X19.6551 Y29.9252
G01 X19.6652 Y29.9084
G01 X19.6685 Y29.9022
G01 X19.6769 Y29.8844
G01 X19.6796 Y29.8779
G01 X19.6862 Y29.8594
G01 X19.6883 Y29.8526
G01 X19.6930 Y29.8336
G01 X19.6950 Y29.8231
G01 X19.6980 Y29.8002
G01 X19.6990 Y29.7806
G01 X19.6988 Y29.7699
G01 X19.6977 Y29.7504
G01 X19.6950 Y29.7310
G01 X19.6930 Y29.7205
G01 X19.6892 Y29.7049
G01 X19.6862 Y29.6947
G01 X19.6808 Y29.6796
G01 X19.6754 Y29.6664
G01 X19.6652 Y29.6457
G01 X19.6551 Y29.6289
G01 X19.6496 Y29.6209
G01 X19.6495 Y29.6112
G01 X19.6483 Y29.5916
G01 X19.6450 Y29.5687
G01 X19.6428 Y29.5583
G01 X19.6379 Y29.5393
G01 X19.6315 Y29.5208
G01 X19.6275 Y29.5109
G01 X19.6175 Y29.4901
G01 X19.6057 Y29.4701
G01 X19.5997 Y29.4613
G01 X19.5879 Y29.4457
G01 X19.5724 Y29.4285
G01 X19.5648 Y29.4210
G01 X19.5474 Y29.4058
G01 X19.5287 Y29.3921
G01 X19.5120 Y29.3819
G01 X19.5027 Y29.3767
G01 X19.4849 Y29.3684
G01 X19.4784 Y29.3656
G01 X19.4599 Y29.3590
G01 X19.4531 Y29.3570
G01 X19.4341 Y29.3522
G01 X19.4271 Y29.3508
G01 X19.4078 Y29.3480
G01 X19.3971 Y29.3470
G01 X19.3776 Y29.3463
G01 X19.3509 Y29.3476
G01 X19.3245 Y29.3515
G01 X19.2986 Y29.3580
G01 X19.2734 Y29.3670
G01 X19.2493 Y29.3784
G01 X19.2264 Y29.3921
G01 X19.2077 Y29.4058
G01 X19.1996 Y29.4127
G01 X19.1852 Y29.4259
G01 X19.1044 Y29.5067
G01 X19.0284 Y29.5079
G01 X18.9459 Y29.4997
G01 X18.8775 Y29.4790
G01 X18.8145 Y29.4453
G01 X18.7592 Y29.3999
G01 X18.7138 Y29.3447
G01 X18.6801 Y29.2816
G01 X18.6594 Y29.2132
G01 X18.6512 Y29.1297
G01 X18.6533 Y28.8413
G01 X18.8721 Y28.8411
G01 X18.8721 Y28.9019
G01 X18.8734 Y28.9293
G01 X18.8748 Y28.9435
G01 X18.8783 Y28.9671
G01 X18.8803 Y28.9776
G01 X18.8888 Y29.0112
G01 X18.9017 Y29.0471
G01 X18.9180 Y29.0816
G01 X18.9356 Y29.1113
G01 X18.9417 Y29.1201
G01 X18.9603 Y29.1449
G01 X18.9834 Y29.1707
G01 X18.9911 Y29.1781
G01 X19.0115 Y29.1965
G01 X19.0198 Y29.2032
G01 X19.0390 Y29.2174
G01 X19.0509 Y29.2254
G01 X19.0744 Y29.2394
G01 X19.0839 Y29.2444
G01 X19.1055 Y29.2546
G01 X19.1154 Y29.2588
G01 X19.1412 Y29.2681
G01 X19.1514 Y29.2713
G01 X19.1850 Y29.2796
G01 X19.2156 Y29.2843
G01 X19.2263 Y29.2855
G01 X19.2573 Y29.2870
G01 X19.7483 Y29.2871
G01 X19.7829 Y29.2855
G01 X19.7935 Y29.2843
G01 X19.8171 Y29.2808
G01 X19.8311 Y29.2780
G01 X19.8612 Y29.2703
G01 X19.8971 Y29.2575
G01 X19.9252 Y29.2444
G01 X19.9378 Y29.2377
G01 X19.9643 Y29.2215
G01 X19.9922 Y29.2010
G01 X20.0003 Y29.1942
G01 X20.0232 Y29.1732
G01 X20.0488 Y29.1449
G01 X20.0715 Y29.1143
G01 X20.0912 Y29.0816
G01 X20.1075 Y29.0471
G01 X20.1203 Y29.0112
G01 X20.1296 Y28.9742
G01 X20.1348 Y28.9400
G01 X20.1357 Y28.9293
G01 X20.1371 Y28.8983
G01 X20.1369 Y27.9787
G01 X20.1352 Y27.9477
G01 X20.1308 Y27.9170
G01 X20.1280 Y27.9030
G01 X20.1203 Y27.8730
G01 X20.1100 Y27.8437
G01 X20.1046 Y27.8305
G01 X20.0912 Y27.8026
G01 X20.0715 Y27.7698
G01 X20.0488 Y27.7392
G01 X20.0281 Y27.7161
G01 X20.0180 Y27.7060
G01 X19.9949 Y27.6853
G01 X19.9701 Y27.6667
G01 X19.9583 Y27.6588
G01 X19.9316 Y27.6430
G01 X19.9036 Y27.6296
G01 X19.9036 Y27.3785
G01 X19.9047 Y27.3774
G01 X19.9808 Y27.3763
G01 X20.0632 Y27.3844
G01 X20.1316 Y27.4051
G01 X20.1947 Y27.4388
G01 X20.2499 Y27.4842
G01 X20.2967 Y27.5412
G01 X20.3098 Y27.5559
G01 X20.3198 Y27.5659
G01 X20.3317 Y27.5766
G01 X20.3401 Y27.5833
G01 X20.3589 Y27.5968
G01 X20.3757 Y27.6069
G01 X20.3820 Y27.6102
G01 X20.4029 Y27.6200
G01 X20.4281 Y27.6290
G01 X20.4540 Y27.6355
G01 X20.4804 Y27.6394
G01 X20.5071 Y27.6407
G01 X20.5266 Y27.6399
G01 X20.5373 Y27.6390
G01 X20.5566 Y27.6361
G01 X20.5636 Y27.6347
G01 X20.5826 Y27.6300
G01 X20.5928 Y27.6267
G01 X20.6079 Y27.6213
G01 X20.6177 Y27.6171
G01 X20.6353 Y27.6086
G01 X20.6522 Y27.5986
G01 X20.6611 Y27.5928
G01 X20.6797 Y27.5789
G01 X20.6943 Y27.5659
G01 X20.7013 Y27.5591
G01 X20.7681 Y27.5043
G01 X20.7853 Y27.4888
G01 X20.8012 Y27.4719
G01 X20.8102 Y27.4609
G01 X20.8217 Y27.4451
G01 X20.8354 Y27.4222
G01 X20.8455 Y27.4013
G01 X20.8494 Y27.3914
G01 X20.8559 Y27.3729
G01 X20.8608 Y27.3540
G01 X20.8630 Y27.3435
G01 X20.8659 Y27.3242
G01 X20.8740 Y27.2415
G01 X20.9034 Y27.1448
G01 X20.9510 Y27.0557
G01 X21.0151 Y26.9776
G01 X21.0271 Y26.9677
G01 X21.0441 Y26.9521
G01 X21.2021 Y26.7941
G01 X21.2177 Y26.7771
G01 X21.2276 Y26.7651
G01 X21.3057 Y26.7010
G01 X21.3948 Y26.6534
G01 X21.4915 Y26.6240
G01 X21.5921 Y26.6141
G01 X21.6075 Y26.6156
G01 X21.6306 Y26.6166
G01 X21.9071 Y26.6166
G01 X21.9337 Y26.6153
G01 X21.9601 Y26.6114
G01 X21.9826 Y26.6059
G01 X21.9928 Y26.6027
G01 X22.0112 Y26.5959
G01 X22.0353 Y26.5845
G01 X22.0552 Y26.5727
G01 X22.0640 Y26.5667
G01 X22.0797 Y26.5549
G01 X22.0994 Y26.5369
G01 X22.1174 Y26.5172
G01 X22.1313 Y26.4986
G01 X22.1435 Y26.4790
G01 X22.1502 Y26.4665
G01 X22.1584 Y26.4487
G01 X22.1674 Y26.4235
G01 X22.1739 Y26.3976
G01 X22.1774 Y26.3748
G01 X22.1783 Y26.3641
G01 X22.1791 Y26.3446
G01 X22.1791 Y25.9371
G01 X22.2546 Y25.9371
G01 X22.2678 Y25.9366
G01 X22.2784 Y25.9357
G01 X22.2915 Y25.9337
G01 X22.3079 Y25.9300
G01 X22.3182 Y25.9271
G01 X22.3340 Y25.9213
G01 X22.3460 Y25.9158
G01 X22.3555 Y25.9108
G01 X22.3669 Y25.9040
G01 X22.3757 Y25.8980
G01 X22.3862 Y25.8900
G01 X22.3970 Y25.8804
G01 X22.3970 Y26.8345
G01 X21.5849 Y26.8347
G01 X21.5631 Y26.8359
G01 X21.5415 Y26.8389
G01 X21.5310 Y26.8409
G01 X21.5064 Y26.8472
G01 X21.4824 Y26.8556
G01 X21.4726 Y26.8598
G01 X21.4530 Y26.8693
G01 X21.4341 Y26.8804
G01 X21.4252 Y26.8862
G01 X21.4076 Y26.8992
G01 X21.3995 Y26.9061
G01 X21.3860 Y26.9184
G01 X21.1684 Y27.1360
G01 X21.1515 Y27.1549
G01 X21.1362 Y27.1752
