(G-CODE GENERATED BY FLATCAM v8.994 - www.flatcam.org - Version Date: 2020/11/7)

(Name: bq24160-F_Cu.gbr_iso_combined_cnc)
(Type: G-code from Geometry)
(Units: MM)

(Created on Friday, 11 February 2022 at 13:06)

(This preprocessor is the default preprocessor used by FlatCAM.)
(It is made to work with MACH3 compatible motion controllers.)

(TOOL DIAMETER: 0.1 mm)
(Feedrate_XY: 120.0 mm/min)
(Feedrate_Z: 60.0 mm/min)
(Feedrate rapids 1500.0 mm/min)

(Z_Cut: -0.05 mm)
(Z_Move: 2.0 mm)
(Z Start: None mm)
(Z End: 15.0 mm)
(X,Y End: None mm)
(Steps per circle: 64)
(Preprocessor Geometry: default)

(X range:   -0.1400 ...   49.0241  mm)
(Y range:   -0.1400 ...   49.0241  mm)

(Spindle Speed: 1000.0 RPM)
G21
G90
G94

G01 F120.00

M5
G00 Z15.0000
G00 X0.0000 Y0.0000
T1
M6    
(MSG, Change to Tool Dia = 0.1000)
M0
G00 Z15.0000

M03 S1000.0
G01 F120.00
G00 X5.6938 Y18.2296
G01 F60.00
G01 Z-0.0500
G01 F120.00
G01 X5.6977 Y18.2035
G01 X5.7047 Y18.1755
G01 X5.7144 Y18.1484
G01 X5.7267 Y18.1223
G01 X5.7416 Y18.0976
G01 X5.7587 Y18.0745
G01 X5.7781 Y18.0531
G01 X5.7976 Y18.0353
G01 X5.8247 Y18.0153
G01 X5.8473 Y18.0017
G01 X5.8757 Y17.9885
G01 X5.9005 Y17.9797
G01 X5.9285 Y17.9727
G01 X5.9570 Y17.9685
G01 X5.9858 Y17.9671
G01 X6.8983 Y17.9671
G01 X6.9271 Y17.9685
G01 X6.9556 Y17.9727
G01 X6.9836 Y17.9797
G01 X7.0084 Y17.9885
G01 X7.0368 Y18.0017
G01 X7.0635 Y18.0180
G01 X7.0847 Y18.0337
G01 X7.1060 Y18.0531
G01 X7.1254 Y18.0745
G01 X7.1411 Y18.0956
G01 X7.1574 Y18.1223
G01 X7.1697 Y18.1484
G01 X7.1786 Y18.1732
G01 X7.1866 Y18.2044
G01 X10.3929 Y18.2044
G01 X10.3936 Y18.1933
G01 X10.3980 Y18.1648
G01 X10.4047 Y18.1380
G01 X10.4140 Y18.1120
G01 X10.4280 Y18.0827
G01 X10.4416 Y18.0601
G01 X10.4580 Y18.0379
G01 X10.4799 Y18.0139
G01 X10.4995 Y17.9962
G01 X10.5226 Y17.9791
G01 X10.5495 Y17.9631
G01 X10.5734 Y17.9519
G01 X10.5982 Y17.9430
G01 X10.6309 Y17.9348
G01 X10.6570 Y17.9310
G01 X10.6846 Y17.9296
G01 X10.9743 Y17.9296
G01 X10.9813 Y17.9103
G01 X10.9877 Y17.8970
G01 X10.9965 Y17.8823
G01 X11.0067 Y17.8685
G01 X11.0166 Y17.8576
G01 X11.0310 Y17.8442
G01 X11.0448 Y17.8340
G01 X11.0574 Y17.8264
G01 X11.0751 Y17.8178
G01 X11.0912 Y17.8120
G01 X11.1055 Y17.8084
G01 X11.1261 Y17.8052
G01 X11.1421 Y17.8045
G01 X11.1568 Y17.8052
G01 X11.1762 Y17.8079
G01 X11.1952 Y17.8128
G01 X11.2091 Y17.8178
G01 X11.2235 Y17.8246
G01 X11.2413 Y17.8354
G01 X11.2531 Y17.8442
G01 X11.2650 Y17.8549
G01 X11.2782 Y17.8695
G01 X11.2876 Y17.8823
G01 X11.2932 Y17.8915
G01 X15.9548 Y13.2298
G01 X15.9786 Y13.2086
G01 X16.0003 Y13.1925
G01 X16.0256 Y13.1774
G01 X16.0545 Y13.1639
G01 X16.0799 Y13.1549
G01 X16.1073 Y13.1480
G01 X16.1376 Y13.1434
G01 X16.1671 Y13.1419
G01 X22.4421 Y13.1419
G01 X22.4727 Y13.1435
G01 X22.5006 Y13.1477
G01 X22.5268 Y13.1542
G01 X22.5592 Y13.1658
G01 X22.5835 Y13.1774
G01 X22.6088 Y13.1925
G01 X22.6325 Y13.2101
G01 X22.6534 Y13.2290
G01 X23.4060 Y13.9816
G01 X23.4241 Y14.0017
G01 X23.4402 Y14.0233
G01 X23.4568 Y14.0506
G01 X23.4702 Y14.0795
G01 X23.4793 Y14.1049
G01 X23.4862 Y14.1323
G01 X23.4907 Y14.1626
G01 X23.4922 Y14.1921
G01 X23.4922 Y15.1921
G01 X23.4908 Y15.2203
G01 X23.4864 Y15.2506
G01 X23.4793 Y15.2792
G01 X23.4693 Y15.3069
G01 X23.4573 Y15.3325
G01 X23.4416 Y15.3588
G01 X23.4248 Y15.3815
G01 X23.4051 Y15.4034
G01 X23.3921 Y15.4154
G01 X23.3921 Y21.5058
G01 X23.3909 Y21.5266
G01 X23.3883 Y21.5436
G01 X23.3842 Y21.5603
G01 X23.3769 Y21.5811
G01 X23.3671 Y21.6014
G01 X23.3671 Y21.8546
G01 X23.3665 Y21.8656
G01 X23.3644 Y21.8789
G01 X23.3622 Y21.8872
G01 X23.3594 Y21.8953
G01 X23.3538 Y21.9076
G01 X23.3481 Y21.9171
G01 X23.3430 Y21.9240
G01 X23.3341 Y21.9341
G01 X23.3240 Y21.9430
G01 X23.3171 Y21.9481
G01 X23.3076 Y21.9538
G01 X23.2953 Y21.9594
G01 X23.2872 Y21.9622
G01 X23.2777 Y21.9646
G01 X23.2656 Y21.9665
G01 X23.2546 Y21.9671
G01 X23.1283 Y21.9670
G01 X23.1185 Y21.9665
G01 X23.1076 Y21.9649
G01 X23.0969 Y21.9622
G01 X23.0865 Y21.9585
G01 X23.0765 Y21.9538
G01 X23.0671 Y21.9481
G01 X23.0582 Y21.9415
G01 X23.0500 Y21.9341
G01 X23.0426 Y21.9259
G01 X23.0354 Y21.9160
G01 X23.0292 Y21.9054
G01 X23.0256 Y21.8976
G01 X23.0223 Y21.8884
G01 X23.0192 Y21.8765
G01 X23.0174 Y21.8631
G01 X23.0171 Y21.8546
G01 X23.0171 Y21.6014
G01 X23.0072 Y21.5811
G01 X23.0006 Y21.5626
G01 X22.9958 Y21.5436
G01 X22.9928 Y21.5217
G01 X22.9920 Y21.5046
G01 X22.9920 Y15.4154
G01 X22.9790 Y15.4034
G01 X22.9593 Y15.3815
G01 X22.9425 Y15.3588
G01 X22.9268 Y15.3325
G01 X22.9148 Y15.3069
G01 X22.9049 Y15.2792
G01 X22.8977 Y15.2506
G01 X22.8934 Y15.2215
G01 X22.8919 Y15.1921
G01 X22.8919 Y14.3164
G01 X22.3177 Y13.7422
G01 X16.2914 Y13.7422
G01 X11.8827 Y18.1509
G01 X11.8866 Y18.1672
G01 X11.8905 Y18.1933
G01 X11.8921 Y18.2233
G01 X11.8921 Y18.7108
G01 X11.8906 Y18.7396
G01 X11.8859 Y18.7705
G01 X11.8794 Y18.7961
G01 X11.8706 Y18.8209
G01 X11.8574 Y18.8493
G01 X11.8411 Y18.8760
G01 X11.8254 Y18.8972
G01 X11.8077 Y18.9167
G01 X11.7847 Y18.9379
G01 X11.7594 Y18.9564
G01 X11.7368 Y18.9699
G01 X11.7130 Y18.9812
G01 X11.6824 Y18.9923
G01 X11.6556 Y18.9989
G01 X11.6295 Y19.0028
G01 X11.5983 Y19.0046
G01 X10.6858 Y19.0046
G01 X10.6546 Y19.0028
G01 X10.6285 Y18.9989
G01 X10.6029 Y18.9926
G01 X10.5734 Y18.9822
G01 X10.5473 Y18.9699
G01 X10.5247 Y18.9564
G01 X10.4995 Y18.9379
G01 X10.4764 Y18.9167
G01 X10.4587 Y18.8972
G01 X10.4423 Y18.8750
G01 X10.4262 Y18.8482
G01 X10.4144 Y18.8232
G01 X10.4077 Y18.8047
G01 X7.1866 Y18.8047
G01 X7.1786 Y18.8359
G01 X7.1697 Y18.8607
G01 X7.1574 Y18.8868
G01 X7.1411 Y18.9135
G01 X7.1254 Y18.9347
G01 X7.1060 Y18.9560
G01 X7.0847 Y18.9754
G01 X7.0635 Y18.9911
G01 X7.0368 Y19.0074
G01 X7.0084 Y19.0206
G01 X6.9836 Y19.0294
G01 X6.9556 Y19.0364
G01 X6.9271 Y19.0406
G01 X6.8983 Y19.0421
G01 X5.9858 Y19.0421
G01 X5.9558 Y19.0405
G01 X5.9285 Y19.0364
G01 X5.9029 Y19.0301
G01 X5.8734 Y19.0197
G01 X5.8473 Y19.0074
G01 X5.8247 Y18.9939
G01 X5.7995 Y18.9754
G01 X5.7764 Y18.9542
G01 X5.7587 Y18.9347
G01 X5.7416 Y18.9115
G01 X5.7256 Y18.8846
G01 X5.7144 Y18.8607
G01 X5.7051 Y18.8348
G01 X5.6973 Y18.8032
G01 X5.6935 Y18.7771
G01 X5.6921 Y18.7495
G01 X5.6921 Y18.2608
G01 X5.6938 Y18.2296
G00 Z2.0000
G00 X5.6984 Y20.6836
G01 F60.00
G01 Z-0.0500
G01 F120.00
G01 X5.7047 Y20.7086
G01 X5.7135 Y20.7334
G01 X5.7256 Y20.7596
G01 X5.7416 Y20.7865
G01 X5.7572 Y20.8077
G01 X5.7781 Y20.8310
G01 X5.7995 Y20.8504
G01 X5.8226 Y20.8676
G01 X5.8473 Y20.8824
G01 X5.8734 Y20.8947
G01 X5.9005 Y20.9044
G01 X5.9285 Y20.9114
G01 X5.9558 Y20.9155
G01 X5.9858 Y20.9171
G01 X6.1380 Y20.9171
G01 X6.1380 Y21.2700
G01 X6.0824 Y21.3255
G01 X5.7501 Y21.3280
G01 X5.6523 Y21.3184
G01 X5.5660 Y21.2922
G01 X5.4864 Y21.2497
G01 X5.4167 Y21.1924
G01 X5.3595 Y21.1227
G01 X5.3169 Y21.0432
G01 X5.2908 Y20.9568
G01 X5.2812 Y20.8597
G01 X5.2830 Y20.7398
G01 X5.3392 Y20.6836
G01 X5.6984 Y20.6836
G00 Z2.0000
G00 X5.6328 Y20.7736
G01 F60.00
G01 Z-0.0500
G01 F120.00
G01 X5.6474 Y20.8042
G01 X5.6667 Y20.8365
G01 X5.6892 Y20.8668
G01 X5.7097 Y20.8897
G01 X5.7194 Y20.8994
G01 X5.7372 Y20.9155
G01 X5.7450 Y20.9221
G01 X5.7726 Y20.9424
G01 X5.8019 Y20.9601
G01 X5.8110 Y20.9648
G01 X5.8327 Y20.9751
G01 X5.8454 Y20.9803
G01 X5.8744 Y20.9905
G01 X5.9109 Y20.9997
G01 X5.9414 Y21.0044
G01 X5.9551 Y21.0057
G01 X5.9824 Y21.0070
G01 X6.0480 Y21.0071
G01 X6.0480 Y21.2327
G01 X6.0449 Y21.2358
G01 X5.7542 Y21.2380
G01 X5.6699 Y21.2297
G01 X5.6006 Y21.2086
G01 X5.5367 Y21.1745
G01 X5.4806 Y21.1285
G01 X5.4347 Y21.0725
G01 X5.4005 Y21.0085
G01 X5.3795 Y20.9392
G01 X5.3713 Y20.8560
G01 X5.3724 Y20.7776
G01 X5.3764 Y20.7736
G01 X5.6328 Y20.7736
G00 Z2.0000
G00 X10.3048 Y20.0539
G01 F60.00
G01 Z-0.0500
G01 F120.00
G01 X10.3034 Y20.0676
G01 X10.3021 Y20.0983
G01 X10.3021 Y20.5892
G01 X10.3039 Y20.6234
G01 X10.3083 Y20.6539
G01 X10.3109 Y20.6674
G01 X10.3186 Y20.6972
G01 X10.3288 Y20.7263
G01 X10.3341 Y20.7390
G01 X10.3474 Y20.7667
G01 X10.3631 Y20.7932
G01 X10.3707 Y20.8046
G01 X10.3892 Y20.8293
G01 X10.4145 Y20.8572
G01 X10.4372 Y20.8780
G01 X10.4478 Y20.8867
G01 X10.4726 Y20.9049
G01 X10.4989 Y20.9209
G01 X10.5110 Y20.9273
G01 X10.5390 Y20.9404
G01 X10.5679 Y20.9509
G01 X10.5777 Y20.9540
G01 X10.6109 Y20.9622
G01 X10.6414 Y20.9669
G01 X10.6551 Y20.9682
G01 X10.6858 Y20.9696
G01 X11.5983 Y20.9696
G01 X11.6359 Y20.9677
G01 X11.6698 Y20.9628
G01 X11.6799 Y20.9607
G01 X11.7097 Y20.9530
G01 X11.7388 Y20.9428
G01 X11.7515 Y20.9376
G01 X11.7792 Y20.9243
G01 X11.8057 Y20.9086
G01 X11.8171 Y20.9009
G01 X11.8418 Y20.8825
G01 X11.8647 Y20.8619
G01 X11.8744 Y20.8522
G01 X11.8950 Y20.8293
G01 X11.9134 Y20.8046
G01 X11.9211 Y20.7932
G01 X11.9368 Y20.7667
G01 X11.9530 Y20.7322
G01 X15.1427 Y20.7322
G01 X15.1508 Y20.7477
G01 X15.1649 Y20.7711
G01 X15.1707 Y20.7796
G01 X15.1849 Y20.7988
G01 X15.1914 Y20.8069
G01 X15.2097 Y20.8272
G01 X15.2169 Y20.8346
G01 X15.2424 Y20.8575
G01 X15.2726 Y20.8799
G01 X15.3049 Y20.8993
G01 X15.3390 Y20.9154
G01 X15.3679 Y20.9259
G01 X15.3810 Y20.9299
G01 X15.4109 Y20.9372
G01 X15.4482 Y20.9427
G01 X15.4858 Y20.9446
G01 X15.6520 Y20.9446
G01 X15.6520 Y21.4421
G01 X15.6531 Y21.4671
G01 X15.6542 Y21.4773
G01 X15.6576 Y21.4987
G01 X15.6635 Y21.5230
G01 X15.6666 Y21.5328
G01 X15.6741 Y21.5531
G01 X15.6832 Y21.5727
G01 X15.6879 Y21.5818
G01 X15.6990 Y21.6003
G01 X15.7048 Y21.6088
G01 X15.7178 Y21.6261
G01 X15.7369 Y21.6472
G01 X16.4894 Y22.3996
G01 X16.5080 Y22.4163
G01 X16.5253 Y22.4293
G01 X16.5338 Y22.4351
G01 X16.5493 Y22.4445
G01 X16.5584 Y22.4495
G01 X16.5779 Y22.4587
G01 X16.5875 Y22.4625
G01 X16.6079 Y22.4696
G01 X16.6355 Y22.4766
G01 X16.6636 Y22.4807
G01 X16.6921 Y22.4821
G01 X21.0158 Y22.4821
G01 X21.0090 Y22.4888
G01 X21.0002 Y22.4985
G01 X20.9881 Y22.5142
G01 X20.9776 Y22.5311
G01 X20.9688 Y22.5489
G01 X20.9650 Y22.5585
G01 X20.9608 Y22.5708
G01 X20.9560 Y22.5901
G01 X20.9530 Y22.6097
G01 X20.9521 Y22.6296
G01 X20.9521 Y22.7580
G01 X20.9534 Y22.7778
G01 X20.9567 Y22.7974
G01 X20.9608 Y22.8133
G01 X20.9662 Y22.8289
G01 X20.9729 Y22.8439
G01 X20.9776 Y22.8530
G01 X20.9862 Y22.8671
G01 X20.9959 Y22.8803
G01 X21.0066 Y22.8928
G01 X21.0158 Y22.9020
G01 X10.6921 Y22.9020
G01 X10.6636 Y22.9034
G01 X10.6355 Y22.9076
G01 X10.6079 Y22.9145
G01 X10.5875 Y22.9216
G01 X10.5779 Y22.9254
G01 X10.5553 Y22.9362
G01 X10.5309 Y22.9509
G01 X10.5135 Y22.9636
G01 X10.5054 Y22.9700
G01 X10.4869 Y22.9869
G01 X6.6920 Y26.7819
G01 X2.9488 Y26.7819
G01 X2.9346 Y26.7634
G01 X2.8970 Y26.7220
G01 X2.8896 Y26.7148
G01 X2.8507 Y26.6795
G01 X2.8427 Y26.6731
G01 X2.7976 Y26.6399
G01 X2.7468 Y26.6093
G01 X2.7376 Y26.6045
G01 X2.6870 Y26.5808
G01 X2.6311 Y26.5607
G01 X2.6212 Y26.5578
G01 X2.5669 Y26.5444
G01 X2.5189 Y26.5371
G01 X2.5669 Y26.5298
G01 X2.6212 Y26.5163
G01 X2.6344 Y26.5123
G01 X2.6838 Y26.4946
G01 X2.6933 Y26.4906
G01 X2.7438 Y26.4665
G01 X2.7918 Y26.4379
G01 X2.8005 Y26.4323
G01 X2.8481 Y26.3968
G01 X2.8896 Y26.3593
G01 X2.8993 Y26.3496
G01 X2.9346 Y26.3107
G01 X2.9410 Y26.3027
G01 X2.9742 Y26.2576
G01 X3.0048 Y26.2068
G01 X3.0122 Y26.1921
G01 X4.9855 Y26.1921
G01 X5.0071 Y26.1910
G01 X5.0173 Y26.1899
G01 X5.0387 Y26.1866
G01 X5.0596 Y26.1815
G01 X5.0695 Y26.1786
G01 X5.0931 Y26.1701
G01 X5.1127 Y26.1610
G01 X5.1218 Y26.1562
G01 X5.1432 Y26.1433
G01 X5.1607 Y26.1305
G01 X5.1687 Y26.1241
G01 X5.1872 Y26.1072
G01 X7.7496 Y23.5447
G01 X7.7663 Y23.5261
G01 X7.7833 Y23.5032
G01 X7.7979 Y23.4788
G01 X7.8101 Y23.4531
G01 X7.8196 Y23.4263
G01 X7.8266 Y23.3987
G01 X7.8307 Y23.3705
G01 X7.8321 Y23.3455
G01 X7.8321 Y20.9997
G01 X9.1997 Y19.6321
G01 X21.4219 Y19.6321
G01 X21.9020 Y20.1122
G01 X21.9020 Y21.5080
G01 X21.9034 Y21.5330
G01 X21.9064 Y21.5544
G01 X21.9083 Y21.5645
G01 X21.9126 Y21.5821
G01 X21.9155 Y21.5920
G01 X21.9228 Y21.6124
G01 X21.9271 Y21.6223
G01 X21.9271 Y21.8546
G01 X21.9275 Y21.8676
G01 X21.9284 Y21.8778
G01 X21.9317 Y21.8974
G01 X21.9368 Y21.9166
G01 X21.9438 Y21.9352
G01 X21.9521 Y21.9521
G01 X21.9352 Y21.9438
G01 X21.9166 Y21.9368
G01 X21.8974 Y21.9317
G01 X21.8778 Y21.9284
G01 X21.8676 Y21.9275
G01 X21.8546 Y21.9271
G01 X21.6223 Y21.9271
G01 X21.6124 Y21.9228
G01 X21.5920 Y21.9155
G01 X21.5821 Y21.9126
G01 X21.5645 Y21.9083
G01 X21.5544 Y21.9064
G01 X21.5330 Y21.9034
G01 X21.5046 Y21.9020
G01 X16.8122 Y21.9020
G01 X16.2321 Y21.3219
G01 X16.2321 Y20.9446
G01 X16.4017 Y20.9445
G01 X16.4359 Y20.9427
G01 X16.4698 Y20.9378
G01 X16.4799 Y20.9357
G01 X16.5097 Y20.9280
G01 X16.5452 Y20.9154
G01 X16.5792 Y20.8993
G01 X16.6086 Y20.8818
G01 X16.6171 Y20.8759
G01 X16.6418 Y20.8575
G01 X16.6697 Y20.8322
G01 X16.6950 Y20.8043
G01 X16.7134 Y20.7796
G01 X16.7193 Y20.7711
G01 X16.7334 Y20.7477
G01 X16.7383 Y20.7387
G01 X16.7515 Y20.7108
G01 X16.7553 Y20.7013
G01 X16.7645 Y20.6755
G01 X16.7674 Y20.6656
G01 X16.7747 Y20.6357
G01 X16.7794 Y20.6052
G01 X16.7807 Y20.5916
G01 X16.7821 Y20.5608
G01 X16.7820 Y20.0699
G01 X16.7802 Y20.0357
G01 X16.7759 Y20.0052
G01 X16.7732 Y19.9917
G01 X16.7674 Y19.9685
G01 X16.7645 Y19.9586
G01 X16.7529 Y19.9265
G01 X16.7398 Y19.8985
G01 X16.7334 Y19.8864
G01 X16.7174 Y19.8601
G01 X16.6992 Y19.8353
G01 X16.6905 Y19.8247
G01 X16.6697 Y19.8020
G01 X16.6470 Y19.7812
G01 X16.6363 Y19.7724
G01 X16.6115 Y19.7542
G01 X16.5852 Y19.7383
G01 X16.5731 Y19.7318
G01 X16.5452 Y19.7188
G01 X16.5130 Y19.7071
G01 X16.5031 Y19.7043
G01 X16.4799 Y19.6984
G01 X16.4698 Y19.6963
G01 X16.4359 Y19.6914
G01 X16.3983 Y19.6896
G01 X15.4858 Y19.6896
G01 X15.4482 Y19.6914
G01 X15.4109 Y19.6969
G01 X15.3810 Y19.7043
G01 X15.3679 Y19.7082
G01 X15.3390 Y19.7188
G01 X15.3110 Y19.7318
G01 X15.2989 Y19.7383
G01 X15.2726 Y19.7542
G01 X15.2478 Y19.7724
G01 X15.2397 Y19.7789
G01 X15.2145 Y19.8020
G01 X15.1937 Y19.8247
G01 X15.1849 Y19.8353
G01 X15.1667 Y19.8601
G01 X15.1508 Y19.8864
G01 X15.1443 Y19.8985
G01 X15.1313 Y19.9265
G01 X15.1220 Y19.9519
G01 X11.9530 Y19.9519
G01 X11.9368 Y19.9174
G01 X11.9211 Y19.8909
G01 X11.9134 Y19.8795
G01 X11.8950 Y19.8549
G01 X11.8744 Y19.8319
G01 X11.8647 Y19.8222
G01 X11.8418 Y19.8017
G01 X11.8171 Y19.7832
G01 X11.8057 Y19.7756
G01 X11.7792 Y19.7599
G01 X11.7515 Y19.7466
G01 X11.7388 Y19.7413
G01 X11.7097 Y19.7311
G01 X11.6799 Y19.7234
G01 X11.6698 Y19.7213
G01 X11.6359 Y19.7164
G01 X11.5983 Y19.7146
G01 X10.6858 Y19.7146
G01 X10.6551 Y19.7159
G01 X10.6414 Y19.7173
G01 X10.6143 Y19.7213
G01 X10.6042 Y19.7234
G01 X10.5810 Y19.7293
G01 X10.5711 Y19.7321
G01 X10.5454 Y19.7413
G01 X10.5358 Y19.7451
G01 X10.5049 Y19.7599
G01 X10.4726 Y19.7792
G01 X10.4424 Y19.8017
G01 X10.4169 Y19.8246
G01 X10.4097 Y19.8319
G01 X10.3914 Y19.8522
G01 X10.3849 Y19.8603
G01 X10.3707 Y19.8795
G01 X10.3631 Y19.8909
G01 X10.3508 Y19.9114
G01 X10.3458 Y19.9205
G01 X10.3313 Y19.9515
G01 X10.3186 Y19.9869
G01 X10.3094 Y20.0234
G01 X10.3048 Y20.0539
G00 Z2.0000
G00 X10.3938 Y20.0671
G01 F60.00
G01 Z-0.0500
G01 F120.00
G01 X10.3977 Y20.0410
G01 X10.4047 Y20.0130
G01 X10.4144 Y19.9859
G01 X10.4256 Y19.9620
G01 X10.4430 Y19.9331
G01 X10.4587 Y19.9120
G01 X10.4799 Y19.8889
G01 X10.4995 Y19.8712
G01 X10.5226 Y19.8541
G01 X10.5473 Y19.8392
G01 X10.5734 Y19.8269
G01 X10.6005 Y19.8172
G01 X10.6285 Y19.8102
G01 X10.6570 Y19.8060
G01 X10.6834 Y19.8046
G01 X11.5983 Y19.8046
G01 X11.6271 Y19.8060
G01 X11.6556 Y19.8102
G01 X11.6836 Y19.8172
G01 X11.7084 Y19.8260
G01 X11.7368 Y19.8392
G01 X11.7635 Y19.8555
G01 X11.7847 Y19.8712
G01 X11.8060 Y19.8906
G01 X11.8254 Y19.9120
G01 X11.8411 Y19.9331
G01 X11.8574 Y19.9598
G01 X11.8697 Y19.9859
G01 X11.8786 Y20.0107
G01 X11.8866 Y20.0419
G01 X15.1938 Y20.0419
G01 X15.1977 Y20.0160
G01 X15.2047 Y19.9880
G01 X15.2144 Y19.9609
G01 X15.2256 Y19.9370
G01 X15.2430 Y19.9081
G01 X15.2587 Y19.8870
G01 X15.2764 Y19.8674
G01 X15.3014 Y19.8447
G01 X15.3226 Y19.8291
G01 X15.3473 Y19.8142
G01 X15.3757 Y19.8010
G01 X15.4005 Y19.7922
G01 X15.4285 Y19.7852
G01 X15.4570 Y19.7810
G01 X15.4858 Y19.7796
G01 X16.3983 Y19.7796
G01 X16.4271 Y19.7810
G01 X16.4556 Y19.7852
G01 X16.4836 Y19.7922
G01 X16.5084 Y19.8010
G01 X16.5368 Y19.8142
G01 X16.5635 Y19.8305
G01 X16.5847 Y19.8462
G01 X16.6042 Y19.8639
G01 X16.6254 Y19.8870
G01 X16.6439 Y19.9122
G01 X16.6574 Y19.9348
G01 X16.6687 Y19.9587
G01 X16.6798 Y19.9892
G01 X16.6864 Y20.0160
G01 X16.6903 Y20.0421
G01 X16.6921 Y20.0733
G01 X16.6921 Y20.5608
G01 X16.6906 Y20.5896
G01 X16.6864 Y20.6181
G01 X16.6794 Y20.6461
G01 X16.6687 Y20.6755
G01 X16.6574 Y20.6993
G01 X16.6439 Y20.7219
G01 X16.6254 Y20.7472
G01 X16.6060 Y20.7685
G01 X16.5827 Y20.7894
G01 X16.5615 Y20.8051
G01 X16.5389 Y20.8187
G01 X16.5119 Y20.8317
G01 X16.4812 Y20.8426
G01 X16.4556 Y20.8489
G01 X16.4259 Y20.8533
G01 X16.3983 Y20.8546
G01 X16.1421 Y20.8546
G01 X16.1421 Y21.3592
G01 X16.7749 Y21.9920
G01 X21.5046 Y21.9920
G01 X21.5217 Y21.9928
G01 X21.5436 Y21.9958
G01 X21.5626 Y22.0006
G01 X21.5811 Y22.0072
G01 X21.6014 Y22.0171
G01 X21.8546 Y22.0171
G01 X21.8631 Y22.0174
G01 X21.8765 Y22.0192
G01 X21.8884 Y22.0223
G01 X21.8976 Y22.0256
G01 X21.9054 Y22.0292
G01 X21.9160 Y22.0354
G01 X21.9259 Y22.0426
G01 X21.9341 Y22.0500
G01 X21.9415 Y22.0582
G01 X21.9481 Y22.0671
G01 X21.9538 Y22.0765
G01 X21.9585 Y22.0865
G01 X21.9622 Y22.0969
G01 X21.9649 Y22.1076
G01 X21.9665 Y22.1185
G01 X21.9670 Y22.1283
G01 X21.9671 Y22.2546
G01 X21.9665 Y22.2656
G01 X21.9649 Y22.2765
G01 X21.9614 Y22.2896
G01 X21.9585 Y22.2976
G01 X21.9538 Y22.3076
G01 X21.9467 Y22.3191
G01 X21.9415 Y22.3259
G01 X21.9358 Y22.3323
G01 X21.9259 Y22.3415
G01 X21.9150 Y22.3494
G01 X21.9076 Y22.3538
G01 X21.8987 Y22.3580
G01 X21.8849 Y22.3629
G01 X21.8765 Y22.3649
G01 X21.8680 Y22.3662
G01 X21.8558 Y22.3670
G01 X21.6014 Y22.3671
G01 X21.5811 Y22.3769
G01 X21.5603 Y22.3842
G01 X21.5436 Y22.3883
G01 X21.5266 Y22.3909
G01 X21.5058 Y22.3921
G01 X16.6921 Y22.3921
G01 X16.6725 Y22.3912
G01 X16.6530 Y22.3883
G01 X16.6340 Y22.3835
G01 X16.6178 Y22.3778
G01 X16.5977 Y22.3685
G01 X16.5789 Y22.3570
G01 X16.5651 Y22.3467
G01 X16.5515 Y22.3344
G01 X15.8006 Y21.5835
G01 X15.7859 Y21.5671
G01 X15.7757 Y21.5532
G01 X15.7668 Y21.5385
G01 X15.7572 Y21.5186
G01 X15.7499 Y21.4978
G01 X15.7458 Y21.4811
G01 X15.7433 Y21.4641
G01 X15.7420 Y21.4433
G01 X15.7420 Y20.8546
G01 X15.4858 Y20.8546
G01 X15.4595 Y20.8533
G01 X15.4261 Y20.8484
G01 X15.4005 Y20.8419
G01 X15.3745 Y20.8327
G01 X15.3473 Y20.8199
G01 X15.3206 Y20.8036
G01 X15.2995 Y20.7879
G01 X15.2799 Y20.7702
G01 X15.2603 Y20.7490
G01 X15.2416 Y20.7240
G01 X15.2267 Y20.6993
G01 X15.2144 Y20.6732
G01 X15.2055 Y20.6484
G01 X15.2037 Y20.6422
G01 X11.8866 Y20.6422
G01 X11.8786 Y20.6734
G01 X11.8697 Y20.6982
G01 X11.8574 Y20.7243
G01 X11.8411 Y20.7510
G01 X11.8254 Y20.7722
G01 X11.8060 Y20.7935
G01 X11.7847 Y20.8129
G01 X11.7635 Y20.8286
G01 X11.7368 Y20.8449
G01 X11.7084 Y20.8581
G01 X11.6836 Y20.8669
G01 X11.6556 Y20.8739
G01 X11.6271 Y20.8781
G01 X11.5983 Y20.8796
G01 X10.6858 Y20.8796
G01 X10.6558 Y20.8780
G01 X10.6285 Y20.8739
G01 X10.6029 Y20.8676
G01 X10.5734 Y20.8572
G01 X10.5473 Y20.8449
G01 X10.5247 Y20.8314
G01 X10.4995 Y20.8129
G01 X10.4764 Y20.7917
G01 X10.4587 Y20.7722
G01 X10.4416 Y20.7490
G01 X10.4256 Y20.7221
G01 X10.4144 Y20.6982
G01 X10.4051 Y20.6723
G01 X10.3973 Y20.6407
G01 X10.3935 Y20.6146
G01 X10.3921 Y20.5870
G01 X10.3921 Y20.0983
G01 X10.3938 Y20.0671
G00 Z2.0000
G00 X15.1048 Y18.1539
G01 F60.00
G01 Z-0.0500
G01 F120.00
G01 X15.1034 Y18.1676
G01 X15.1021 Y18.1983
G01 X15.1021 Y18.6892
G01 X15.1039 Y18.7234
G01 X15.1083 Y18.7539
G01 X15.1109 Y18.7674
G01 X15.1186 Y18.7972
G01 X15.1288 Y18.8263
G01 X15.1341 Y18.8390
G01 X15.1474 Y18.8667
G01 X15.1631 Y18.8932
G01 X15.1707 Y18.9046
G01 X15.1892 Y18.9293
G01 X15.2145 Y18.9572
G01 X15.2424 Y18.9825
G01 X15.2670 Y19.0009
G01 X15.2784 Y19.0086
G01 X15.3049 Y19.0243
G01 X15.3327 Y19.0376
G01 X15.3422 Y19.0416
G01 X15.3711 Y19.0520
G01 X11.7738 Y19.0520
G01 X11.7852 Y19.0459
G01 X11.8115 Y19.0299
G01 X11.8418 Y19.0075
G01 X11.8697 Y18.9822
G01 X11.8905 Y18.9595
G01 X11.8971 Y18.9516
G01 X11.9154 Y18.9268
G01 X11.9211 Y18.9182
G01 X11.9368 Y18.8917
G01 X11.9501 Y18.8640
G01 X11.9541 Y18.8545
G01 X11.9645 Y18.8255
G01 X11.9674 Y18.8156
G01 X11.9740 Y18.7890
G01 X11.9759 Y18.7789
G01 X11.9802 Y18.7484
G01 X11.9821 Y18.7108
G01 X11.9821 Y18.2233
G01 X11.9807 Y18.1926
G01 X11.9797 Y18.1812
G01 X16.3287 Y13.8322
G01 X22.2805 Y13.8322
G01 X22.8019 Y14.3537
G01 X22.8019 Y15.1921
G01 X22.8038 Y15.2303
G01 X22.8094 Y15.2682
G01 X22.8169 Y15.2987
G01 X22.8209 Y15.3118
G01 X22.8292 Y15.3349
G01 X22.8330 Y15.3445
G01 X22.8480 Y15.3760
G01 X22.8658 Y15.4059
G01 X22.8716 Y15.4144
G01 X22.8883 Y15.4369
G01 X22.9020 Y15.4525
G01 X22.9020 Y16.8920
G01 X22.2472 Y16.2369
G01 X22.2313 Y16.2223
G01 X22.2207 Y16.2136
G01 X22.2003 Y16.1990
G01 X22.1788 Y16.1862
G01 X22.1531 Y16.1741
G01 X22.1263 Y16.1645
G01 X22.1054 Y16.1591
G01 X22.0953 Y16.1569
G01 X22.0696 Y16.1533
G01 X22.0696 Y15.9858
G01 X22.0677 Y15.9482
G01 X22.0622 Y15.9109
G01 X22.0549 Y15.8810
G01 X22.0509 Y15.8679
G01 X22.0428 Y15.8454
G01 X22.0390 Y15.8358
G01 X22.0243 Y15.8049
G01 X22.0049 Y15.7726
G01 X21.9825 Y15.7424
G01 X21.9572 Y15.7145
G01 X21.9293 Y15.6892
G01 X21.8990 Y15.6667
G01 X21.8667 Y15.6474
G01 X21.8358 Y15.6326
G01 X21.8263 Y15.6288
G01 X21.7972 Y15.6186
G01 X21.7607 Y15.6094
G01 X21.7234 Y15.6039
G01 X21.6892 Y15.6021
G01 X21.1949 Y15.6021
G01 X21.1607 Y15.6039
G01 X21.1302 Y15.6083
G01 X21.1167 Y15.6109
G01 X21.0869 Y15.6186
G01 X21.0579 Y15.6288
G01 X21.0452 Y15.6341
G01 X21.0174 Y15.6474
G01 X20.9851 Y15.6667
G01 X20.9549 Y15.6892
G01 X20.9319 Y15.7097
G01 X20.9222 Y15.7194
G01 X20.9017 Y15.7424
G01 X20.8832 Y15.7670
G01 X20.8756 Y15.7784
G01 X20.8599 Y15.8049
G01 X20.8438 Y15.8390
G01 X20.8311 Y15.8744
G01 X20.8234 Y15.9042
G01 X20.8208 Y15.9177
G01 X20.8173 Y15.9414
G01 X20.8161 Y15.9516
G01 X20.8146 Y15.9858
G01 X20.8146 Y16.8983
G01 X20.8159 Y16.9291
G01 X20.8168 Y16.9393
G01 X20.8219 Y16.9732
G01 X20.8311 Y17.0097
G01 X20.8438 Y17.0452
G01 X20.8599 Y17.0792
G01 X20.8792 Y17.1115
G01 X20.9017 Y17.1418
G01 X20.9270 Y17.1697
G01 X20.9497 Y17.1905
G01 X20.9575 Y17.1971
G01 X20.9851 Y17.2174
G01 X21.0114 Y17.2334
G01 X21.0235 Y17.2398
G01 X21.0515 Y17.2529
G01 X21.0869 Y17.2655
G01 X21.1167 Y17.2732
G01 X21.1302 Y17.2759
G01 X21.1539 Y17.2794
G01 X21.1641 Y17.2805
G01 X21.1983 Y17.2821
G01 X21.6892 Y17.2820
G01 X21.7200 Y17.2805
G01 X21.7302 Y17.2794
G01 X21.7607 Y17.2747
G01 X21.7939 Y17.2665
G01 X21.8037 Y17.2634
G01 X21.8295 Y17.2541
G01 X21.8390 Y17.2501
G01 X21.8606 Y17.2398
G01 X21.8697 Y17.2351
G01 X21.8932 Y17.2211
G01 X21.9046 Y17.2134
G01 X21.9293 Y17.1950
G01 X21.9572 Y17.1697
G01 X21.9825 Y17.1418
G01 X22.0029 Y17.1143
G01 X22.0086 Y17.1057
G01 X22.0226 Y17.0822
G01 X22.0273 Y17.0731
G01 X22.0376 Y17.0515
G01 X22.0428 Y17.0388
G01 X22.0509 Y17.0162
G01 X22.0540 Y17.0064
G01 X22.0622 Y16.9732
G01 X22.0673 Y16.9393
G01 X22.0682 Y16.9291
G01 X22.0694 Y16.9052
G01 X22.0696 Y16.8798
G01 X22.4020 Y17.2122
G01 X22.4020 Y19.7920
G01 X21.7472 Y19.1369
G01 X21.7313 Y19.1223
G01 X21.7207 Y19.1136
G01 X21.7003 Y19.0990
G01 X21.6788 Y19.0862
G01 X21.6562 Y19.0754
G01 X21.6328 Y19.0666
G01 X21.6196 Y19.0626
G01 X21.5987 Y19.0576
G01 X21.5739 Y19.0538
G01 X21.5636 Y19.0529
G01 X21.5421 Y19.0520
G01 X16.5130 Y19.0520
G01 X16.5420 Y19.0416
G01 X16.5515 Y19.0376
G01 X16.5792 Y19.0243
G01 X16.6057 Y19.0086
G01 X16.6171 Y19.0009
G01 X16.6418 Y18.9825
G01 X16.6697 Y18.9572
G01 X16.6950 Y18.9293
G01 X16.7134 Y18.9046
G01 X16.7211 Y18.8932
G01 X16.7368 Y18.8667
G01 X16.7501 Y18.8390
G01 X16.7553 Y18.8263
G01 X16.7655 Y18.7972
G01 X16.7732 Y18.7674
G01 X16.7759 Y18.7539
G01 X16.7802 Y18.7234
G01 X16.7820 Y18.6892
G01 X16.7821 Y18.1983
G01 X16.7802 Y18.1607
G01 X16.7747 Y18.1234
G01 X16.7655 Y18.0869
G01 X16.7529 Y18.0515
G01 X16.7368 Y18.0174
G01 X16.7174 Y17.9851
G01 X16.6950 Y17.9549
G01 X16.6697 Y17.9270
G01 X16.6470 Y17.9062
G01 X16.6391 Y17.8995
G01 X16.6115 Y17.8792
G01 X16.5792 Y17.8599
G01 X16.5452 Y17.8438
G01 X16.5162 Y17.8332
G01 X16.5064 Y17.8301
G01 X16.4732 Y17.8219
G01 X16.4359 Y17.8164
G01 X16.4017 Y17.8146
G01 X16.3322 Y17.8146
G01 X16.3322 Y17.1037
G01 X16.6037 Y16.8322
G01 X18.9396 Y16.8322
G01 X18.9396 Y16.9018
G01 X18.9409 Y16.9291
G01 X18.9423 Y16.9427
G01 X18.9469 Y16.9732
G01 X18.9561 Y17.0097
G01 X18.9663 Y17.0388
G01 X18.9716 Y17.0515
G01 X18.9818 Y17.0731
G01 X18.9865 Y17.0822
G01 X19.0042 Y17.1115
G01 X19.0267 Y17.1418
G01 X19.0520 Y17.1697
G01 X19.0747 Y17.1905
G01 X19.0825 Y17.1971
G01 X19.1045 Y17.2134
G01 X19.1159 Y17.2211
G01 X19.1424 Y17.2368
G01 X19.1765 Y17.2529
G01 X19.2119 Y17.2655
G01 X19.2484 Y17.2747
G01 X19.2857 Y17.2802
G01 X19.3233 Y17.2821
G01 X19.8177 Y17.2819
G01 X19.8484 Y17.2802
G01 X19.8857 Y17.2747
G01 X19.9222 Y17.2655
G01 X19.9577 Y17.2529
G01 X19.9917 Y17.2368
G01 X20.0182 Y17.2211
G01 X20.0296 Y17.2134
G01 X20.0543 Y17.1950
G01 X20.0772 Y17.1744
G01 X20.0869 Y17.1647
G01 X20.1075 Y17.1418
G01 X20.1259 Y17.1171
G01 X20.1336 Y17.1057
G01 X20.1493 Y17.0792
G01 X20.1626 Y17.0515
G01 X20.1678 Y17.0388
G01 X20.1780 Y17.0097
G01 X20.1857 Y16.9799
G01 X20.1878 Y16.9698
G01 X20.1927 Y16.9359
G01 X20.1946 Y16.8983
G01 X20.1944 Y15.9789
G01 X20.1927 Y15.9482
G01 X20.1872 Y15.9109
G01 X20.1780 Y15.8744
G01 X20.1678 Y15.8454
G01 X20.1626 Y15.8327
G01 X20.1508 Y15.8080
G01 X20.1459 Y15.7989
G01 X20.1299 Y15.7726
G01 X20.1075 Y15.7424
G01 X20.0822 Y15.7145
G01 X20.0595 Y15.6937
G01 X20.0516 Y15.6870
G01 X20.0296 Y15.6707
G01 X20.0182 Y15.6631
G01 X19.9917 Y15.6474
G01 X19.9577 Y15.6313
G01 X19.9222 Y15.6186
G01 X19.8890 Y15.6101
G01 X19.8789 Y15.6083
G01 X19.8484 Y15.6039
G01 X19.8142 Y15.6021
G01 X19.3199 Y15.6021
G01 X19.2857 Y15.6039
G01 X19.2552 Y15.6083
G01 X19.2451 Y15.6101
G01 X19.2185 Y15.6168
G01 X19.2086 Y15.6196
G01 X19.1797 Y15.6300
G01 X19.1702 Y15.6341
G01 X19.1424 Y15.6474
G01 X19.1101 Y15.6667
G01 X19.0799 Y15.6892
G01 X19.0569 Y15.7097
G01 X19.0472 Y15.7194
G01 X19.0312 Y15.7372
G01 X19.0245 Y15.7450
G01 X19.0042 Y15.7726
G01 X18.9865 Y15.8019
G01 X18.9818 Y15.8110
G01 X18.9716 Y15.8327
G01 X18.9663 Y15.8454
G01 X18.9561 Y15.8744
G01 X18.9469 Y15.9109
G01 X18.9423 Y15.9414
G01 X18.9409 Y15.9551
G01 X18.9396 Y15.9824
G01 X18.9396 Y16.0519
G01 X16.4386 Y16.0520
G01 X16.4072 Y16.0535
G01 X16.3970 Y16.0547
G01 X16.3660 Y16.0594
G01 X16.3354 Y16.0669
G01 X16.3223 Y16.0709
G01 X16.2928 Y16.0816
G01 X16.2582 Y16.0980
G01 X16.2253 Y16.1177
G01 X16.2000 Y16.1363
G01 X16.1894 Y16.1450
G01 X16.1662 Y16.1662
G01 X15.6638 Y16.6687
G01 X15.6405 Y16.6946
G01 X15.6216 Y16.7197
G01 X15.6158 Y16.7282
G01 X15.5997 Y16.7551
G01 X15.5949 Y16.7643
G01 X15.5816 Y16.7928
G01 X15.5709 Y16.8223
G01 X15.5678 Y16.8321
G01 X15.5601 Y16.8626
G01 X15.5583 Y16.8727
G01 X15.5538 Y16.9038
G01 X15.5521 Y16.9352
G01 X15.5519 Y17.8146
G01 X15.4824 Y17.8146
G01 X15.4482 Y17.8164
G01 X15.4109 Y17.8219
G01 X15.3777 Y17.8301
G01 X15.3679 Y17.8332
G01 X15.3390 Y17.8438
G01 X15.3080 Y17.8583
G01 X15.2989 Y17.8633
G01 X15.2755 Y17.8774
G01 X15.2670 Y17.8832
G01 X15.2478 Y17.8974
G01 X15.2397 Y17.9039
G01 X15.2169 Y17.9246
G01 X15.2097 Y17.9319
G01 X15.1914 Y17.9522
G01 X15.1849 Y17.9603
G01 X15.1667 Y17.9851
G01 X15.1490 Y18.0144
G01 X15.1443 Y18.0235
G01 X15.1313 Y18.0515
G01 X15.1196 Y18.0836
G01 X15.1168 Y18.0935
G01 X15.1101 Y18.1201
G01 X15.1083 Y18.1302
G01 X15.1048 Y18.1539
G00 Z2.0000
G00 X15.1938 Y18.1671
G01 F60.00
G01 Z-0.0500
G01 F120.00
G01 X15.1977 Y18.1410
G01 X15.2041 Y18.1154
G01 X15.2135 Y18.0882
G01 X15.2267 Y18.0598
G01 X15.2416 Y18.0351
G01 X15.2587 Y18.0120
G01 X15.2799 Y17.9889
G01 X15.2995 Y17.9712
G01 X15.3206 Y17.9555
G01 X15.3452 Y17.9405
G01 X15.3734 Y17.9269
G01 X15.4005 Y17.9172
G01 X15.4285 Y17.9102
G01 X15.4558 Y17.9061
G01 X15.4858 Y17.9046
G01 X15.6419 Y17.9046
G01 X15.6420 Y16.9408
G01 X15.6434 Y16.9126
G01 X15.6477 Y16.8835
G01 X15.6549 Y16.8549
G01 X15.6643 Y16.8283
G01 X15.6774 Y16.8006
G01 X15.6925 Y16.7753
G01 X15.7101 Y16.7517
G01 X15.7298 Y16.7298
G01 X16.2307 Y16.2290
G01 X16.2517 Y16.2101
G01 X16.2753 Y16.1925
G01 X16.3006 Y16.1774
G01 X16.3250 Y16.1658
G01 X16.3549 Y16.1549
G01 X16.3835 Y16.1477
G01 X16.4126 Y16.1434
G01 X16.4421 Y16.1419
G01 X19.0296 Y16.1419
G01 X19.0296 Y15.9858
G01 X19.0311 Y15.9558
G01 X19.0352 Y15.9285
G01 X19.0422 Y15.9005
G01 X19.0519 Y15.8734
G01 X19.0655 Y15.8452
G01 X19.0805 Y15.8206
G01 X19.0962 Y15.7995
G01 X19.1139 Y15.7799
G01 X19.1370 Y15.7587
G01 X19.1601 Y15.7416
G01 X19.1870 Y15.7256
G01 X19.2109 Y15.7144
G01 X19.2357 Y15.7055
G01 X19.2660 Y15.6977
G01 X19.2957 Y15.6934
G01 X19.3233 Y15.6921
G01 X19.8108 Y15.6921
G01 X19.8396 Y15.6935
G01 X19.8693 Y15.6980
G01 X19.8984 Y15.7055
G01 X19.9232 Y15.7144
G01 X19.9471 Y15.7256
G01 X19.9740 Y15.7416
G01 X19.9972 Y15.7587
G01 X20.0185 Y15.7781
G01 X20.0394 Y15.8014
G01 X20.0564 Y15.8247
G01 X20.0699 Y15.8473
G01 X20.0812 Y15.8712
G01 X20.0919 Y15.9005
G01 X20.0989 Y15.9285
G01 X20.1031 Y15.9570
G01 X20.1045 Y15.9846
G01 X20.1046 Y16.8983
G01 X20.1031 Y16.9271
G01 X20.0993 Y16.9532
G01 X20.0911 Y16.9859
G01 X20.0822 Y17.0107
G01 X20.0699 Y17.0368
G01 X20.0536 Y17.0635
G01 X20.0379 Y17.0847
G01 X20.0185 Y17.1060
G01 X19.9972 Y17.1254
G01 X19.9760 Y17.1411
G01 X19.9493 Y17.1574
G01 X19.9209 Y17.1706
G01 X19.8961 Y17.1794
G01 X19.8705 Y17.1859
G01 X19.8396 Y17.1906
G01 X19.8108 Y17.1921
G01 X19.3209 Y17.1920
G01 X19.2921 Y17.1903
G01 X19.2660 Y17.1864
G01 X19.2404 Y17.1801
G01 X19.2109 Y17.1697
G01 X19.1848 Y17.1574
G01 X19.1601 Y17.1426
G01 X19.1370 Y17.1254
G01 X19.1156 Y17.1060
G01 X19.0978 Y17.0865
G01 X19.0778 Y17.0594
G01 X19.0642 Y17.0368
G01 X19.0515 Y17.0096
G01 X19.0422 Y16.9836
G01 X19.0357 Y16.9580
G01 X19.0309 Y16.9259
G01 X19.0296 Y16.8983
G01 X19.0296 Y16.7422
G01 X16.5664 Y16.7422
G01 X16.2422 Y17.0664
G01 X16.2422 Y17.9046
G01 X16.3983 Y17.9046
G01 X16.4283 Y17.9061
G01 X16.4556 Y17.9102
G01 X16.4836 Y17.9172
G01 X16.5107 Y17.9269
G01 X16.5389 Y17.9405
G01 X16.5635 Y17.9555
G01 X16.5847 Y17.9712
G01 X16.6042 Y17.9889
G01 X16.6254 Y18.0120
G01 X16.6426 Y18.0351
G01 X16.6574 Y18.0598
G01 X16.6706 Y18.0882
G01 X16.6801 Y18.1154
G01 X16.6864 Y18.1410
G01 X16.6903 Y18.1671
G01 X16.6921 Y18.1983
G01 X16.6921 Y18.6858
G01 X16.6906 Y18.7146
G01 X16.6862 Y18.7443
G01 X16.6786 Y18.7734
G01 X16.6697 Y18.7982
G01 X16.6585 Y18.8221
G01 X16.6426 Y18.8490
G01 X16.6254 Y18.8722
G01 X16.6060 Y18.8935
G01 X16.5827 Y18.9144
G01 X16.5594 Y18.9314
G01 X16.5368 Y18.9449
G01 X16.5130 Y18.9562
G01 X16.4836 Y18.9669
G01 X16.4556 Y18.9739
G01 X16.4271 Y18.9781
G01 X16.3995 Y18.9795
G01 X15.4858 Y18.9796
G01 X15.4546 Y18.9778
G01 X15.4285 Y18.9739
G01 X15.4029 Y18.9676
G01 X15.3734 Y18.9572
G01 X15.3452 Y18.9437
G01 X15.3226 Y18.9301
G01 X15.2976 Y18.9113
G01 X15.2764 Y18.8917
G01 X15.2587 Y18.8722
G01 X15.2430 Y18.8510
G01 X15.2267 Y18.8243
G01 X15.2144 Y18.7982
G01 X15.2047 Y18.7711
G01 X15.1977 Y18.7431
G01 X15.1935 Y18.7146
G01 X15.1921 Y18.6858
G01 X15.1921 Y18.1983
G01 X15.1938 Y18.1671
G00 Z2.0000
G00 X20.9063 Y15.9546
G01 F60.00
G01 Z-0.0500
G01 F120.00
G01 X20.9102 Y15.9285
G01 X20.9166 Y15.9029
G01 X20.9279 Y15.8712
G01 X20.9392 Y15.8473
G01 X20.9541 Y15.8226
G01 X20.9712 Y15.7995
G01 X20.9889 Y15.7799
G01 X21.0139 Y15.7572
G01 X21.0351 Y15.7416
G01 X21.0598 Y15.7267
G01 X21.0882 Y15.7135
G01 X21.1130 Y15.7047
G01 X21.1386 Y15.6982
G01 X21.1695 Y15.6935
G01 X21.1983 Y15.6921
G01 X21.6883 Y15.6921
G01 X21.7170 Y15.6938
G01 X21.7431 Y15.6977
G01 X21.7687 Y15.7041
G01 X21.7982 Y15.7144
G01 X21.8243 Y15.7267
G01 X21.8490 Y15.7416
G01 X21.8722 Y15.7587
G01 X21.8935 Y15.7781
G01 X21.9129 Y15.7995
G01 X21.9301 Y15.8226
G01 X21.9449 Y15.8473
G01 X21.9572 Y15.8734
G01 X21.9669 Y15.9005
G01 X21.9743 Y15.9309
G01 X21.9781 Y15.9570
G01 X21.9795 Y15.9834
G01 X21.9796 Y16.2420
G01 X22.0445 Y16.2420
G01 X22.0617 Y16.2430
G01 X22.0835 Y16.2464
G01 X22.1001 Y16.2506
G01 X22.1163 Y16.2563
G01 X22.1342 Y16.2645
G01 X22.1532 Y16.2757
G01 X22.1699 Y16.2882
G01 X22.1835 Y16.3006
G01 X22.8344 Y16.9515
G01 X22.8482 Y16.9671
G01 X22.8584 Y16.9809
G01 X22.8673 Y16.9956
G01 X22.8769 Y17.0155
G01 X22.8835 Y17.0340
G01 X22.8887 Y17.0554
G01 X22.8912 Y17.0725
G01 X22.8921 Y17.0921
G01 X22.8921 Y21.5058
G01 X22.8909 Y21.5266
G01 X22.8883 Y21.5436
G01 X22.8842 Y21.5603
G01 X22.8769 Y21.5811
G01 X22.8671 Y21.6014
G01 X22.8671 Y21.8546
G01 X22.8665 Y21.8656
G01 X22.8646 Y21.8777
G01 X22.8622 Y21.8872
G01 X22.8594 Y21.8953
G01 X22.8538 Y21.9076
G01 X22.8467 Y21.9191
G01 X22.8415 Y21.9259
G01 X22.8358 Y21.9323
G01 X22.8259 Y21.9415
G01 X22.8150 Y21.9494
G01 X22.8076 Y21.9538
G01 X22.7999 Y21.9575
G01 X22.7872 Y21.9622
G01 X22.7741 Y21.9653
G01 X22.7656 Y21.9665
G01 X22.7558 Y21.9670
G01 X22.6283 Y21.9670
G01 X22.6185 Y21.9665
G01 X22.6088 Y21.9651
G01 X22.5969 Y21.9622
G01 X22.5865 Y21.9585
G01 X22.5765 Y21.9538
G01 X22.5671 Y21.9481
G01 X22.5582 Y21.9415
G01 X22.5500 Y21.9341
G01 X22.5426 Y21.9259
G01 X22.5360 Y21.9171
G01 X22.5292 Y21.9054
G01 X22.5256 Y21.8976
G01 X22.5227 Y21.8896
G01 X22.5192 Y21.8765
G01 X22.5174 Y21.8631
G01 X22.5171 Y21.8546
G01 X22.5171 Y21.6014
G01 X22.5072 Y21.5811
G01 X22.5006 Y21.5626
G01 X22.4958 Y21.5436
G01 X22.4928 Y21.5230
G01 X22.4920 Y21.5046
G01 X22.4920 Y17.1749
G01 X21.9796 Y16.6625
G01 X21.9795 Y16.9008
G01 X21.9781 Y16.9271
G01 X21.9743 Y16.9532
G01 X21.9665 Y16.9848
G01 X21.9572 Y17.0107
G01 X21.9449 Y17.0368
G01 X21.9301 Y17.0615
G01 X21.9129 Y17.0847
G01 X21.8935 Y17.1060
G01 X21.8722 Y17.1254
G01 X21.8490 Y17.1426
G01 X21.8221 Y17.1585
G01 X21.7982 Y17.1697
G01 X21.7711 Y17.1794
G01 X21.7431 Y17.1864
G01 X21.7122 Y17.1908
G01 X21.6858 Y17.1921
G01 X21.1959 Y17.1920
G01 X21.1695 Y17.1906
G01 X21.1410 Y17.1864
G01 X21.1130 Y17.1794
G01 X21.0882 Y17.1706
G01 X21.0577 Y17.1562
G01 X21.0351 Y17.1426
G01 X21.0129 Y17.1262
G01 X20.9906 Y17.1060
G01 X20.9712 Y17.0847
G01 X20.9541 Y17.0615
G01 X20.9392 Y17.0368
G01 X20.9269 Y17.0107
G01 X20.9172 Y16.9836
G01 X20.9102 Y16.9556
G01 X20.9060 Y16.9271
G01 X20.9046 Y16.8983
G01 X20.9046 Y15.9858
G01 X20.9063 Y15.9546
G00 Z2.0000
G00 X23.5179 Y21.1411
G01 F60.00
G01 Z-0.0500
G01 F120.00
G01 X23.5192 Y21.1326
G01 X23.5219 Y21.1219
G01 X23.5256 Y21.1115
G01 X23.5298 Y21.1026
G01 X23.5354 Y21.0931
G01 X23.5411 Y21.0851
G01 X23.5509 Y21.0742
G01 X23.5582 Y21.0676
G01 X23.5671 Y21.0610
G01 X23.5765 Y21.0553
G01 X23.5854 Y21.0511
G01 X23.5957 Y21.0473
G01 X23.6052 Y21.0448
G01 X23.6210 Y21.0424
G01 X23.6296 Y21.0421
G01 X23.7558 Y21.0421
G01 X23.7656 Y21.0426
G01 X23.7741 Y21.0438
G01 X23.7884 Y21.0473
G01 X23.7999 Y21.0516
G01 X23.8076 Y21.0553
G01 X23.8150 Y21.0597
G01 X23.8250 Y21.0668
G01 X23.8341 Y21.0750
G01 X23.8423 Y21.0842
G01 X23.8494 Y21.0941
G01 X23.8538 Y21.1015
G01 X23.8575 Y21.1093
G01 X23.8618 Y21.1207
G01 X23.8653 Y21.1350
G01 X23.8665 Y21.1435
G01 X23.8671 Y21.1546
G01 X23.8671 Y21.8546
G01 X23.8665 Y21.8656
G01 X23.8649 Y21.8765
G01 X23.8629 Y21.8849
G01 X23.8585 Y21.8976
G01 X23.8538 Y21.9076
G01 X23.8494 Y21.9150
G01 X23.8415 Y21.9259
G01 X23.8341 Y21.9341
G01 X23.8278 Y21.9399
G01 X23.8171 Y21.9481
G01 X23.8054 Y21.9549
G01 X23.7976 Y21.9585
G01 X23.7884 Y21.9618
G01 X23.7741 Y21.9653
G01 X23.7656 Y21.9665
G01 X23.7546 Y21.9671
G01 X23.6283 Y21.9670
G01 X23.6161 Y21.9662
G01 X23.6076 Y21.9649
G01 X23.5981 Y21.9626
G01 X23.5865 Y21.9585
G01 X23.5744 Y21.9526
G01 X23.5671 Y21.9481
G01 X23.5601 Y21.9430
G01 X23.5500 Y21.9341
G01 X23.5418 Y21.9250
G01 X23.5347 Y21.9150
G01 X23.5303 Y21.9076
G01 X23.5266 Y21.8999
G01 X23.5223 Y21.8884
G01 X23.5188 Y21.8741
G01 X23.5176 Y21.8656
G01 X23.5171 Y21.8546
G01 X23.5171 Y21.1546
G01 X23.5179 Y21.1411
G00 Z2.0000
G00 X23.3932 Y22.0021
G01 F60.00
G01 Z-0.0500
G01 F120.00
G01 X23.4001 Y21.9953
G01 X23.4089 Y21.9857
G01 X23.4210 Y21.9699
G01 X23.4266 Y21.9613
G01 X23.4332 Y21.9500
G01 X23.4421 Y21.9310
G01 X23.4510 Y21.9500
G01 X23.4575 Y21.9613
G01 X23.4631 Y21.9699
G01 X23.4752 Y21.9857
G01 X23.4840 Y21.9953
G01 X23.4909 Y22.0021
G01 X23.3932 Y22.0021
G00 Z2.0000
G00 X22.8932 Y22.0021
G01 F60.00
G01 Z-0.0500
G01 F120.00
G01 X22.9001 Y21.9953
G01 X22.9089 Y21.9857
G01 X22.9210 Y21.9699
G01 X22.9266 Y21.9613
G01 X22.9332 Y21.9500
G01 X22.9421 Y21.9310
G01 X22.9510 Y21.9500
G01 X22.9575 Y21.9613
G01 X22.9631 Y21.9699
G01 X22.9752 Y21.9857
G01 X22.9840 Y21.9953
G01 X22.9909 Y22.0021
G01 X22.8932 Y22.0021
G00 Z2.0000
G00 X22.4421 Y21.9310
G01 F60.00
G01 Z-0.0500
G01 F120.00
G01 X22.4510 Y21.9500
G01 X22.4575 Y21.9613
G01 X22.4631 Y21.9699
G01 X22.4752 Y21.9857
G01 X22.4840 Y21.9953
G01 X22.4909 Y22.0021
G01 X22.3932 Y22.0021
G01 X22.4001 Y21.9953
G01 X22.4089 Y21.9857
G01 X22.4210 Y21.9699
G01 X22.4266 Y21.9613
G01 X22.4332 Y21.9500
G01 X22.4421 Y21.9310
G00 Z2.0000
G00 X22.0571 Y22.1927
G01 F60.00
G01 Z-0.0500
G01 F120.00
G01 X22.0570 Y22.1261
G01 X22.0561 Y22.1097
G01 X22.0543 Y22.0968
G01 X22.0525 Y22.0867
G01 X22.0502 Y22.0774
G01 X22.0462 Y22.0642
G01 X22.0403 Y22.0489
G01 X22.0320 Y22.0320
G01 X22.0489 Y22.0403
G01 X22.0642 Y22.0462
G01 X22.0774 Y22.0502
G01 X22.0867 Y22.0525
G01 X22.0968 Y22.0543
G01 X22.1097 Y22.0561
G01 X22.1261 Y22.0570
G01 X22.1927 Y22.0571
G01 X22.1724 Y22.0697
G01 X22.1472 Y22.0884
G01 X22.1393 Y22.0950
G01 X22.1162 Y22.1162
G01 X22.0950 Y22.1393
G01 X22.0884 Y22.1472
G01 X22.0697 Y22.1724
G01 X22.0571 Y22.1927
G00 Z2.0000
G00 X21.9606 Y22.4270
G01 F60.00
G01 Z-0.0500
G01 F120.00
G01 X21.9699 Y22.4210
G01 X21.9830 Y22.4111
G01 X21.9953 Y22.4001
G01 X22.0021 Y22.3932
G01 X22.0021 Y22.4270
G01 X21.9606 Y22.4270
G00 Z2.0000
G00 X21.9606 Y22.9571
G01 F60.00
G01 Z-0.0500
G01 F120.00
G01 X22.0021 Y22.9571
G01 X22.0021 Y22.9909
G01 X21.9953 Y22.9840
G01 X21.9830 Y22.9730
G01 X21.9699 Y22.9631
G01 X21.9606 Y22.9571
G00 Z2.0000
G00 X21.9310 Y23.4421
G01 F60.00
G01 Z-0.0500
G01 F120.00
G01 X21.9500 Y23.4332
G01 X21.9613 Y23.4266
G01 X21.9699 Y23.4210
G01 X21.9857 Y23.4089
G01 X21.9953 Y23.4001
G01 X22.0021 Y23.3932
G01 X22.0021 Y23.4909
G01 X21.9953 Y23.4840
G01 X21.9857 Y23.4752
G01 X21.9699 Y23.4631
G01 X21.9613 Y23.4575
G01 X21.9500 Y23.4510
G01 X21.9310 Y23.4421
G00 Z2.0000
G00 X22.0021 Y23.8932
G01 F60.00
G01 Z-0.0500
G01 F120.00
G01 X22.0021 Y23.9909
G01 X21.9953 Y23.9840
G01 X21.9857 Y23.9752
G01 X21.9699 Y23.9631
G01 X21.9613 Y23.9575
G01 X21.9500 Y23.9510
G01 X21.9310 Y23.9421
G01 X21.9500 Y23.9332
G01 X21.9613 Y23.9266
G01 X21.9699 Y23.9210
G01 X21.9857 Y23.9089
G01 X21.9953 Y23.9001
G01 X22.0021 Y23.8932
G00 Z2.0000
G00 X21.9310 Y24.4421
G01 F60.00
G01 Z-0.0500
G01 F120.00
G01 X21.9500 Y24.4332
G01 X21.9613 Y24.4266
G01 X21.9699 Y24.4210
G01 X21.9857 Y24.4089
G01 X21.9953 Y24.4001
G01 X22.0021 Y24.3932
G01 X22.0021 Y24.4909
G01 X21.9953 Y24.4840
G01 X21.9857 Y24.4752
G01 X21.9699 Y24.4631
G01 X21.9613 Y24.4575
G01 X21.9500 Y24.4510
G01 X21.9310 Y24.4421
G00 Z2.0000
G00 X21.0429 Y24.6161
G01 F60.00
G01 Z-0.0500
G01 F120.00
G01 X21.0442 Y24.6076
G01 X21.0469 Y24.5969
G01 X21.0506 Y24.5865
G01 X21.0542 Y24.5787
G01 X21.0624 Y24.5651
G01 X21.0676 Y24.5582
G01 X21.0750 Y24.5500
G01 X21.0832 Y24.5426
G01 X21.0901 Y24.5374
G01 X21.1037 Y24.5292
G01 X21.1115 Y24.5256
G01 X21.1219 Y24.5219
G01 X21.1326 Y24.5192
G01 X21.1423 Y24.5177
G01 X21.1546 Y24.5171
G01 X21.8546 Y24.5171
G01 X21.8656 Y24.5176
G01 X21.8753 Y24.5190
G01 X21.8884 Y24.5223
G01 X21.8976 Y24.5256
G01 X21.9054 Y24.5292
G01 X21.9171 Y24.5360
G01 X21.9269 Y24.5434
G01 X21.9341 Y24.5500
G01 X21.9399 Y24.5563
G01 X21.9481 Y24.5671
G01 X21.9549 Y24.5787
G01 X21.9585 Y24.5865
G01 X21.9614 Y24.5946
G01 X21.9651 Y24.6088
G01 X21.9665 Y24.6185
G01 X21.9670 Y24.6283
G01 X21.9670 Y24.7558
G01 X21.9665 Y24.7656
G01 X21.9651 Y24.7753
G01 X21.9614 Y24.7896
G01 X21.9585 Y24.7976
G01 X21.9538 Y24.8076
G01 X21.9481 Y24.8171
G01 X21.9430 Y24.8240
G01 X21.9323 Y24.8358
G01 X21.9259 Y24.8415
G01 X21.9171 Y24.8481
G01 X21.9076 Y24.8538
G01 X21.8999 Y24.8575
G01 X21.8849 Y24.8629
G01 X21.8765 Y24.8649
G01 X21.8656 Y24.8665
G01 X21.8546 Y24.8671
G01 X21.1546 Y24.8671
G01 X21.1435 Y24.8665
G01 X21.1338 Y24.8651
G01 X21.1219 Y24.8622
G01 X21.1093 Y24.8575
G01 X21.1015 Y24.8538
G01 X21.0941 Y24.8494
G01 X21.0832 Y24.8415
G01 X21.0733 Y24.8323
G01 X21.0676 Y24.8259
G01 X21.0624 Y24.8191
G01 X21.0553 Y24.8076
G01 X21.0497 Y24.7953
G01 X21.0469 Y24.7872
G01 X21.0442 Y24.7765
G01 X21.0426 Y24.7656
G01 X21.0421 Y24.7570
G01 X21.0421 Y24.6296
G01 X21.0429 Y24.6161
G00 Z2.0000
G00 X21.0429 Y24.1161
G01 F60.00
G01 Z-0.0500
G01 F120.00
G01 X21.0442 Y24.1076
G01 X21.0469 Y24.0969
G01 X21.0506 Y24.0865
G01 X21.0542 Y24.0787
G01 X21.0624 Y24.0651
G01 X21.0676 Y24.0582
G01 X21.0750 Y24.0500
G01 X21.0832 Y24.0426
G01 X21.0901 Y24.0374
G01 X21.1037 Y24.0292
G01 X21.1115 Y24.0256
G01 X21.1219 Y24.0219
G01 X21.1326 Y24.0192
G01 X21.1423 Y24.0177
G01 X21.1546 Y24.0171
G01 X21.8546 Y24.0171
G01 X21.8656 Y24.0176
G01 X21.8753 Y24.0190
G01 X21.8884 Y24.0223
G01 X21.8976 Y24.0256
G01 X21.9054 Y24.0292
G01 X21.9171 Y24.0360
G01 X21.9269 Y24.0434
G01 X21.9341 Y24.0500
G01 X21.9399 Y24.0563
G01 X21.9481 Y24.0671
G01 X21.9549 Y24.0787
G01 X21.9585 Y24.0865
G01 X21.9614 Y24.0946
G01 X21.9651 Y24.1088
G01 X21.9665 Y24.1185
G01 X21.9670 Y24.1283
G01 X21.9670 Y24.2558
G01 X21.9665 Y24.2656
G01 X21.9651 Y24.2753
G01 X21.9614 Y24.2896
G01 X21.9585 Y24.2976
G01 X21.9538 Y24.3076
G01 X21.9481 Y24.3171
G01 X21.9430 Y24.3240
G01 X21.9323 Y24.3358
G01 X21.9259 Y24.3415
G01 X21.9171 Y24.3481
G01 X21.9076 Y24.3538
G01 X21.8999 Y24.3575
G01 X21.8849 Y24.3629
G01 X21.8765 Y24.3649
G01 X21.8656 Y24.3665
G01 X21.8546 Y24.3671
G01 X21.1546 Y24.3671
G01 X21.1435 Y24.3665
G01 X21.1338 Y24.3651
G01 X21.1219 Y24.3622
G01 X21.1093 Y24.3575
G01 X21.1015 Y24.3538
G01 X21.0941 Y24.3494
G01 X21.0832 Y24.3415
G01 X21.0733 Y24.3323
G01 X21.0676 Y24.3259
G01 X21.0624 Y24.3191
G01 X21.0553 Y24.3076
G01 X21.0497 Y24.2953
G01 X21.0469 Y24.2872
G01 X21.0442 Y24.2765
G01 X21.0426 Y24.2656
G01 X21.0421 Y24.2570
G01 X21.0421 Y24.1296
G01 X21.0429 Y24.1161
G00 Z2.0000
G00 X22.8932 Y24.8821
G01 F60.00
G01 Z-0.0500
G01 F120.00
G01 X22.9909 Y24.8821
G01 X22.9840 Y24.8888
G01 X22.9752 Y24.8985
G01 X22.9631 Y24.9142
G01 X22.9575 Y24.9229
G01 X22.9510 Y24.9341
G01 X22.9421 Y24.9531
G01 X22.9332 Y24.9341
G01 X22.9266 Y24.9229
G01 X22.9210 Y24.9142
G01 X22.9089 Y24.8985
G01 X22.9001 Y24.8888
G01 X22.8932 Y24.8821
G00 Z2.0000
G00 X23.3932 Y24.8821
G01 F60.00
G01 Z-0.0500
G01 F120.00
G01 X23.4909 Y24.8821
G01 X23.4840 Y24.8888
G01 X23.4752 Y24.8985
G01 X23.4631 Y24.9142
G01 X23.4575 Y24.9229
G01 X23.4510 Y24.9341
G01 X23.4421 Y24.9531
G01 X23.4332 Y24.9341
G01 X23.4266 Y24.9229
G01 X23.4210 Y24.9142
G01 X23.4089 Y24.8985
G01 X23.4001 Y24.8888
G01 X23.3932 Y24.8821
G00 Z2.0000
G00 X23.8932 Y24.8821
G01 F60.00
G01 Z-0.0500
G01 F120.00
G01 X23.9909 Y24.8821
G01 X23.9840 Y24.8888
G01 X23.9752 Y24.8985
G01 X23.9631 Y24.9142
G01 X23.9575 Y24.9229
G01 X23.9510 Y24.9341
G01 X23.9421 Y24.9531
G01 X23.9332 Y24.9341
G01 X23.9266 Y24.9229
G01 X23.9210 Y24.9142
G01 X23.9089 Y24.8985
G01 X23.9001 Y24.8888
G01 X23.8932 Y24.8821
G00 Z2.0000
G00 X24.3932 Y24.8821
G01 F60.00
G01 Z-0.0500
G01 F120.00
G01 X24.4909 Y24.8821
G01 X24.4840 Y24.8888
G01 X24.4752 Y24.8985
G01 X24.4631 Y24.9142
G01 X24.4575 Y24.9229
G01 X24.4510 Y24.9341
G01 X24.4421 Y24.9531
G01 X24.4332 Y24.9341
G01 X24.4266 Y24.9229
G01 X24.4210 Y24.9142
G01 X24.4089 Y24.8985
G01 X24.4001 Y24.8888
G01 X24.3932 Y24.8821
G00 Z2.0000
G00 X24.6915 Y24.8271
G01 F60.00
G01 Z-0.0500
G01 F120.00
G01 X24.7117 Y24.8145
G01 X24.7369 Y24.7958
G01 X24.7448 Y24.7891
G01 X24.7680 Y24.7680
G01 X24.7891 Y24.7448
G01 X24.7958 Y24.7369
G01 X24.8145 Y24.7117
G01 X24.8271 Y24.6915
G01 X24.8271 Y24.7580
G01 X24.8280 Y24.7744
G01 X24.8298 Y24.7873
G01 X24.8317 Y24.7974
G01 X24.8339 Y24.8067
G01 X24.8379 Y24.8199
G01 X24.8438 Y24.8352
G01 X24.8521 Y24.8521
G01 X24.8352 Y24.8438
G01 X24.8199 Y24.8379
G01 X24.8067 Y24.8339
G01 X24.7974 Y24.8317
G01 X24.7873 Y24.8298
G01 X24.7744 Y24.8280
G01 X24.7580 Y24.8271
G01 X24.6915 Y24.8271
G00 Z2.0000
G00 X24.9179 Y24.6161
G01 F60.00
G01 Z-0.0500
G01 F120.00
G01 X24.9192 Y24.6076
G01 X24.9216 Y24.5981
G01 X24.9261 Y24.5854
G01 X24.9303 Y24.5765
G01 X24.9347 Y24.5691
G01 X24.9434 Y24.5573
G01 X24.9500 Y24.5500
G01 X24.9563 Y24.5442
G01 X24.9671 Y24.5360
G01 X24.9765 Y24.5303
G01 X24.9843 Y24.5266
G01 X24.9981 Y24.5216
G01 X25.0076 Y24.5192
G01 X25.0161 Y24.5179
G01 X25.0283 Y24.5171
G01 X25.2827 Y24.5171
G01 X25.3030 Y24.5072
G01 X25.3215 Y24.5006
G01 X25.3405 Y24.4958
G01 X25.3624 Y24.4928
G01 X25.3796 Y24.4920
G01 X27.1945 Y24.4920
G01 X27.2117 Y24.4930
G01 X27.2287 Y24.4954
G01 X27.2501 Y24.5006
G01 X27.2709 Y24.5082
G01 X27.2864 Y24.5156
G01 X27.3032 Y24.5257
G01 X27.3190 Y24.5374
G01 X27.3327 Y24.5497
G01 X27.4256 Y24.6427
G01 X27.4433 Y24.6420
G01 X27.4703 Y24.6433
G01 X27.4994 Y24.6475
G01 X27.5292 Y24.6549
G01 X27.5558 Y24.6643
G01 X27.5835 Y24.6774
G01 X27.6088 Y24.6925
G01 X27.6325 Y24.7101
G01 X27.6543 Y24.7298
G01 X27.6741 Y24.7517
G01 X27.6916 Y24.7753
G01 X27.7068 Y24.8006
G01 X27.7193 Y24.8272
G01 X27.7293 Y24.8549
G01 X27.7364 Y24.8835
G01 X27.7407 Y24.9126
G01 X27.7422 Y24.9408
G01 X27.7422 Y28.6975
G01 X27.7711 Y28.7047
G01 X27.7982 Y28.7144
G01 X27.8243 Y28.7267
G01 X27.8510 Y28.7430
G01 X27.8722 Y28.7587
G01 X27.8917 Y28.7764
G01 X27.9113 Y28.7976
G01 X27.9301 Y28.8226
G01 X27.9449 Y28.8473
G01 X27.9572 Y28.8734
G01 X27.9669 Y28.9005
G01 X27.9739 Y28.9285
G01 X27.9780 Y28.9558
G01 X27.9796 Y28.9858
G01 X27.9796 Y29.1419
G01 X29.4433 Y29.1420
G01 X29.4715 Y29.1434
G01 X29.5006 Y29.1477
G01 X29.5292 Y29.1549
G01 X29.5569 Y29.1648
G01 X29.5835 Y29.1774
G01 X29.6088 Y29.1925
G01 X29.6325 Y29.2101
G01 X29.6543 Y29.2298
G01 X30.6543 Y30.2298
G01 X30.6741 Y30.2517
G01 X30.6902 Y30.2733
G01 X30.7079 Y30.3028
G01 X30.7202 Y30.3295
G01 X30.7293 Y30.3549
G01 X30.7359 Y30.3811
G01 X30.7407 Y30.4126
G01 X30.7422 Y30.4421
G01 X30.7422 Y38.3177
G01 X31.9429 Y39.5185
G01 X31.9493 Y39.5149
G01 X32.0425 Y39.4711
G01 X32.1373 Y39.4373
G01 X32.2396 Y39.4118
G01 X32.3391 Y39.3971
G01 X32.4421 Y39.3921
G01 X32.5450 Y39.3971
G01 X32.6493 Y39.4128
G01 X32.7469 Y39.4373
G01 X32.8439 Y39.4720
G01 X32.9370 Y39.5160
G01 X33.0254 Y39.5690
G01 X33.1082 Y39.6304
G01 X33.1845 Y39.6996
G01 X33.2537 Y39.7760
G01 X33.3144 Y39.8577
G01 X33.3681 Y39.9471
G01 X33.4121 Y40.0402
G01 X33.4469 Y40.1373
G01 X33.4723 Y40.2396
G01 X33.4870 Y40.3391
G01 X33.4920 Y40.4445
G01 X33.4867 Y40.5474
G01 X33.4719 Y40.6469
G01 X33.4475 Y40.7445
G01 X33.4121 Y40.8439
G01 X33.3681 Y40.9370
G01 X33.3151 Y41.0254
G01 X33.2537 Y41.1082
G01 X33.1845 Y41.1845
G01 X33.1082 Y41.2537
G01 X33.0254 Y41.3151
G01 X32.9348 Y41.3692
G01 X32.8439 Y41.4121
G01 X32.7469 Y41.4469
G01 X32.6469 Y41.4719
G01 X32.5474 Y41.4867
G01 X32.4396 Y41.4920
G01 X32.3391 Y41.4870
G01 X32.2396 Y41.4723
G01 X32.1349 Y41.4461
G01 X32.0402 Y41.4121
G01 X31.9471 Y41.3681
G01 X31.8587 Y41.3151
G01 X31.7779 Y41.2552
G01 X31.6996 Y41.1845
G01 X31.6304 Y41.1082
G01 X31.5704 Y41.0274
G01 X31.5149 Y40.9348
G01 X31.4720 Y40.8439
G01 X31.4373 Y40.7469
G01 X31.4122 Y40.6469
G01 X31.3974 Y40.5474
G01 X31.3921 Y40.4396
G01 X31.3971 Y40.3391
G01 X31.4122 Y40.2372
G01 X31.4373 Y40.1373
G01 X31.4711 Y40.0425
G01 X31.5149 Y39.9493
G01 X31.5185 Y39.9429
G01 X30.2290 Y38.6534
G01 X30.2086 Y38.6305
G01 X30.1925 Y38.6088
G01 X30.1786 Y38.5857
G01 X30.1648 Y38.5569
G01 X30.1542 Y38.5268
G01 X30.1477 Y38.5006
G01 X30.1437 Y38.4739
G01 X30.1419 Y38.4421
G01 X30.1419 Y30.5664
G01 X29.3177 Y29.7422
G01 X27.9796 Y29.7422
G01 X27.9796 Y29.8983
G01 X27.9780 Y29.9283
G01 X27.9739 Y29.9556
G01 X27.9669 Y29.9836
G01 X27.9572 Y30.0107
G01 X27.9437 Y30.0389
G01 X27.9286 Y30.0635
G01 X27.9129 Y30.0847
G01 X27.8952 Y30.1042
G01 X27.8722 Y30.1254
G01 X27.8490 Y30.1426
G01 X27.8243 Y30.1574
G01 X27.7959 Y30.1706
G01 X27.7687 Y30.1801
G01 X27.7431 Y30.1864
G01 X27.7170 Y30.1903
G01 X27.6858 Y30.1921
G01 X27.1983 Y30.1921
G01 X27.1671 Y30.1903
G01 X27.1410 Y30.1864
G01 X27.1130 Y30.1794
G01 X27.0859 Y30.1697
G01 X27.0598 Y30.1574
G01 X27.0351 Y30.1426
G01 X27.0120 Y30.1254
G01 X26.9906 Y30.1060
G01 X26.9720 Y30.0856
G01 X26.9528 Y30.0594
G01 X26.9392 Y30.0368
G01 X26.9269 Y30.0107
G01 X26.9172 Y29.9836
G01 X26.9107 Y29.9580
G01 X26.9058 Y29.9247
G01 X26.9046 Y29.8983
G01 X26.9046 Y28.9858
G01 X26.9061 Y28.9558
G01 X26.9102 Y28.9285
G01 X26.9166 Y28.9029
G01 X26.9279 Y28.8712
G01 X26.9392 Y28.8473
G01 X26.9541 Y28.8226
G01 X26.9712 Y28.7995
G01 X26.9889 Y28.7799
G01 X27.0139 Y28.7572
G01 X27.0351 Y28.7416
G01 X27.0598 Y28.7267
G01 X27.0859 Y28.7144
G01 X27.1107 Y28.7055
G01 X27.1419 Y28.6975
G01 X27.1419 Y24.9421
G01 X27.1427 Y24.9256
G01 X27.1092 Y24.8921
G01 X25.3783 Y24.8921
G01 X25.3575 Y24.8909
G01 X25.3405 Y24.8883
G01 X25.3238 Y24.8842
G01 X25.3030 Y24.8769
G01 X25.2827 Y24.8671
G01 X25.0296 Y24.8671
G01 X25.0161 Y24.8662
G01 X25.0076 Y24.8649
G01 X24.9993 Y24.8629
G01 X24.9865 Y24.8585
G01 X24.9744 Y24.8526
G01 X24.9671 Y24.8481
G01 X24.9592 Y24.8423
G01 X24.9500 Y24.8341
G01 X24.9411 Y24.8240
G01 X24.9360 Y24.8171
G01 X24.9309 Y24.8087
G01 X24.9252 Y24.7965
G01 X24.9219 Y24.7872
G01 X24.9192 Y24.7765
G01 X24.9176 Y24.7656
G01 X24.9171 Y24.7570
G01 X24.9171 Y24.6296
G01 X24.9179 Y24.6161
G00 Z2.0000
G00 X24.8821 Y24.4909
G01 F60.00
G01 Z-0.0500
G01 F120.00
G01 X24.8821 Y24.3932
G01 X24.8888 Y24.4001
G01 X24.8985 Y24.4089
G01 X24.9142 Y24.4210
G01 X24.9229 Y24.4266
G01 X24.9341 Y24.4332
G01 X24.9531 Y24.4421
G01 X24.9341 Y24.4510
G01 X24.9229 Y24.4575
G01 X24.9142 Y24.4631
G01 X24.8985 Y24.4752
G01 X24.8888 Y24.4840
G01 X24.8821 Y24.4909
G00 Z2.0000
G00 X24.9531 Y22.9421
G01 F60.00
G01 Z-0.0500
G01 F120.00
G01 X24.9341 Y22.9510
G01 X24.9229 Y22.9575
G01 X24.9142 Y22.9631
G01 X24.8985 Y22.9752
G01 X24.8888 Y22.9840
G01 X24.8821 Y22.9909
G01 X24.8821 Y22.8932
G01 X24.8888 Y22.9001
G01 X24.8985 Y22.9089
G01 X24.9142 Y22.9210
G01 X24.9229 Y22.9266
G01 X24.9341 Y22.9332
G01 X24.9531 Y22.9421
G00 Z2.0000
G00 X24.8821 Y22.4909
G01 F60.00
G01 Z-0.0500
G01 F120.00
G01 X24.8821 Y22.3932
G01 X24.8888 Y22.4001
G01 X24.8985 Y22.4089
G01 X24.9142 Y22.4210
G01 X24.9229 Y22.4266
G01 X24.9341 Y22.4332
G01 X24.9531 Y22.4421
G01 X24.9341 Y22.4510
G01 X24.9229 Y22.4575
G01 X24.9142 Y22.4631
G01 X24.8985 Y22.4752
G01 X24.8888 Y22.4840
G01 X24.8821 Y22.4909
G00 Z2.0000
G00 X24.8271 Y22.1927
G01 F60.00
G01 Z-0.0500
G01 F120.00
G01 X24.8145 Y22.1724
G01 X24.7958 Y22.1472
G01 X24.7891 Y22.1393
G01 X24.7680 Y22.1162
G01 X24.7448 Y22.0950
G01 X24.7369 Y22.0884
G01 X24.7117 Y22.0697
G01 X24.6915 Y22.0571
G01 X24.7580 Y22.0570
G01 X24.7744 Y22.0561
G01 X24.7873 Y22.0543
G01 X24.7974 Y22.0525
G01 X24.8067 Y22.0502
G01 X24.8199 Y22.0462
G01 X24.8352 Y22.0403
G01 X24.8521 Y22.0320
G01 X24.8438 Y22.0489
G01 X24.8379 Y22.0642
G01 X24.8339 Y22.0774
G01 X24.8317 Y22.0867
G01 X24.8298 Y22.0968
G01 X24.8280 Y22.1097
G01 X24.8271 Y22.1261
G01 X24.8271 Y22.1927
G00 Z2.0000
G00 X24.9179 Y22.1161
G01 F60.00
G01 Z-0.0500
G01 F120.00
G01 X24.9192 Y22.1076
G01 X24.9219 Y22.0969
G01 X24.9256 Y22.0865
G01 X24.9292 Y22.0787
G01 X24.9367 Y22.0661
G01 X24.9426 Y22.0582
G01 X24.9483 Y22.0518
G01 X24.9601 Y22.0411
G01 X24.9671 Y22.0360
G01 X24.9765 Y22.0303
G01 X24.9865 Y22.0256
G01 X24.9946 Y22.0227
G01 X25.0076 Y22.0192
G01 X25.0185 Y22.0176
G01 X25.0296 Y22.0171
G01 X25.7296 Y22.0171
G01 X25.7406 Y22.0176
G01 X25.7503 Y22.0190
G01 X25.7646 Y22.0227
G01 X25.7733 Y22.0152
G01 X25.8168 Y21.9832
G01 X25.8610 Y21.9568
G01 X25.9121 Y21.9328
G01 X25.9607 Y21.9155
G01 X26.0131 Y21.9024
G01 X26.0665 Y21.8945
G01 X26.1192 Y21.8918
G01 X31.4433 Y21.8918
G01 X31.4960 Y21.8945
G01 X31.5470 Y21.9020
G01 X31.6018 Y21.9155
G01 X31.6526 Y21.9337
G01 X31.6993 Y21.9557
G01 X31.7488 Y21.9852
G01 X31.7911 Y22.0167
G01 X31.8311 Y22.0530
G01 X35.7686 Y25.9905
G01 X35.8049 Y26.0305
G01 X35.8371 Y26.0739
G01 X35.8648 Y26.1202
G01 X35.8879 Y26.1690
G01 X35.9061 Y26.2198
G01 X35.9192 Y26.2722
G01 X35.9272 Y26.3256
G01 X35.9298 Y26.3796
G01 X35.9298 Y32.2141
G01 X38.7275 Y35.0118
G01 X42.8921 Y35.0118
G01 X42.8921 Y34.0608
G01 X42.8928 Y34.0535
G01 X42.8946 Y34.0464
G01 X42.8974 Y34.0396
G01 X42.9019 Y34.0323
G01 X42.9076 Y34.0259
G01 X42.9133 Y34.0212
G01 X42.9196 Y34.0174
G01 X42.9264 Y34.0146
G01 X42.9347 Y34.0126
G01 X42.9421 Y34.0121
G01 X45.9421 Y34.0121
G01 X45.9470 Y34.0123
G01 X45.9530 Y34.0133
G01 X45.9589 Y34.0150
G01 X45.9634 Y34.0169
G01 X45.9688 Y34.0198
G01 X45.9747 Y34.0242
G01 X45.9799 Y34.0294
G01 X45.9843 Y34.0353
G01 X45.9878 Y34.0418
G01 X45.9899 Y34.0475
G01 X45.9915 Y34.0547
G01 X45.9921 Y34.0621
G01 X45.9921 Y37.0621
G01 X45.9915 Y37.0694
G01 X45.9895 Y37.0777
G01 X45.9867 Y37.0845
G01 X45.9829 Y37.0909
G01 X45.9791 Y37.0956
G01 X45.9747 Y37.0999
G01 X45.9698 Y37.1036
G01 X45.9645 Y37.1067
G01 X45.9589 Y37.1091
G01 X45.9542 Y37.1106
G01 X45.9482 Y37.1117
G01 X45.9421 Y37.1121
G01 X42.9421 Y37.1121
G01 X42.9335 Y37.1113
G01 X42.9252 Y37.1091
G01 X42.9185 Y37.1062
G01 X42.9113 Y37.1015
G01 X42.9050 Y37.0956
G01 X42.8998 Y37.0888
G01 X42.8959 Y37.0812
G01 X42.8933 Y37.0730
G01 X42.8921 Y37.0645
G01 X42.8921 Y36.1123
G01 X39.9923 Y36.1123
G01 X39.9923 Y40.4433
G01 X39.9897 Y40.4960
G01 X39.9822 Y40.5470
G01 X39.9679 Y40.6041
G01 X39.9504 Y40.6526
G01 X39.9273 Y40.7014
G01 X39.8996 Y40.7478
G01 X39.8682 Y40.7902
G01 X39.8311 Y40.8311
G01 X39.7911 Y40.8674
G01 X39.7478 Y40.8996
G01 X39.7014 Y40.9273
G01 X39.6526 Y40.9504
G01 X39.6018 Y40.9686
G01 X39.5494 Y40.9817
G01 X39.4948 Y40.9898
G01 X39.4421 Y40.9923
G01 X37.3350 Y40.9923
G01 X37.3144 Y41.0264
G01 X37.2545 Y41.1072
G01 X37.1854 Y41.1836
G01 X37.1082 Y41.2537
G01 X37.0244 Y41.3158
G01 X36.9370 Y41.3681
G01 X36.8416 Y41.4130
G01 X36.7469 Y41.4469
G01 X36.6493 Y41.4714
G01 X36.5462 Y41.4869
G01 X36.4421 Y41.4921
G01 X36.3391 Y41.4870
G01 X36.2372 Y41.4719
G01 X36.1396 Y41.4475
G01 X36.0380 Y41.4111
G01 X35.9471 Y41.3681
G01 X35.8577 Y41.3144
G01 X35.7760 Y41.2537
G01 X35.7014 Y41.1862
G01 X35.6304 Y41.1082
G01 X35.5677 Y41.0233
G01 X35.5160 Y40.9370
G01 X35.4730 Y40.8461
G01 X35.4373 Y40.7469
G01 X35.4118 Y40.6445
G01 X35.3971 Y40.5450
G01 X35.3921 Y40.4445
G01 X35.3971 Y40.3391
G01 X35.4128 Y40.2348
G01 X35.4373 Y40.1373
G01 X35.4711 Y40.0425
G01 X35.5160 Y39.9471
G01 X35.5704 Y39.8567
G01 X35.6304 Y39.7760
G01 X35.6979 Y39.7014
G01 X35.7760 Y39.6304
G01 X35.8608 Y39.5677
G01 X35.9471 Y39.5160
G01 X36.0380 Y39.4730
G01 X36.1396 Y39.4366
G01 X36.2372 Y39.4122
G01 X36.3416 Y39.3969
G01 X36.4421 Y39.3921
G01 X36.5450 Y39.3971
G01 X36.6469 Y39.4122
G01 X36.7480 Y39.4376
G01 X36.8439 Y39.4720
G01 X36.9370 Y39.5160
G01 X37.0254 Y39.5690
G01 X37.1072 Y39.6296
G01 X37.1845 Y39.6996
G01 X37.2529 Y39.7750
G01 X37.3144 Y39.8577
G01 X37.3350 Y39.8918
G01 X38.8918 Y39.8918
G01 X38.8918 Y36.1123
G01 X38.4983 Y36.1123
G01 X38.4456 Y36.1097
G01 X38.3934 Y36.1020
G01 X38.3398 Y36.0886
G01 X38.2867 Y36.0694
G01 X38.2402 Y36.0473
G01 X38.1959 Y36.0209
G01 X38.1514 Y35.9882
G01 X38.1105 Y35.9511
G01 X35.3514 Y33.1921
G01 X35.1358 Y33.1921
G01 X35.1082 Y33.1908
G01 X35.0761 Y33.1859
G01 X35.0505 Y33.1794
G01 X35.0245 Y33.1702
G01 X34.9973 Y33.1574
G01 X34.9726 Y33.1426
G01 X34.9495 Y33.1254
G01 X34.9281 Y33.1060
G01 X34.9087 Y33.0847
G01 X34.8916 Y33.0615
G01 X34.8767 Y33.0368
G01 X34.8644 Y33.0107
G01 X34.8547 Y32.9836
G01 X34.8482 Y32.9580
G01 X34.8434 Y32.9259
G01 X34.8421 Y32.8983
G01 X34.8421 Y32.5584
G01 X34.8397 Y32.5482
G01 X34.8320 Y32.4960
G01 X34.8293 Y32.4421
G01 X34.8293 Y26.6075
G01 X31.2141 Y22.9923
G01 X26.1192 Y22.9923
G01 X26.0665 Y22.9897
G01 X26.0131 Y22.9817
G01 X25.9607 Y22.9686
G01 X25.9121 Y22.9513
G01 X25.8589 Y22.9261
G01 X25.8147 Y22.8996
G01 X25.7710 Y22.8671
G01 X25.0296 Y22.8671
G01 X25.0161 Y22.8662
G01 X25.0076 Y22.8649
G01 X24.9993 Y22.8629
G01 X24.9865 Y22.8585
G01 X24.9765 Y22.8538
G01 X24.9691 Y22.8494
G01 X24.9582 Y22.8415
G01 X24.9500 Y22.8341
G01 X24.9442 Y22.8278
G01 X24.9360 Y22.8171
G01 X24.9292 Y22.8054
G01 X24.9256 Y22.7976
G01 X24.9223 Y22.7884
G01 X24.9188 Y22.7741
G01 X24.9176 Y22.7656
G01 X24.9171 Y22.7558
G01 X24.9171 Y22.6283
G01 X24.9176 Y22.6185
G01 X24.9192 Y22.6076
G01 X24.9219 Y22.5969
G01 X24.9252 Y22.5876
G01 X24.9303 Y22.5765
G01 X24.9367 Y22.5661
G01 X24.9442 Y22.5563
G01 X24.9500 Y22.5500
G01 X24.9563 Y22.5442
G01 X24.9661 Y22.5367
G01 X24.9765 Y22.5303
G01 X24.9876 Y22.5252
G01 X24.9993 Y22.5213
G01 X25.0076 Y22.5192
G01 X25.0161 Y22.5179
G01 X25.0283 Y22.5171
G01 X25.2045 Y22.5171
G01 X25.2045 Y22.3671
G01 X25.0296 Y22.3671
G01 X25.0185 Y22.3665
G01 X25.0076 Y22.3649
G01 X24.9993 Y22.3629
G01 X24.9865 Y22.3585
G01 X24.9765 Y22.3538
G01 X24.9691 Y22.3494
G01 X24.9573 Y22.3407
G01 X24.9500 Y22.3341
G01 X24.9426 Y22.3259
G01 X24.9360 Y22.3171
G01 X24.9316 Y22.3097
G01 X24.9247 Y22.2953
G01 X24.9216 Y22.2860
G01 X24.9190 Y22.2753
G01 X24.9176 Y22.2656
G01 X24.9171 Y22.2546
G01 X24.9171 Y22.1296
G01 X24.9179 Y22.1161
G00 Z2.0000
G00 X24.3932 Y22.0021
G01 F60.00
G01 Z-0.0500
G01 F120.00
G01 X24.4001 Y21.9953
G01 X24.4089 Y21.9857
G01 X24.4210 Y21.9699
G01 X24.4266 Y21.9613
G01 X24.4332 Y21.9500
G01 X24.4421 Y21.9310
G01 X24.4510 Y21.9500
G01 X24.4575 Y21.9613
G01 X24.4631 Y21.9699
G01 X24.4752 Y21.9857
G01 X24.4840 Y21.9953
G01 X24.4909 Y22.0021
G01 X24.3932 Y22.0021
G00 Z2.0000
G00 X23.9421 Y21.9310
G01 F60.00
G01 Z-0.0500
G01 F120.00
G01 X23.9510 Y21.9500
G01 X23.9575 Y21.9613
G01 X23.9631 Y21.9699
G01 X23.9752 Y21.9857
G01 X23.9840 Y21.9953
G01 X23.9909 Y22.0021
G01 X23.8932 Y22.0021
G01 X23.9001 Y21.9953
G01 X23.9089 Y21.9857
G01 X23.9210 Y21.9699
G01 X23.9266 Y21.9613
G01 X23.9332 Y21.9500
G01 X23.9421 Y21.9310
G00 Z2.0000
G00 X24.4920 Y28.5671
G01 F60.00
G01 Z-0.0500
G01 F120.00
G01 X24.4920 Y25.3796
G01 X24.4933 Y25.3575
G01 X24.4958 Y25.3405
G01 X24.4999 Y25.3238
G01 X24.5072 Y25.3030
G01 X24.5171 Y25.2827
G01 X24.5171 Y25.0296
G01 X24.5175 Y25.0198
G01 X24.5195 Y25.0064
G01 X24.5219 Y24.9969
G01 X24.5247 Y24.9888
G01 X24.5303 Y24.9765
G01 X24.5374 Y24.9651
G01 X24.5426 Y24.9582
G01 X24.5483 Y24.9518
G01 X24.5582 Y24.9426
G01 X24.5691 Y24.9347
G01 X24.5765 Y24.9303
G01 X24.5865 Y24.9256
G01 X24.5969 Y24.9219
G01 X24.6076 Y24.9192
G01 X24.6185 Y24.9176
G01 X24.6271 Y24.9171
G01 X24.7546 Y24.9171
G01 X24.7644 Y24.9175
G01 X24.7789 Y24.9198
G01 X24.7872 Y24.9219
G01 X24.7976 Y24.9256
G01 X24.8076 Y24.9303
G01 X24.8150 Y24.9347
G01 X24.8259 Y24.9426
G01 X24.8341 Y24.9500
G01 X24.8399 Y24.9563
G01 X24.8481 Y24.9671
G01 X24.8538 Y24.9765
G01 X24.8575 Y24.9843
G01 X24.8626 Y24.9981
G01 X24.8649 Y25.0076
G01 X24.8662 Y25.0161
G01 X24.8670 Y25.0283
G01 X24.8671 Y25.2827
G01 X24.8769 Y25.3030
G01 X24.8842 Y25.3238
G01 X24.8883 Y25.3405
G01 X24.8909 Y25.3575
G01 X24.8921 Y25.3783
G01 X24.8921 Y28.4842
G01 X25.1541 Y28.7459
G01 X25.1611 Y28.7409
G01 X25.1848 Y28.7267
G01 X25.2132 Y28.7135
G01 X25.2380 Y28.7047
G01 X25.2636 Y28.6982
G01 X25.2957 Y28.6934
G01 X25.3233 Y28.6921
G01 X25.8108 Y28.6921
G01 X25.8384 Y28.6934
G01 X25.8681 Y28.6977
G01 X25.8961 Y28.7047
G01 X25.9232 Y28.7144
G01 X25.9514 Y28.7280
G01 X25.9760 Y28.7430
G01 X25.9972 Y28.7587
G01 X26.0167 Y28.7764
G01 X26.0379 Y28.7995
G01 X26.0544 Y28.8216
G01 X26.0710 Y28.8495
G01 X26.0822 Y28.8734
G01 X26.0919 Y28.9005
G01 X26.0993 Y28.9309
G01 X26.1031 Y28.9570
G01 X26.1045 Y28.9834
G01 X26.1045 Y29.8995
G01 X26.1031 Y29.9271
G01 X26.0989 Y29.9556
G01 X26.0919 Y29.9836
G01 X26.0822 Y30.0107
G01 X26.0699 Y30.0368
G01 X26.0551 Y30.0615
G01 X26.0379 Y30.0847
G01 X26.0185 Y30.1060
G01 X25.9972 Y30.1254
G01 X25.9760 Y30.1411
G01 X25.9471 Y30.1585
G01 X25.9232 Y30.1697
G01 X25.8961 Y30.1794
G01 X25.8681 Y30.1864
G01 X25.8408 Y30.1905
G01 X25.8108 Y30.1921
G01 X25.3233 Y30.1921
G01 X25.2945 Y30.1906
G01 X25.2660 Y30.1864
G01 X25.2380 Y30.1794
G01 X25.2109 Y30.1697
G01 X25.1848 Y30.1574
G01 X25.1601 Y30.1426
G01 X25.1370 Y30.1254
G01 X25.1156 Y30.1060
G01 X25.0962 Y30.0847
G01 X25.0791 Y30.0615
G01 X25.0642 Y30.0368
G01 X25.0529 Y30.0130
G01 X25.0416 Y29.9812
G01 X25.0352 Y29.9556
G01 X25.0310 Y29.9271
G01 X25.0296 Y29.8983
G01 X25.0296 Y29.1875
G01 X24.5506 Y28.7085
G01 X24.5382 Y28.6949
G01 X24.5257 Y28.6782
G01 X24.5168 Y28.6635
G01 X24.5063 Y28.6413
G01 X24.5006 Y28.6251
G01 X24.4958 Y28.6061
G01 X24.4930 Y28.5867
G01 X24.4920 Y28.5671
G00 Z2.0000
G00 X20.8438 Y27.9546
G01 F60.00
G01 Z-0.0500
G01 F120.00
G01 X20.8477 Y27.9285
G01 X20.8547 Y27.9005
G01 X20.8644 Y27.8734
G01 X20.8767 Y27.8473
G01 X20.8916 Y27.8226
G01 X20.9087 Y27.7995
G01 X20.9281 Y27.7781
G01 X20.9504 Y27.7580
G01 X20.9726 Y27.7416
G01 X20.9973 Y27.7267
G01 X21.0234 Y27.7144
G01 X21.0517 Y27.7044
G01 X21.0785 Y27.6977
G01 X21.1070 Y27.6935
G01 X21.1346 Y27.6921
G01 X21.1795 Y27.6921
G01 X21.1795 Y27.3408
G01 X21.1805 Y27.3225
G01 X21.1833 Y27.3030
G01 X21.1881 Y27.2840
G01 X21.1947 Y27.2655
G01 X21.2031 Y27.2477
G01 X21.2132 Y27.2309
G01 X21.2249 Y27.2151
G01 X21.2372 Y27.2015
G01 X21.4506 Y26.9881
G01 X21.4651 Y26.9749
G01 X21.4819 Y26.9625
G01 X21.4977 Y26.9531
G01 X21.5133 Y26.9457
G01 X21.5340 Y26.9381
G01 X21.5554 Y26.9329
G01 X21.5725 Y26.9305
G01 X21.5908 Y26.9295
G01 X22.4920 Y26.9295
G01 X22.4920 Y25.3783
G01 X22.4933 Y25.3575
G01 X22.4958 Y25.3405
G01 X22.4999 Y25.3238
G01 X22.5072 Y25.3030
G01 X22.5171 Y25.2827
G01 X22.5171 Y25.0296
G01 X22.5176 Y25.0185
G01 X22.5190 Y25.0088
G01 X22.5227 Y24.9946
G01 X22.5256 Y24.9865
G01 X22.5303 Y24.9765
G01 X22.5374 Y24.9651
G01 X22.5426 Y24.9582
G01 X22.5492 Y24.9509
G01 X22.5601 Y24.9411
G01 X22.5671 Y24.9360
G01 X22.5755 Y24.9309
G01 X22.5876 Y24.9252
G01 X22.5969 Y24.9219
G01 X22.6052 Y24.9198
G01 X22.6173 Y24.9177
G01 X22.6283 Y24.9171
G01 X22.7546 Y24.9171
G01 X22.7644 Y24.9175
G01 X22.7765 Y24.9192
G01 X22.7896 Y24.9227
G01 X22.7976 Y24.9256
G01 X22.8054 Y24.9292
G01 X22.8171 Y24.9360
G01 X22.8259 Y24.9426
G01 X22.8341 Y24.9500
G01 X22.8415 Y24.9582
G01 X22.8481 Y24.9671
G01 X22.8538 Y24.9765
G01 X22.8585 Y24.9865
G01 X22.8622 Y24.9969
G01 X22.8651 Y25.0088
G01 X22.8665 Y25.0185
G01 X22.8671 Y25.0296
G01 X22.8671 Y25.2827
G01 X22.8769 Y25.3030
G01 X22.8842 Y25.3238
G01 X22.8883 Y25.3405
G01 X22.8909 Y25.3575
G01 X22.8921 Y25.3783
G01 X22.8921 Y27.1308
G01 X22.8912 Y27.1492
G01 X22.8878 Y27.1710
G01 X22.8835 Y27.1876
G01 X22.8778 Y27.2038
G01 X22.8691 Y27.2228
G01 X22.8584 Y27.2407
G01 X22.8451 Y27.2583
G01 X22.8318 Y27.2727
G01 X22.8190 Y27.2842
G01 X22.8052 Y27.2945
G01 X22.7864 Y27.3060
G01 X22.7686 Y27.3144
G01 X22.7501 Y27.3210
G01 X22.7287 Y27.3262
G01 X22.7117 Y27.3287
G01 X22.6921 Y27.3296
G01 X21.6749 Y27.3296
G01 X21.5796 Y27.4249
G01 X21.5796 Y27.6921
G01 X21.6245 Y27.6921
G01 X21.6521 Y27.6935
G01 X21.6806 Y27.6977
G01 X21.7074 Y27.7044
G01 X21.7357 Y27.7144
G01 X21.7618 Y27.7267
G01 X21.7865 Y27.7416
G01 X21.8087 Y27.7580
G01 X21.8310 Y27.7781
G01 X21.8504 Y27.7995
G01 X21.8676 Y27.8226
G01 X21.8824 Y27.8473
G01 X21.8947 Y27.8734
G01 X21.9044 Y27.9005
G01 X21.9114 Y27.9285
G01 X21.9155 Y27.9558
G01 X21.9171 Y27.9858
G01 X21.9171 Y28.8983
G01 X21.9156 Y28.9271
G01 X21.9114 Y28.9556
G01 X21.9044 Y28.9836
G01 X21.8947 Y29.0107
G01 X21.8824 Y29.0368
G01 X21.8676 Y29.0615
G01 X21.8504 Y29.0847
G01 X21.8310 Y29.1060
G01 X21.8097 Y29.1254
G01 X21.7844 Y29.1439
G01 X21.7618 Y29.1574
G01 X21.7357 Y29.1697
G01 X21.7062 Y29.1801
G01 X21.6806 Y29.1864
G01 X21.6521 Y29.1906
G01 X21.6233 Y29.1921
G01 X21.1334 Y29.1920
G01 X21.1046 Y29.1903
G01 X21.0785 Y29.1864
G01 X21.0529 Y29.1801
G01 X21.0234 Y29.1697
G01 X20.9995 Y29.1585
G01 X20.9726 Y29.1426
G01 X20.9495 Y29.1254
G01 X20.9281 Y29.1060
G01 X20.9087 Y29.0847
G01 X20.8903 Y29.0594
G01 X20.8767 Y29.0368
G01 X20.8644 Y29.0107
G01 X20.8547 Y28.9836
G01 X20.8482 Y28.9580
G01 X20.8433 Y28.9247
G01 X20.8421 Y28.8983
G01 X20.8421 Y27.9858
G01 X20.8438 Y27.9546
G00 Z2.0000
G00 X18.9671 Y28.1380
G01 F60.00
G01 Z-0.0500
G01 F120.00
G01 X18.6142 Y28.1380
G01 X18.5586 Y28.0824
G01 X18.5561 Y27.7501
G01 X18.5658 Y27.6523
G01 X18.5919 Y27.5660
G01 X18.6345 Y27.4864
G01 X18.6917 Y27.4167
G01 X18.7614 Y27.3595
G01 X18.8410 Y27.3169
G01 X18.9273 Y27.2908
G01 X19.0244 Y27.2812
G01 X19.1444 Y27.2830
G01 X19.2005 Y27.3392
G01 X19.2005 Y27.6984
G01 X19.1755 Y27.7047
G01 X19.1507 Y27.7135
G01 X19.1245 Y27.7256
G01 X19.0976 Y27.7416
G01 X19.0764 Y27.7572
G01 X19.0531 Y27.7781
G01 X19.0337 Y27.7995
G01 X19.0166 Y27.8226
G01 X19.0017 Y27.8473
G01 X18.9894 Y27.8734
G01 X18.9797 Y27.9005
G01 X18.9727 Y27.9285
G01 X18.9686 Y27.9558
G01 X18.9671 Y27.9858
G01 X18.9671 Y28.1380
G00 Z2.0000
G00 X18.8771 Y28.0480
G01 F60.00
G01 Z-0.0500
G01 F120.00
G01 X18.6514 Y28.0480
G01 X18.6483 Y28.0449
G01 X18.6462 Y27.7542
G01 X18.6545 Y27.6699
G01 X18.6755 Y27.6006
G01 X18.7097 Y27.5367
G01 X18.7556 Y27.4806
G01 X18.8117 Y27.4347
G01 X18.8756 Y27.4005
G01 X18.9449 Y27.3795
G01 X19.0282 Y27.3713
G01 X19.1065 Y27.3724
G01 X19.1105 Y27.3764
G01 X19.1105 Y27.6328
G01 X19.0799 Y27.6474
G01 X19.0476 Y27.6667
G01 X19.0174 Y27.6892
G01 X18.9944 Y27.7097
G01 X18.9847 Y27.7194
G01 X18.9687 Y27.7372
G01 X18.9620 Y27.7450
G01 X18.9417 Y27.7726
G01 X18.9240 Y27.8019
G01 X18.9193 Y27.8110
G01 X18.9091 Y27.8327
G01 X18.9038 Y27.8454
G01 X18.8936 Y27.8744
G01 X18.8844 Y27.9109
G01 X18.8798 Y27.9414
G01 X18.8784 Y27.9551
G01 X18.8771 Y27.9824
G01 X18.8771 Y28.0480
G00 Z2.0000
G00 X19.3146 Y34.9855
G01 F60.00
G01 Z-0.0500
G01 F120.00
G01 X19.0889 Y34.9855
G01 X19.0858 Y34.9824
G01 X19.0837 Y34.6917
G01 X19.0920 Y34.6074
G01 X19.1130 Y34.5381
G01 X19.1472 Y34.4742
G01 X19.1931 Y34.4181
G01 X19.2492 Y34.3722
G01 X19.3131 Y34.3380
G01 X19.3824 Y34.3170
G01 X19.4657 Y34.3088
G01 X19.5440 Y34.3099
G01 X19.5480 Y34.3139
G01 X19.5480 Y34.5703
G01 X19.5174 Y34.5849
G01 X19.4851 Y34.6042
G01 X19.4549 Y34.6267
G01 X19.4319 Y34.6472
G01 X19.4222 Y34.6569
G01 X19.4062 Y34.6747
G01 X19.3995 Y34.6825
G01 X19.3792 Y34.7101
G01 X19.3615 Y34.7394
G01 X19.3568 Y34.7485
G01 X19.3466 Y34.7702
G01 X19.3413 Y34.7829
G01 X19.3311 Y34.8119
G01 X19.3219 Y34.8484
G01 X19.3173 Y34.8789
G01 X19.3159 Y34.8926
G01 X19.3146 Y34.9199
G01 X19.3146 Y34.9855
G00 Z2.0000
G00 X19.4046 Y35.0755
G01 F60.00
G01 Z-0.0500
G01 F120.00
G01 X19.0517 Y35.0755
G01 X18.9961 Y35.0199
G01 X18.9936 Y34.6876
G01 X19.0033 Y34.5898
G01 X19.0294 Y34.5035
G01 X19.0720 Y34.4239
G01 X19.1292 Y34.3542
G01 X19.1989 Y34.2970
G01 X19.2785 Y34.2544
G01 X19.3648 Y34.2283
G01 X19.4619 Y34.2187
G01 X19.5819 Y34.2205
G01 X19.6380 Y34.2767
G01 X19.6380 Y34.6359
G01 X19.6130 Y34.6422
G01 X19.5882 Y34.6510
G01 X19.5620 Y34.6631
G01 X19.5351 Y34.6791
G01 X19.5139 Y34.6947
G01 X19.4906 Y34.7156
G01 X19.4712 Y34.7370
G01 X19.4541 Y34.7601
G01 X19.4392 Y34.7848
G01 X19.4269 Y34.8109
G01 X19.4172 Y34.8380
G01 X19.4102 Y34.8660
G01 X19.4061 Y34.8933
G01 X19.4046 Y34.9233
G01 X19.4046 Y35.0755
G00 Z2.0000
G00 X19.4098 Y35.8907
G01 F60.00
G01 Z-0.0500
G01 F120.00
G01 X19.4180 Y35.9234
G01 X19.4269 Y35.9482
G01 X19.4392 Y35.9743
G01 X19.4555 Y36.0010
G01 X19.4712 Y36.0222
G01 X19.4906 Y36.0435
G01 X19.5120 Y36.0629
G01 X19.5331 Y36.0786
G01 X19.5598 Y36.0949
G01 X19.5882 Y36.1081
G01 X19.6130 Y36.1169
G01 X19.6380 Y36.1232
G01 X19.6380 Y36.4825
G01 X19.5819 Y36.5386
G01 X19.4619 Y36.5404
G01 X19.3648 Y36.5309
G01 X19.2785 Y36.5047
G01 X19.1989 Y36.4622
G01 X19.1292 Y36.4049
G01 X19.0720 Y36.3352
G01 X19.0294 Y36.2557
G01 X19.0033 Y36.1693
G01 X18.9936 Y36.0715
G01 X18.9961 Y35.7392
G01 X19.0517 Y35.6836
G01 X19.4046 Y35.6836
G01 X19.4046 Y35.8370
G01 X19.4060 Y35.8646
G01 X19.4098 Y35.8907
G00 Z2.0000
G00 X19.3208 Y35.9039
G01 F60.00
G01 Z-0.0500
G01 F120.00
G01 X19.3234 Y35.9174
G01 X19.3311 Y35.9472
G01 X19.3413 Y35.9763
G01 X19.3451 Y35.9858
G01 X19.3599 Y36.0167
G01 X19.3756 Y36.0432
G01 X19.3812 Y36.0518
G01 X19.3995 Y36.0766
G01 X19.4062 Y36.0845
G01 X19.4270 Y36.1072
G01 X19.4497 Y36.1280
G01 X19.4603 Y36.1367
G01 X19.4851 Y36.1549
G01 X19.5114 Y36.1709
G01 X19.5205 Y36.1758
G01 X19.5480 Y36.1889
G01 X19.5480 Y36.4452
G01 X19.5440 Y36.4492
G01 X19.4657 Y36.4504
G01 X19.3824 Y36.4422
G01 X19.3131 Y36.4211
G01 X19.2492 Y36.3870
G01 X19.1931 Y36.3410
G01 X19.1472 Y36.2850
G01 X19.1130 Y36.2210
G01 X19.0920 Y36.1517
G01 X19.0837 Y36.0674
G01 X19.0858 Y35.7768
G01 X19.0889 Y35.7736
G01 X19.3146 Y35.7736
G01 X19.3147 Y35.8427
G01 X19.3164 Y35.8734
G01 X19.3208 Y35.9039
G00 Z2.0000
G00 X21.2668 Y35.3796
G01 F60.00
G01 Z-0.0500
G01 F120.00
G01 X21.2668 Y33.8671
G01 X21.2695 Y33.8131
G01 X21.2774 Y33.7597
G01 X21.2913 Y33.7050
G01 X21.3097 Y33.6542
G01 X21.3318 Y33.6077
G01 X21.3582 Y33.5634
G01 X21.3917 Y33.5180
G01 X21.4280 Y33.4780
G01 X21.4680 Y33.4417
G01 X21.5094 Y33.4110
G01 X21.5169 Y33.4061
G01 X21.5170 Y32.7658
G01 X21.5184 Y32.7376
G01 X21.5227 Y32.7085
G01 X21.5299 Y32.6799
G01 X21.5408 Y32.6500
G01 X21.5524 Y32.6256
G01 X21.5675 Y32.6003
G01 X21.5851 Y32.5767
G01 X21.6048 Y32.5548
G01 X23.3220 Y30.8377
G01 X23.3232 Y30.8311
G01 X23.3299 Y30.8049
G01 X23.3408 Y30.7750
G01 X23.3524 Y30.7506
G01 X23.3662 Y30.7274
G01 X23.3843 Y30.7026
G01 X23.4048 Y30.6798
G01 X23.4276 Y30.6593
G01 X23.4513 Y30.6418
G01 X23.4756 Y30.6274
G01 X23.4920 Y30.6195
G01 X23.4920 Y25.3796
G01 X23.4928 Y25.3624
G01 X23.4958 Y25.3405
G01 X23.5006 Y25.3215
G01 X23.5072 Y25.3030
G01 X23.5171 Y25.2827
G01 X23.5171 Y25.0296
G01 X23.5174 Y25.0210
G01 X23.5192 Y25.0076
G01 X23.5223 Y24.9957
G01 X23.5256 Y24.9865
G01 X23.5292 Y24.9787
G01 X23.5354 Y24.9681
G01 X23.5426 Y24.9582
G01 X23.5500 Y24.9500
G01 X23.5582 Y24.9426
G01 X23.5671 Y24.9360
G01 X23.5765 Y24.9303
G01 X23.5865 Y24.9256
G01 X23.5969 Y24.9219
G01 X23.6076 Y24.9192
G01 X23.6185 Y24.9176
G01 X23.6283 Y24.9171
G01 X23.7546 Y24.9171
G01 X23.7656 Y24.9176
G01 X23.7789 Y24.9198
G01 X23.7872 Y24.9219
G01 X23.7953 Y24.9247
G01 X23.8076 Y24.9303
G01 X23.8171 Y24.9360
G01 X23.8240 Y24.9411
G01 X23.8341 Y24.9500
G01 X23.8430 Y24.9601
G01 X23.8481 Y24.9671
G01 X23.8538 Y24.9765
G01 X23.8594 Y24.9888
G01 X23.8622 Y24.9969
G01 X23.8644 Y25.0052
G01 X23.8665 Y25.0185
G01 X23.8671 Y25.0296
G01 X23.8671 Y25.2827
G01 X23.8769 Y25.3030
G01 X23.8842 Y25.3238
G01 X23.8883 Y25.3405
G01 X23.8909 Y25.3575
G01 X23.8921 Y25.3783
G01 X23.8921 Y30.7724
G01 X23.8952 Y30.7795
G01 X23.9049 Y30.8073
G01 X23.9114 Y30.8335
G01 X23.9157 Y30.8626
G01 X23.9172 Y30.8908
G01 X23.9172 Y30.9671
G01 X23.9154 Y30.9989
G01 X23.9114 Y31.0256
G01 X23.9043 Y31.0542
G01 X23.8943 Y31.0819
G01 X23.8828 Y31.1064
G01 X23.8652 Y31.1358
G01 X23.8491 Y31.1575
G01 X23.8301 Y31.1784
G01 X22.1172 Y32.8914
G01 X22.1172 Y33.4061
G01 X22.1248 Y33.4110
G01 X22.1661 Y33.4417
G01 X22.2061 Y33.4780
G01 X22.2424 Y33.5180
G01 X22.2759 Y33.5634
G01 X22.3023 Y33.6077
G01 X22.3244 Y33.6542
G01 X22.3429 Y33.7050
G01 X22.3567 Y33.7597
G01 X22.3645 Y33.8119
G01 X22.3673 Y33.8671
G01 X22.3673 Y34.8293
G01 X22.9421 Y34.8293
G01 X22.9972 Y34.8321
G01 X23.0494 Y34.8399
G01 X23.0994 Y34.8524
G01 X23.1526 Y34.8712
G01 X23.2014 Y34.8943
G01 X23.2457 Y34.9207
G01 X23.2911 Y34.9542
G01 X23.3311 Y34.9905
G01 X26.3311 Y37.9905
G01 X26.3674 Y38.0305
G01 X26.3982 Y38.0719
G01 X26.4284 Y38.1224
G01 X26.4513 Y38.1713
G01 X26.4686 Y38.2198
G01 X26.4812 Y38.2698
G01 X26.4897 Y38.3256
G01 X26.4923 Y38.3783
G01 X26.4923 Y42.3921
G01 X27.4433 Y42.3921
G01 X27.4506 Y42.3928
G01 X27.4577 Y42.3946
G01 X27.4656 Y42.3980
G01 X27.4718 Y42.4019
G01 X27.4783 Y42.4076
G01 X27.4829 Y42.4133
G01 X27.4873 Y42.4207
G01 X27.4899 Y42.4275
G01 X27.4915 Y42.4347
G01 X27.4921 Y42.4421
G01 X27.4921 Y45.4421
G01 X27.4917 Y45.4482
G01 X27.4903 Y45.4554
G01 X27.4883 Y45.4612
G01 X27.4856 Y45.4667
G01 X27.4822 Y45.4718
G01 X27.4783 Y45.4765
G01 X27.4738 Y45.4807
G01 X27.4678 Y45.4849
G01 X27.4623 Y45.4878
G01 X27.4554 Y45.4903
G01 X27.4482 Y45.4917
G01 X27.4421 Y45.4921
G01 X24.4421 Y45.4921
G01 X24.4359 Y45.4917
G01 X24.4299 Y45.4906
G01 X24.4229 Y45.4883
G01 X24.4174 Y45.4856
G01 X24.4113 Y45.4815
G01 X24.4067 Y45.4774
G01 X24.4026 Y45.4728
G01 X24.3992 Y45.4678
G01 X24.3964 Y45.4623
G01 X24.3939 Y45.4554
G01 X24.3924 Y45.4482
G01 X24.3921 Y45.4421
G01 X24.3921 Y42.4421
G01 X24.3928 Y42.4335
G01 X24.3946 Y42.4264
G01 X24.3980 Y42.4185
G01 X24.4019 Y42.4123
G01 X24.4067 Y42.4067
G01 X24.4123 Y42.4019
G01 X24.4196 Y42.3974
G01 X24.4264 Y42.3946
G01 X24.4335 Y42.3928
G01 X24.4408 Y42.3921
G01 X25.3918 Y42.3921
G01 X25.3918 Y38.6075
G01 X22.7141 Y35.9298
G01 X22.3389 Y35.9298
G01 X22.3322 Y35.9482
G01 X22.3204 Y35.9732
G01 X22.3044 Y36.0000
G01 X22.2879 Y36.0222
G01 X22.2702 Y36.0417
G01 X22.2462 Y36.0637
G01 X22.2240 Y36.0801
G01 X22.2014 Y36.0937
G01 X22.1732 Y36.1072
G01 X22.1437 Y36.1176
G01 X22.1181 Y36.1239
G01 X22.0896 Y36.1281
G01 X22.0608 Y36.1296
G01 X21.5733 Y36.1296
G01 X21.5445 Y36.1281
G01 X21.5160 Y36.1239
G01 X21.4904 Y36.1176
G01 X21.4609 Y36.1072
G01 X21.4327 Y36.0937
G01 X21.4101 Y36.0801
G01 X21.3879 Y36.0637
G01 X21.3656 Y36.0435
G01 X21.3478 Y36.0240
G01 X21.3278 Y35.9969
G01 X21.3142 Y35.9743
G01 X21.3019 Y35.9482
G01 X21.2922 Y35.9211
G01 X21.2850 Y35.8919
G01 X21.2810 Y35.8646
G01 X21.2796 Y35.8370
G01 X21.2796 Y35.4959
G01 X21.2772 Y35.4857
G01 X21.2695 Y35.4335
G01 X21.2668 Y35.3796
G00 Z2.0000
G00 X23.9920 Y33.0671
G01 F60.00
G01 Z-0.0500
G01 F120.00
G01 X23.9920 Y25.3783
G01 X23.9933 Y25.3575
G01 X23.9958 Y25.3405
G01 X23.9999 Y25.3238
G01 X24.0072 Y25.3030
G01 X24.0171 Y25.2827
G01 X24.0171 Y25.0271
G01 X24.0176 Y25.0185
G01 X24.0188 Y25.0100
G01 X24.0216 Y24.9981
G01 X24.0256 Y24.9865
G01 X24.0309 Y24.9755
G01 X24.0360 Y24.9671
G01 X24.0426 Y24.9582
G01 X24.0500 Y24.9500
G01 X24.0592 Y24.9418
G01 X24.0671 Y24.9360
G01 X24.0776 Y24.9298
G01 X24.0876 Y24.9252
G01 X24.0993 Y24.9213
G01 X24.1076 Y24.9192
G01 X24.1161 Y24.9179
G01 X24.1283 Y24.9171
G01 X24.2558 Y24.9171
G01 X24.2656 Y24.9176
G01 X24.2753 Y24.9190
G01 X24.2896 Y24.9227
G01 X24.2976 Y24.9256
G01 X24.3076 Y24.9303
G01 X24.3171 Y24.9360
G01 X24.3240 Y24.9411
G01 X24.3358 Y24.9518
G01 X24.3415 Y24.9582
G01 X24.3481 Y24.9671
G01 X24.3549 Y24.9787
G01 X24.3585 Y24.9865
G01 X24.3622 Y24.9969
G01 X24.3653 Y25.0100
G01 X24.3665 Y25.0185
G01 X24.3670 Y25.0283
G01 X24.3671 Y25.2827
G01 X24.3769 Y25.3030
G01 X24.3842 Y25.3238
G01 X24.3883 Y25.3405
G01 X24.3909 Y25.3575
G01 X24.3921 Y25.3783
G01 X24.3921 Y32.9842
G01 X25.1541 Y33.7459
G01 X25.1611 Y33.7409
G01 X25.1848 Y33.7267
G01 X25.2132 Y33.7135
G01 X25.2380 Y33.7047
G01 X25.2636 Y33.6982
G01 X25.2957 Y33.6934
G01 X25.3233 Y33.6921
G01 X25.8108 Y33.6921
G01 X25.8384 Y33.6934
G01 X25.8681 Y33.6977
G01 X25.8961 Y33.7047
G01 X25.9232 Y33.7144
G01 X25.9493 Y33.7267
G01 X25.9740 Y33.7416
G01 X25.9972 Y33.7587
G01 X26.0185 Y33.7781
G01 X26.0387 Y33.8004
G01 X26.0551 Y33.8226
G01 X26.0687 Y33.8452
G01 X26.0822 Y33.8734
G01 X26.0919 Y33.9005
G01 X26.0984 Y33.9261
G01 X26.1033 Y33.9595
G01 X26.1046 Y33.9858
G01 X26.1045 Y34.8995
G01 X26.1031 Y34.9271
G01 X26.0989 Y34.9556
G01 X26.0919 Y34.9836
G01 X26.0822 Y35.0107
G01 X26.0699 Y35.0368
G01 X26.0551 Y35.0615
G01 X26.0379 Y35.0847
G01 X26.0185 Y35.1060
G01 X25.9972 Y35.1254
G01 X25.9760 Y35.1411
G01 X25.9471 Y35.1585
G01 X25.9232 Y35.1697
G01 X25.8961 Y35.1794
G01 X25.8681 Y35.1864
G01 X25.8408 Y35.1905
G01 X25.8108 Y35.1921
G01 X25.3233 Y35.1921
G01 X25.2945 Y35.1906
G01 X25.2660 Y35.1864
G01 X25.2380 Y35.1794
G01 X25.2109 Y35.1697
G01 X25.1848 Y35.1574
G01 X25.1601 Y35.1426
G01 X25.1370 Y35.1254
G01 X25.1156 Y35.1060
G01 X25.0962 Y35.0847
G01 X25.0791 Y35.0615
G01 X25.0642 Y35.0368
G01 X25.0529 Y35.0130
G01 X25.0416 Y34.9812
G01 X25.0352 Y34.9556
G01 X25.0310 Y34.9271
G01 X25.0296 Y34.8983
G01 X25.0296 Y34.1875
G01 X24.0489 Y33.2068
G01 X24.0374 Y33.1940
G01 X24.0257 Y33.1782
G01 X24.0156 Y33.1614
G01 X24.0072 Y33.1436
G01 X24.0006 Y33.1251
G01 X23.9958 Y33.1061
G01 X23.9930 Y33.0867
G01 X23.9920 Y33.0671
G00 Z2.0000
G00 X27.7461 Y33.6984
G01 F60.00
G01 Z-0.0500
G01 F120.00
G01 X27.7461 Y33.3392
G01 X27.8023 Y33.2830
G01 X27.9222 Y33.2812
G01 X28.0193 Y33.2908
G01 X28.1057 Y33.3169
G01 X28.1852 Y33.3595
G01 X28.2549 Y33.4167
G01 X28.3122 Y33.4864
G01 X28.3547 Y33.5660
G01 X28.3809 Y33.6523
G01 X28.3905 Y33.7501
G01 X28.3880 Y34.0824
G01 X28.3325 Y34.1380
G01 X27.9796 Y34.1380
G01 X27.9796 Y33.9858
G01 X27.9780 Y33.9558
G01 X27.9739 Y33.9285
G01 X27.9669 Y33.9005
G01 X27.9572 Y33.8734
G01 X27.9449 Y33.8473
G01 X27.9301 Y33.8226
G01 X27.9129 Y33.7995
G01 X27.8935 Y33.7781
G01 X27.8702 Y33.7572
G01 X27.8490 Y33.7416
G01 X27.8221 Y33.7256
G01 X27.7959 Y33.7135
G01 X27.7711 Y33.7047
G01 X27.7461 Y33.6984
G00 Z2.0000
G00 X27.8361 Y33.6328
G01 F60.00
G01 Z-0.0500
G01 F120.00
G01 X27.8361 Y33.3764
G01 X27.8401 Y33.3724
G01 X27.9185 Y33.3713
G01 X28.0017 Y33.3795
G01 X28.0710 Y33.4005
G01 X28.1350 Y33.4347
G01 X28.1910 Y33.4806
G01 X28.2370 Y33.5367
G01 X28.2711 Y33.6006
G01 X28.2922 Y33.6699
G01 X28.3005 Y33.7542
G01 X28.2983 Y34.0449
G01 X28.2952 Y34.0480
G01 X28.0696 Y34.0480
G01 X28.0695 Y33.9824
G01 X28.0682 Y33.9551
G01 X28.0669 Y33.9414
G01 X28.0622 Y33.9109
G01 X28.0530 Y33.8744
G01 X28.0428 Y33.8454
G01 X28.0376 Y33.8327
G01 X28.0273 Y33.8110
G01 X28.0226 Y33.8019
G01 X28.0049 Y33.7726
G01 X27.9846 Y33.7450
G01 X27.9780 Y33.7372
G01 X27.9619 Y33.7194
G01 X27.9522 Y33.7097
G01 X27.9293 Y33.6892
G01 X27.8990 Y33.6667
G01 X27.8667 Y33.6474
G01 X27.8361 Y33.6328
G00 Z2.0000
G00 X27.7461 Y35.1857
G01 F60.00
G01 Z-0.0500
G01 F120.00
G01 X27.7711 Y35.1794
G01 X27.7959 Y35.1706
G01 X27.8221 Y35.1585
G01 X27.8490 Y35.1426
G01 X27.8702 Y35.1269
G01 X27.8935 Y35.1060
G01 X27.9129 Y35.0847
G01 X27.9301 Y35.0615
G01 X27.9449 Y35.0368
G01 X27.9572 Y35.0107
G01 X27.9669 Y34.9836
G01 X27.9739 Y34.9556
G01 X27.9780 Y34.9283
G01 X27.9796 Y34.8983
G01 X27.9796 Y34.7461
G01 X28.3325 Y34.7461
G01 X28.3880 Y34.8017
G01 X28.3905 Y35.1340
G01 X28.3809 Y35.2318
G01 X28.3547 Y35.3182
G01 X28.3122 Y35.3977
G01 X28.2549 Y35.4674
G01 X28.1852 Y35.5247
G01 X28.1057 Y35.5672
G01 X28.0193 Y35.5934
G01 X27.9222 Y35.6029
G01 X27.8023 Y35.6011
G01 X27.7461 Y35.5450
G01 X27.7461 Y35.1857
G00 Z2.0000
G00 X27.8361 Y35.2514
G01 F60.00
G01 Z-0.0500
G01 F120.00
G01 X27.8667 Y35.2368
G01 X27.8990 Y35.2174
G01 X27.9293 Y35.1950
G01 X27.9522 Y35.1744
G01 X27.9619 Y35.1647
G01 X27.9780 Y35.1470
G01 X27.9846 Y35.1391
G01 X28.0049 Y35.1115
G01 X28.0226 Y35.0822
G01 X28.0273 Y35.0731
G01 X28.0376 Y35.0515
G01 X28.0428 Y35.0388
G01 X28.0530 Y35.0097
G01 X28.0622 Y34.9732
G01 X28.0669 Y34.9427
G01 X28.0682 Y34.9291
G01 X28.0695 Y34.9017
G01 X28.0696 Y34.8361
G01 X28.2952 Y34.8361
G01 X28.2983 Y34.8393
G01 X28.3005 Y35.1299
G01 X28.2922 Y35.2142
G01 X28.2711 Y35.2835
G01 X28.2370 Y35.3475
G01 X28.1910 Y35.4035
G01 X28.1350 Y35.4495
G01 X28.0710 Y35.4836
G01 X28.0017 Y35.5047
G01 X27.9185 Y35.5129
G01 X27.8401 Y35.5117
G01 X27.8361 Y35.5077
G01 X27.8361 Y35.2514
G00 Z2.0000
G00 X32.8833 Y32.9664
G01 F60.00
G01 Z-0.0500
G01 F120.00
G01 X32.8859 Y32.9799
G01 X32.8936 Y33.0097
G01 X32.9038 Y33.0388
G01 X32.9076 Y33.0483
G01 X32.9224 Y33.0792
G01 X32.9381 Y33.1057
G01 X32.9437 Y33.1143
G01 X32.9620 Y33.1391
G01 X32.9687 Y33.1470
G01 X32.9895 Y33.1697
G01 X33.0122 Y33.1905
G01 X33.0228 Y33.1992
G01 X33.0476 Y33.2174
G01 X33.0739 Y33.2334
G01 X33.0830 Y33.2383
G01 X33.1105 Y33.2514
G01 X33.1105 Y33.5077
G01 X33.1065 Y33.5117
G01 X33.0282 Y33.5129
G01 X32.9449 Y33.5047
G01 X32.8756 Y33.4836
G01 X32.8117 Y33.4495
G01 X32.7556 Y33.4035
G01 X32.7097 Y33.3475
G01 X32.6755 Y33.2835
G01 X32.6545 Y33.2142
G01 X32.6462 Y33.1299
G01 X32.6483 Y32.8393
G01 X32.6514 Y32.8361
G01 X32.8771 Y32.8361
G01 X32.8772 Y32.9052
G01 X32.8789 Y32.9359
G01 X32.8833 Y32.9664
G00 Z2.0000
G00 X32.9723 Y32.9532
G01 F60.00
G01 Z-0.0500
G01 F120.00
G01 X32.9805 Y32.9859
G01 X32.9894 Y33.0107
G01 X33.0017 Y33.0368
G01 X33.0180 Y33.0635
G01 X33.0337 Y33.0847
G01 X33.0531 Y33.1060
G01 X33.0745 Y33.1254
G01 X33.0956 Y33.1411
G01 X33.1223 Y33.1574
G01 X33.1507 Y33.1706
G01 X33.1755 Y33.1794
G01 X33.2005 Y33.1857
G01 X33.2005 Y33.5450
G01 X33.1444 Y33.6011
G01 X33.0244 Y33.6029
G01 X32.9273 Y33.5934
G01 X32.8410 Y33.5672
G01 X32.7614 Y33.5247
G01 X32.6917 Y33.4674
G01 X32.6345 Y33.3977
G01 X32.5919 Y33.3182
G01 X32.5658 Y33.2318
G01 X32.5561 Y33.1340
G01 X32.5586 Y32.8017
G01 X32.6142 Y32.7461
G01 X32.9671 Y32.7461
G01 X32.9671 Y32.8995
G01 X32.9685 Y32.9271
G01 X32.9723 Y32.9532
G00 Z2.0000
G00 X32.9671 Y32.1380
G01 F60.00
G01 Z-0.0500
G01 F120.00
G01 X32.6142 Y32.1380
G01 X32.5586 Y32.0824
G01 X32.5561 Y31.7501
G01 X32.5658 Y31.6523
G01 X32.5919 Y31.5660
G01 X32.6345 Y31.4864
G01 X32.6917 Y31.4167
G01 X32.7614 Y31.3595
G01 X32.8410 Y31.3169
G01 X32.9273 Y31.2908
G01 X33.0244 Y31.2812
G01 X33.1444 Y31.2830
G01 X33.2005 Y31.3392
G01 X33.2005 Y31.6984
G01 X33.1755 Y31.7047
G01 X33.1507 Y31.7135
G01 X33.1245 Y31.7256
G01 X33.0976 Y31.7416
G01 X33.0764 Y31.7572
G01 X33.0531 Y31.7781
G01 X33.0337 Y31.7995
G01 X33.0166 Y31.8226
G01 X33.0017 Y31.8473
G01 X32.9894 Y31.8734
G01 X32.9797 Y31.9005
G01 X32.9727 Y31.9285
G01 X32.9686 Y31.9558
G01 X32.9671 Y31.9858
G01 X32.9671 Y32.1380
G00 Z2.0000
G00 X32.8771 Y32.0480
G01 F60.00
G01 Z-0.0500
G01 F120.00
G01 X32.6514 Y32.0480
G01 X32.6483 Y32.0449
G01 X32.6462 Y31.7542
G01 X32.6545 Y31.6699
G01 X32.6755 Y31.6006
G01 X32.7097 Y31.5367
G01 X32.7556 Y31.4806
G01 X32.8117 Y31.4347
G01 X32.8756 Y31.4005
G01 X32.9449 Y31.3795
G01 X33.0282 Y31.3713
G01 X33.1065 Y31.3724
G01 X33.1105 Y31.3764
G01 X33.1105 Y31.6328
G01 X33.0799 Y31.6474
G01 X33.0476 Y31.6667
G01 X33.0174 Y31.6892
G01 X32.9944 Y31.7097
G01 X32.9847 Y31.7194
G01 X32.9687 Y31.7372
G01 X32.9620 Y31.7450
G01 X32.9417 Y31.7726
G01 X32.9240 Y31.8019
G01 X32.9193 Y31.8110
G01 X32.9091 Y31.8327
G01 X32.9038 Y31.8454
G01 X32.8936 Y31.8744
G01 X32.8844 Y31.9109
G01 X32.8798 Y31.9414
G01 X32.8784 Y31.9551
G01 X32.8771 Y31.9824
G01 X32.8771 Y32.0480
G00 Z2.0000
G00 X42.8108 Y39.2745
G01 F60.00
G01 Z-0.0500
G01 F120.00
G01 X42.8095 Y39.2882
G01 X42.8022 Y39.4352
G01 X42.8022 Y39.4489
G01 X42.8100 Y39.6028
G01 X42.8324 Y39.7552
G01 X42.8343 Y39.7654
G01 X42.8727 Y39.9181
G01 X42.9256 Y40.0665
G01 X42.9297 Y40.0759
G01 X42.9941 Y40.2121
G01 X42.9991 Y40.2211
G01 X43.0391 Y40.2878
G01 X42.8970 Y40.4298
G01 X42.8326 Y40.3980
G01 X42.6940 Y40.1256
G01 X42.5942 Y39.7714
G01 X42.5655 Y39.4046
G01 X42.6088 Y39.0392
G01 X42.7235 Y38.6867
G01 X42.8300 Y38.4875
G01 X42.8970 Y38.4543
G01 X43.0391 Y38.5963
G01 X42.9991 Y38.6630
G01 X42.9941 Y38.6720
G01 X42.9283 Y38.8113
G01 X42.9244 Y38.8209
G01 X42.8737 Y38.9627
G01 X42.8708 Y38.9726
G01 X42.8336 Y39.1221
G01 X42.8108 Y39.2745
G00 Z2.0000
G00 X42.8998 Y39.2877
G01 F60.00
G01 Z-0.0500
G01 F120.00
G01 X42.8921 Y39.4445
G01 X42.8995 Y39.5940
G01 X42.9224 Y39.7468
G01 X42.9588 Y39.8920
G01 X43.0101 Y40.0352
G01 X43.0751 Y40.1727
G01 X43.1524 Y40.3018
G01 X42.9150 Y40.5391
G01 X42.7660 Y40.4654
G01 X42.6097 Y40.1585
G01 X42.5052 Y39.7873
G01 X42.4750 Y39.4028
G01 X42.5205 Y39.0198
G01 X42.6404 Y38.6513
G01 X42.7642 Y38.4196
G01 X42.9150 Y38.3450
G01 X43.1524 Y38.5824
G01 X43.0751 Y38.7114
G01 X43.0092 Y38.8512
G01 X42.9588 Y38.9921
G01 X42.9224 Y39.1373
G01 X42.8998 Y39.2877
G00 Z2.0000
G00 X43.5824 Y40.7318
G01 F60.00
G01 Z-0.0500
G01 F120.00
G01 X43.7114 Y40.8090
G01 X43.8467 Y40.8731
G01 X43.9921 Y40.9253
G01 X44.1421 Y40.9627
G01 X44.2901 Y40.9846
G01 X44.4421 Y40.9921
G01 X44.5940 Y40.9846
G01 X44.7420 Y40.9627
G01 X44.8920 Y40.9253
G01 X45.0375 Y40.8731
G01 X45.1727 Y40.8090
G01 X45.3018 Y40.7318
G01 X45.5391 Y40.9691
G01 X45.4654 Y41.1181
G01 X45.1585 Y41.2744
G01 X44.7873 Y41.3789
G01 X44.4028 Y41.4091
G01 X44.0198 Y41.3636
G01 X43.6513 Y41.2438
G01 X43.4196 Y41.1199
G01 X43.3450 Y40.9691
G01 X43.5824 Y40.7318
G00 Z2.0000
G00 X43.5963 Y40.8451
G01 F60.00
G01 Z-0.0500
G01 F120.00
G01 X43.6630 Y40.8850
G01 X43.6720 Y40.8900
G01 X43.8113 Y40.9559
G01 X43.8209 Y40.9597
G01 X43.9627 Y41.0104
G01 X43.9726 Y41.0133
G01 X44.1221 Y41.0506
G01 X44.2745 Y41.0733
G01 X44.2847 Y41.0745
G01 X44.4421 Y41.0821
G01 X44.5960 Y41.0747
G01 X44.6096 Y41.0733
G01 X44.7552 Y41.0517
G01 X44.7654 Y41.0498
G01 X44.9181 Y41.0114
G01 X45.0665 Y40.9585
G01 X45.0759 Y40.9544
G01 X45.2121 Y40.8900
G01 X45.2211 Y40.8850
G01 X45.2878 Y40.8451
G01 X45.4298 Y40.9871
G01 X45.3980 Y41.0515
G01 X45.1256 Y41.1902
G01 X44.7714 Y41.2899
G01 X44.4046 Y41.3187
G01 X44.0392 Y41.2753
G01 X43.6867 Y41.1606
G01 X43.4875 Y41.0541
G01 X43.4543 Y40.9871
G01 X43.5963 Y40.8451
G00 Z2.0000
G00 X45.7318 Y40.3018
G01 F60.00
G01 Z-0.0500
G01 F120.00
G01 X45.8090 Y40.1727
G01 X45.8731 Y40.0375
G01 X45.9253 Y39.8920
G01 X45.9627 Y39.7420
G01 X45.9846 Y39.5940
G01 X45.9921 Y39.4421
G01 X45.9846 Y39.2901
G01 X45.9627 Y39.1421
G01 X45.9253 Y38.9921
G01 X45.8731 Y38.8467
G01 X45.8090 Y38.7114
G01 X45.7318 Y38.5824
G01 X45.9691 Y38.3450
G01 X46.1181 Y38.4187
G01 X46.2744 Y38.7256
G01 X46.3789 Y39.0968
G01 X46.4091 Y39.4813
G01 X46.3636 Y39.8643
G01 X46.2438 Y40.2328
G01 X46.1199 Y40.4645
G01 X45.9691 Y40.5391
G01 X45.7318 Y40.3018
G00 Z2.0000
G00 X45.8451 Y40.2878
G01 F60.00
G01 Z-0.0500
G01 F120.00
G01 X45.8850 Y40.2211
G01 X45.8900 Y40.2121
G01 X45.9559 Y40.0728
G01 X45.9597 Y40.0633
G01 X46.0104 Y39.9214
G01 X46.0133 Y39.9115
G01 X46.0506 Y39.7620
G01 X46.0733 Y39.6096
G01 X46.0745 Y39.5994
G01 X46.0821 Y39.4421
G01 X46.0747 Y39.2882
G01 X46.0733 Y39.2745
G01 X46.0517 Y39.1289
G01 X46.0498 Y39.1188
G01 X46.0114 Y38.9660
G01 X45.9585 Y38.8177
G01 X45.9544 Y38.8082
G01 X45.8900 Y38.6720
G01 X45.8850 Y38.6630
G01 X45.8451 Y38.5963
G01 X45.9871 Y38.4543
G01 X46.0515 Y38.4862
G01 X46.1902 Y38.7585
G01 X46.2899 Y39.1127
G01 X46.3187 Y39.4795
G01 X46.2753 Y39.8449
G01 X46.1606 Y40.1974
G01 X46.0541 Y40.3967
G01 X45.9871 Y40.4298
G01 X45.8451 Y40.2878
G00 Z2.0000
G00 X21.2163 Y42.5391
G01 F60.00
G01 Z-0.0500
G01 F120.00
G01 X21.0743 Y42.3970
G01 X21.1062 Y42.3326
G01 X21.3785 Y42.1940
G01 X21.7327 Y42.0942
G01 X22.0995 Y42.0655
G01 X22.4649 Y42.1088
G01 X22.8174 Y42.2235
G01 X23.0167 Y42.3300
G01 X23.0498 Y42.3970
G01 X22.9078 Y42.5391
G01 X22.8411 Y42.4991
G01 X22.8321 Y42.4941
G01 X22.6959 Y42.4297
G01 X22.6865 Y42.4256
G01 X22.5381 Y42.3727
G01 X22.3854 Y42.3343
G01 X22.3752 Y42.3324
G01 X22.2296 Y42.3108
G01 X22.2160 Y42.3095
G01 X22.0621 Y42.3021
G01 X21.9047 Y42.3097
G01 X21.8945 Y42.3108
G01 X21.7421 Y42.3336
G01 X21.5926 Y42.3708
G01 X21.5827 Y42.3737
G01 X21.4409 Y42.4244
G01 X21.4313 Y42.4283
G01 X21.2920 Y42.4941
G01 X21.2830 Y42.4991
G01 X21.2163 Y42.5391
G00 Z2.0000
G00 X21.2024 Y42.6524
G01 F60.00
G01 Z-0.0500
G01 F120.00
G01 X20.9650 Y42.4150
G01 X21.0387 Y42.2660
G01 X21.3456 Y42.1097
G01 X21.7168 Y42.0052
G01 X22.1013 Y41.9750
G01 X22.4843 Y42.0205
G01 X22.8528 Y42.1404
G01 X23.0845 Y42.2642
G01 X23.1591 Y42.4150
G01 X22.9218 Y42.6524
G01 X22.7927 Y42.5751
G01 X22.6575 Y42.5110
G01 X22.5120 Y42.4588
G01 X22.3620 Y42.4214
G01 X22.2140 Y42.3995
G01 X22.0621 Y42.3921
G01 X21.9101 Y42.3995
G01 X21.7621 Y42.4214
G01 X21.6121 Y42.4588
G01 X21.4667 Y42.5110
G01 X21.3314 Y42.5751
G01 X21.2024 Y42.6524
G00 Z2.0000
G00 X20.5198 Y43.7877
G01 F60.00
G01 Z-0.0500
G01 F120.00
G01 X20.5121 Y43.9445
G01 X20.5195 Y44.0940
G01 X20.5424 Y44.2468
G01 X20.5788 Y44.3920
G01 X20.6301 Y44.5352
G01 X20.6951 Y44.6727
G01 X20.7724 Y44.8018
G01 X20.5350 Y45.0391
G01 X20.3860 Y44.9654
G01 X20.2297 Y44.6585
G01 X20.1252 Y44.2873
G01 X20.0950 Y43.9028
G01 X20.1405 Y43.5198
G01 X20.2604 Y43.1513
G01 X20.3842 Y42.9196
G01 X20.5350 Y42.8450
G01 X20.7724 Y43.0824
G01 X20.6951 Y43.2114
G01 X20.6292 Y43.3512
G01 X20.5788 Y43.4921
G01 X20.5424 Y43.6373
G01 X20.5198 Y43.7877
G00 Z2.0000
G00 X20.4308 Y43.7745
G01 F60.00
G01 Z-0.0500
G01 F120.00
G01 X20.4295 Y43.7882
G01 X20.4222 Y43.9352
G01 X20.4222 Y43.9489
G01 X20.4300 Y44.1028
G01 X20.4524 Y44.2552
G01 X20.4543 Y44.2654
G01 X20.4927 Y44.4181
G01 X20.5456 Y44.5665
G01 X20.5497 Y44.5759
G01 X20.6141 Y44.7121
G01 X20.6191 Y44.7211
G01 X20.6591 Y44.7878
G01 X20.5170 Y44.9298
G01 X20.4526 Y44.8980
G01 X20.3140 Y44.6256
G01 X20.2142 Y44.2714
G01 X20.1855 Y43.9046
G01 X20.2288 Y43.5392
G01 X20.3435 Y43.1867
G01 X20.4500 Y42.9875
G01 X20.5170 Y42.9543
G01 X20.6591 Y43.0963
G01 X20.6191 Y43.1630
G01 X20.6141 Y43.1720
G01 X20.5483 Y43.3113
G01 X20.5444 Y43.3209
G01 X20.4937 Y43.4627
G01 X20.4908 Y43.4726
G01 X20.4536 Y43.6221
G01 X20.4308 Y43.7745
G00 Z2.0000
G00 X21.2024 Y45.2318
G01 F60.00
G01 Z-0.0500
G01 F120.00
G01 X21.3314 Y45.3090
G01 X21.4667 Y45.3731
G01 X21.6121 Y45.4253
G01 X21.7621 Y45.4627
G01 X21.9101 Y45.4846
G01 X22.0621 Y45.4921
G01 X22.2140 Y45.4846
G01 X22.3620 Y45.4627
G01 X22.5120 Y45.4253
G01 X22.6575 Y45.3731
G01 X22.7927 Y45.3090
G01 X22.9218 Y45.2318
G01 X23.1591 Y45.4691
G01 X23.0854 Y45.6181
G01 X22.7785 Y45.7744
G01 X22.4073 Y45.8789
G01 X22.0228 Y45.9091
G01 X21.6398 Y45.8636
G01 X21.2713 Y45.7438
G01 X21.0396 Y45.6199
G01 X20.9650 Y45.4691
G01 X21.2024 Y45.2318
G00 Z2.0000
G00 X21.2163 Y45.3451
G01 F60.00
G01 Z-0.0500
G01 F120.00
G01 X21.2830 Y45.3850
G01 X21.2920 Y45.3900
G01 X21.4313 Y45.4559
G01 X21.4409 Y45.4597
G01 X21.5827 Y45.5104
G01 X21.5926 Y45.5133
G01 X21.7421 Y45.5506
G01 X21.8945 Y45.5733
G01 X21.9047 Y45.5745
G01 X22.0621 Y45.5821
G01 X22.2160 Y45.5747
G01 X22.2296 Y45.5733
G01 X22.3752 Y45.5517
G01 X22.3854 Y45.5498
G01 X22.5381 Y45.5114
G01 X22.6865 Y45.4585
G01 X22.6959 Y45.4544
G01 X22.8321 Y45.3900
G01 X22.8411 Y45.3850
G01 X22.9078 Y45.3451
G01 X23.0498 Y45.4871
G01 X23.0180 Y45.5515
G01 X22.7456 Y45.6902
G01 X22.3914 Y45.7899
G01 X22.0246 Y45.8187
G01 X21.6592 Y45.7753
G01 X21.3067 Y45.6606
G01 X21.1075 Y45.5541
G01 X21.0743 Y45.4871
G01 X21.2163 Y45.3451
G00 Z2.0000
G00 X11.4421 Y42.3921
G01 F60.00
G01 Z-0.0500
G01 F120.00
G01 X13.7139 Y42.3921
G01 X14.3293 Y41.7766
G01 X14.3293 Y35.4408
G01 X14.3320 Y35.3881
G01 X14.3397 Y35.3359
G01 X14.3421 Y35.3258
G01 X14.3421 Y34.9858
G01 X14.3438 Y34.9546
G01 X14.3477 Y34.9285
G01 X14.3541 Y34.9029
G01 X14.3654 Y34.8712
G01 X14.3767 Y34.8473
G01 X14.3916 Y34.8226
G01 X14.4087 Y34.7995
G01 X14.4264 Y34.7799
G01 X14.4495 Y34.7587
G01 X14.4726 Y34.7416
G01 X14.4973 Y34.7267
G01 X14.5234 Y34.7144
G01 X14.5505 Y34.7047
G01 X14.5785 Y34.6977
G01 X14.6070 Y34.6935
G01 X14.6334 Y34.6921
G01 X15.1233 Y34.6921
G01 X15.1509 Y34.6934
G01 X15.1830 Y34.6982
G01 X15.2086 Y34.7047
G01 X15.2334 Y34.7135
G01 X15.2618 Y34.7267
G01 X15.2882 Y34.7428
G01 X20.2280 Y29.8030
G01 X20.2699 Y29.7652
G01 X20.3114 Y29.7345
G01 X20.3566 Y29.7074
G01 X20.4065 Y29.6837
G01 X20.4573 Y29.6655
G01 X20.5097 Y29.6524
G01 X20.5644 Y29.6444
G01 X20.6171 Y29.6418
G01 X21.2921 Y29.6418
G01 X21.3448 Y29.6444
G01 X21.3994 Y29.6524
G01 X21.4541 Y29.6663
G01 X21.5049 Y29.6847
G01 X21.5514 Y29.7068
G01 X21.5957 Y29.7332
G01 X21.6411 Y29.7667
G01 X21.6811 Y29.8030
G01 X21.7174 Y29.8430
G01 X21.7482 Y29.8844
G01 X21.7530 Y29.8919
G01 X22.9920 Y29.8919
G01 X22.9920 Y25.3796
G01 X22.9928 Y25.3612
G01 X22.9958 Y25.3405
G01 X23.0006 Y25.3215
G01 X23.0072 Y25.3030
G01 X23.0171 Y25.2827
G01 X23.0171 Y25.0296
G01 X23.0177 Y25.0173
G01 X23.0192 Y25.0076
G01 X23.0213 Y24.9993
G01 X23.0256 Y24.9865
G01 X23.0316 Y24.9744
G01 X23.0360 Y24.9671
G01 X23.0418 Y24.9592
G01 X23.0500 Y24.9500
G01 X23.0582 Y24.9426
G01 X23.0671 Y24.9360
G01 X23.0765 Y24.9303
G01 X23.0865 Y24.9256
G01 X23.0969 Y24.9219
G01 X23.1076 Y24.9192
G01 X23.1198 Y24.9175
G01 X23.1296 Y24.9171
G01 X23.2546 Y24.9171
G01 X23.2656 Y24.9176
G01 X23.2777 Y24.9195
G01 X23.2896 Y24.9227
G01 X23.2976 Y24.9256
G01 X23.3054 Y24.9292
G01 X23.3171 Y24.9360
G01 X23.3259 Y24.9426
G01 X23.3341 Y24.9500
G01 X23.3415 Y24.9582
G01 X23.3481 Y24.9671
G01 X23.3538 Y24.9765
G01 X23.3585 Y24.9865
G01 X23.3622 Y24.9969
G01 X23.3651 Y25.0088
G01 X23.3665 Y25.0185
G01 X23.3671 Y25.0296
G01 X23.3671 Y25.2827
G01 X23.3769 Y25.3030
G01 X23.3842 Y25.3238
G01 X23.3883 Y25.3405
G01 X23.3909 Y25.3575
G01 X23.3921 Y25.3796
G01 X23.3921 Y30.0724
G01 X23.3948 Y30.0784
G01 X23.4043 Y30.1049
G01 X23.4114 Y30.1335
G01 X23.4157 Y30.1626
G01 X23.4172 Y30.1921
G01 X23.4157 Y30.2215
G01 X23.4118 Y30.2482
G01 X23.4043 Y30.2792
G01 X23.3943 Y30.3069
G01 X23.3828 Y30.3313
G01 X23.3659 Y30.3598
G01 X23.3491 Y30.3825
G01 X23.3275 Y30.4060
G01 X23.3055 Y30.4256
G01 X23.2838 Y30.4416
G01 X23.2607 Y30.4555
G01 X23.2319 Y30.4693
G01 X23.2042 Y30.4793
G01 X23.1756 Y30.4864
G01 X23.1452 Y30.4908
G01 X23.1171 Y30.4922
G01 X21.7530 Y30.4922
G01 X21.7482 Y30.4998
G01 X21.7158 Y30.5430
G01 X21.6811 Y30.5811
G01 X21.6392 Y30.6189
G01 X21.5978 Y30.6496
G01 X21.5514 Y30.6773
G01 X21.5026 Y30.7004
G01 X21.4506 Y30.7190
G01 X21.3970 Y30.7322
G01 X21.3460 Y30.7397
G01 X21.2945 Y30.7423
G01 X20.8450 Y30.7423
G01 X15.7553 Y35.8320
G01 X15.7161 Y35.8674
G01 X15.6748 Y35.8982
G01 X15.6243 Y35.9284
G01 X15.5776 Y35.9504
G01 X15.5268 Y35.9686
G01 X15.4744 Y35.9817
G01 X15.4298 Y35.9884
G01 X15.4298 Y42.0046
G01 X15.4272 Y42.0585
G01 X15.4192 Y42.1119
G01 X15.4068 Y42.1619
G01 X15.3879 Y42.2151
G01 X15.3648 Y42.2639
G01 X15.3384 Y42.3082
G01 X15.3049 Y42.3536
G01 X15.2686 Y42.3936
G01 X14.4921 Y43.1702
G01 X14.4921 Y45.4421
G01 X14.4911 Y45.4518
G01 X14.4883 Y45.4612
G01 X14.4836 Y45.4698
G01 X14.4774 Y45.4774
G01 X14.4698 Y45.4836
G01 X14.4612 Y45.4883
G01 X14.4518 Y45.4911
G01 X14.4421 Y45.4921
G01 X11.4421 Y45.4921
G01 X11.4323 Y45.4911
G01 X11.4229 Y45.4883
G01 X11.4143 Y45.4836
G01 X11.4067 Y45.4774
G01 X11.4005 Y45.4698
G01 X11.3959 Y45.4612
G01 X11.3930 Y45.4518
G01 X11.3921 Y45.4421
G01 X11.3921 Y42.4421
G01 X11.3930 Y42.4323
G01 X11.3959 Y42.4229
G01 X11.4005 Y42.4143
G01 X11.4067 Y42.4067
G01 X11.4143 Y42.4005
G01 X11.4229 Y42.3959
G01 X11.4323 Y42.3930
G01 X11.4421 Y42.3921
G00 Z2.0000
G00 X10.4651 Y43.0963
G01 F60.00
G01 Z-0.0500
G01 F120.00
G01 X10.6071 Y42.9543
G01 X10.6887 Y42.9946
G01 X10.7093 Y43.0035
G01 X10.7306 Y43.0105
G01 X10.7557 Y43.0164
G01 X10.7813 Y43.0198
G01 X10.8071 Y43.0208
G01 X10.8294 Y43.0195
G01 X10.8395 Y43.0184
G01 X10.8583 Y43.0152
G01 X10.8833 Y43.0087
G01 X10.9075 Y42.9999
G01 X10.9308 Y42.9888
G01 X10.9529 Y42.9754
G01 X10.9736 Y42.9600
G01 X10.9927 Y42.9427
G01 X11.0101 Y42.9236
G01 X11.0235 Y42.9057
G01 X11.0292 Y42.8972
G01 X11.0405 Y42.8779
G01 X11.0500 Y42.8576
G01 X11.0578 Y42.8365
G01 X11.0608 Y42.8269
G01 X11.0661 Y42.8051
G01 X11.0690 Y42.7862
G01 X11.0701 Y42.7762
G01 X11.0711 Y42.7537
G01 X11.0711 Y42.4552
G01 X11.0795 Y42.3699
G01 X11.1005 Y42.3006
G01 X11.1347 Y42.2367
G01 X11.1806 Y42.1806
G01 X11.2367 Y42.1347
G01 X11.3006 Y42.1005
G01 X11.3699 Y42.0795
G01 X11.4552 Y42.0711
G01 X13.4750 Y42.0711
G01 X13.5012 Y42.0698
G01 X13.5237 Y42.0666
G01 X13.5338 Y42.0644
G01 X13.5558 Y42.0585
G01 X13.5772 Y42.0507
G01 X13.5978 Y42.0411
G01 X13.6069 Y42.0361
G01 X13.6262 Y42.0241
G01 X13.6444 Y42.0104
G01 X13.6614 Y41.9952
G01 X13.9334 Y41.7233
G01 X13.9465 Y41.7091
G01 X13.9532 Y41.7012
G01 X13.9647 Y41.6856
G01 X13.9784 Y41.6633
G01 X13.9899 Y41.6398
G01 X13.9991 Y41.6152
G01 X14.0050 Y41.5932
G01 X14.0077 Y41.5798
G01 X14.0103 Y41.5606
G01 X14.0116 Y41.5344
G01 X14.0116 Y36.7271
G01 X14.0106 Y36.7044
G01 X14.0077 Y36.6818
G01 X14.0058 Y36.6717
G01 X14.0001 Y36.6496
G01 X13.9926 Y36.6281
G01 X13.9832 Y36.6074
G01 X13.9784 Y36.5982
G01 X13.9666 Y36.5787
G01 X13.9532 Y36.5604
G01 X13.9465 Y36.5525
G01 X13.9309 Y36.5359
G01 X13.9140 Y36.5207
G01 X13.8958 Y36.5070
G01 X13.8764 Y36.4950
G01 X13.8674 Y36.4900
G01 X13.8468 Y36.4804
G01 X13.8254 Y36.4726
G01 X13.8000 Y36.4659
G01 X13.7742 Y36.4617
G01 X13.7480 Y36.4601
G01 X13.7218 Y36.4610
G01 X13.6958 Y36.4646
G01 X13.6703 Y36.4706
G01 X13.6488 Y36.4779
G01 X13.6380 Y36.4823
G01 X13.5642 Y36.5047
G01 X13.4810 Y36.5129
G01 X13.4026 Y36.5117
G01 X13.3986 Y36.5077
G01 X13.3986 Y36.2514
G01 X13.4262 Y36.2383
G01 X13.4352 Y36.2334
G01 X13.4615 Y36.2174
G01 X13.4863 Y36.1992
G01 X13.4970 Y36.1905
G01 X13.5197 Y36.1697
G01 X13.5405 Y36.1470
G01 X13.5471 Y36.1391
G01 X13.5654 Y36.1143
G01 X13.5711 Y36.1057
G01 X13.5868 Y36.0792
G01 X13.6015 Y36.0483
G01 X13.6053 Y36.0388
G01 X13.6155 Y36.0097
G01 X13.6232 Y35.9799
G01 X13.6259 Y35.9664
G01 X13.6302 Y35.9359
G01 X13.6321 Y35.8983
G01 X13.6321 Y34.9858
G01 X13.6307 Y34.9551
G01 X13.6294 Y34.9414
G01 X13.6247 Y34.9109
G01 X13.6155 Y34.8744
G01 X13.6053 Y34.8454
G01 X13.6001 Y34.8327
G01 X13.5868 Y34.8049
G01 X13.5674 Y34.7726
G01 X13.5450 Y34.7424
G01 X13.5244 Y34.7194
G01 X13.5147 Y34.7097
G01 X13.4918 Y34.6892
G01 X13.4671 Y34.6707
G01 X13.4557 Y34.6631
G01 X13.4292 Y34.6474
G01 X13.3986 Y34.6328
G01 X13.3986 Y34.3764
G01 X13.4026 Y34.3724
G01 X13.4810 Y34.3713
G01 X13.5642 Y34.3795
G01 X13.6335 Y34.4005
G01 X13.6975 Y34.4347
G01 X13.7535 Y34.4806
G01 X13.8006 Y34.5381
G01 X13.8158 Y34.5550
G01 X13.8232 Y34.5622
G01 X13.8376 Y34.5751
G01 X13.8531 Y34.5867
G01 X13.8616 Y34.5926
G01 X13.8812 Y34.6042
G01 X13.9017 Y34.6140
G01 X13.9113 Y34.6178
G01 X13.9328 Y34.6251
G01 X13.9550 Y34.6306
G01 X13.9775 Y34.6340
G01 X14.0002 Y34.6355
G01 X14.0139 Y34.6355
G01 X14.0298 Y34.6347
G01 X14.0401 Y34.6336
G01 X14.0592 Y34.6306
G01 X14.0780 Y34.6260
G01 X14.0879 Y34.6232
G01 X14.1061 Y34.6166
G01 X14.1299 Y34.6057
G01 X14.1526 Y34.5926
G01 X14.1738 Y34.5772
G01 X14.1817 Y34.5706
G01 X14.1979 Y34.5554
G01 X14.2950 Y34.4757
G01 X14.4010 Y34.4190
G01 X14.5161 Y34.3841
G01 X14.6489 Y34.3711
G01 X15.1000 Y34.3711
G01 X15.1193 Y34.3703
G01 X15.1296 Y34.3694
G01 X15.1521 Y34.3659
G01 X15.1742 Y34.3605
G01 X15.1958 Y34.3532
G01 X15.2085 Y34.3479
G01 X15.2259 Y34.3395
G01 X15.2484 Y34.3260
G01 X15.2694 Y34.3104
G01 X15.2864 Y34.2952
G01 X19.6158 Y29.9659
G01 X19.6334 Y29.9465
G01 X19.6450 Y29.9311
G01 X19.6509 Y29.9226
G01 X19.6640 Y29.8999
G01 X19.6749 Y29.8761
G01 X19.6835 Y29.8513
G01 X19.6882 Y29.8325
G01 X19.6900 Y29.8224
G01 X19.6927 Y29.8032
G01 X19.6938 Y29.7839
G01 X19.6940 Y29.7736
G01 X19.6932 Y29.7577
G01 X19.6923 Y29.7475
G01 X19.6895 Y29.7283
G01 X19.6835 Y29.7028
G01 X19.6749 Y29.6781
G01 X19.6655 Y29.6573
G01 X19.6608 Y29.6482
G01 X19.6527 Y29.6345
G01 X19.6446 Y29.6225
G01 X19.6445 Y29.6114
G01 X19.6433 Y29.5921
G01 X19.6401 Y29.5696
G01 X19.6380 Y29.5595
G01 X19.6331 Y29.5408
G01 X19.6256 Y29.5193
G01 X19.6162 Y29.4986
G01 X19.6114 Y29.4894
G01 X19.5996 Y29.4699
G01 X19.5882 Y29.4543
G01 X19.5818 Y29.4463
G01 X19.5664 Y29.4295
G01 X19.5496 Y29.4141
G01 X19.5416 Y29.4076
G01 X19.5259 Y29.3963
G01 X19.5065 Y29.3844
G01 X19.4973 Y29.3797
G01 X19.4798 Y29.3716
G01 X19.4551 Y29.3628
G01 X19.4297 Y29.3564
G01 X19.4037 Y29.3525
G01 X19.3776 Y29.3513
G01 X19.3514 Y29.3525
G01 X19.3255 Y29.3564
G01 X19.3067 Y29.3609
G01 X19.2968 Y29.3638
G01 X19.2754 Y29.3716
G01 X19.2517 Y29.3828
G01 X19.2292 Y29.3963
G01 X19.2108 Y29.4097
G01 X19.2029 Y29.4164
G01 X19.1887 Y29.4295
G01 X19.1065 Y29.5117
G01 X19.0282 Y29.5129
G01 X18.9449 Y29.5047
G01 X18.8756 Y29.4836
G01 X18.8117 Y29.4495
G01 X18.7556 Y29.4035
G01 X18.7097 Y29.3475
G01 X18.6755 Y29.2835
G01 X18.6545 Y29.2142
G01 X18.6462 Y29.1299
G01 X18.6483 Y28.8393
G01 X18.6514 Y28.8361
G01 X18.8771 Y28.8361
G01 X18.8771 Y28.9018
G01 X18.8784 Y28.9291
G01 X18.8798 Y28.9427
G01 X18.8833 Y28.9664
G01 X18.8851 Y28.9765
G01 X18.8936 Y29.0097
G01 X18.9063 Y29.0452
G01 X18.9224 Y29.0792
G01 X18.9399 Y29.1086
G01 X18.9457 Y29.1171
G01 X18.9642 Y29.1418
G01 X18.9871 Y29.1672
G01 X18.9944 Y29.1744
G01 X19.0147 Y29.1927
G01 X19.0228 Y29.1992
G01 X19.0420 Y29.2134
G01 X19.0534 Y29.2211
G01 X19.0769 Y29.2351
G01 X19.0860 Y29.2398
G01 X19.1077 Y29.2501
G01 X19.1172 Y29.2541
G01 X19.1429 Y29.2634
G01 X19.1527 Y29.2665
G01 X19.1859 Y29.2747
G01 X19.2164 Y29.2794
G01 X19.2266 Y29.2805
G01 X19.2574 Y29.2820
G01 X19.7483 Y29.2821
G01 X19.7825 Y29.2805
G01 X19.7927 Y29.2794
G01 X19.8164 Y29.2759
G01 X19.8299 Y29.2732
G01 X19.8597 Y29.2655
G01 X19.8952 Y29.2529
G01 X19.9231 Y29.2398
G01 X19.9352 Y29.2334
G01 X19.9615 Y29.2174
G01 X19.9891 Y29.1971
G01 X19.9970 Y29.1905
G01 X20.0197 Y29.1697
G01 X20.0450 Y29.1418
G01 X20.0674 Y29.1115
G01 X20.0868 Y29.0792
G01 X20.1029 Y29.0452
G01 X20.1155 Y29.0097
G01 X20.1247 Y28.9732
G01 X20.1298 Y28.9393
G01 X20.1307 Y28.9291
G01 X20.1321 Y28.8983
G01 X20.1321 Y27.9858
G01 X20.1307 Y27.9551
G01 X20.1294 Y27.9414
G01 X20.1247 Y27.9109
G01 X20.1174 Y27.8810
G01 X20.1134 Y27.8679
G01 X20.1029 Y27.8390
G01 X20.0883 Y27.8080
G01 X20.0834 Y27.7989
G01 X20.0711 Y27.7784
G01 X20.0654 Y27.7698
G01 X20.0450 Y27.7424
G01 X20.0244 Y27.7194
G01 X20.0147 Y27.7097
G01 X19.9918 Y27.6892
G01 X19.9671 Y27.6707
G01 X19.9557 Y27.6631
G01 X19.9292 Y27.6474
G01 X19.8986 Y27.6328
G01 X19.8986 Y27.3764
G01 X19.9026 Y27.3724
G01 X19.9810 Y27.3713
G01 X20.0642 Y27.3795
G01 X20.1335 Y27.4005
G01 X20.1975 Y27.4347
G01 X20.2535 Y27.4806
G01 X20.3006 Y27.5381
G01 X20.3135 Y27.5525
G01 X20.3232 Y27.5622
G01 X20.3350 Y27.5729
G01 X20.3430 Y27.5793
G01 X20.3587 Y27.5907
G01 X20.3812 Y27.6042
G01 X20.4049 Y27.6154
G01 X20.4295 Y27.6242
G01 X20.4550 Y27.6306
G01 X20.4809 Y27.6344
G01 X20.5071 Y27.6357
G01 X20.5264 Y27.6349
G01 X20.5367 Y27.6340
G01 X20.5625 Y27.6298
G01 X20.5813 Y27.6251
G01 X20.5911 Y27.6220
G01 X20.6061 Y27.6166
G01 X20.6155 Y27.6126
G01 X20.6330 Y27.6042
G01 X20.6496 Y27.5944
G01 X20.6583 Y27.5887
G01 X20.6765 Y27.5751
G01 X20.6909 Y27.5622
G01 X20.6979 Y27.5554
G01 X20.7649 Y27.5004
