(G-CODE GENERATED BY FLATCAM v8.994 - www.flatcam.org - Version Date: 2020/11/7)

(Name: bq24160-F_Cu.gbr_iso_combined_cnc)
(Type: G-code from Geometry)
(Units: MM)

(Created on Wednesday, 09 February 2022 at 21:39)


G01 F80.00

M5
G00 Z15.0000
G00 X0.0000 Y0.0000
T1
M6    
(MSG, Change to Tool Dia = 0.1000)
M0
G00 Z15.0000

M03 S1000.0
G01 F80.00
G00 X70.5079 Y-70.6850
G01 F40.00
G01 Z0.0000
G01 F80.00
G01 X70.5079 Y-119.3150
G01 X70.5088 Y-119.3324
G01 X70.5113 Y-119.3495
G01 X70.5156 Y-119.3664
G01 X70.5214 Y-119.3828
G01 X70.5288 Y-119.3985
G01 X70.5378 Y-119.4134
G01 X70.5481 Y-119.4273
G01 X70.5598 Y-119.4402
G01 X70.5727 Y-119.4519
G01 X70.5866 Y-119.4622
G01 X70.6015 Y-119.4712
G01 X70.6172 Y-119.4786
G01 X70.6336 Y-119.4844
G01 X70.6505 Y-119.4887
G01 X70.6676 Y-119.4912
G01 X70.6850 Y-119.4921
G01 X119.3150 Y-119.4921
G01 X119.3324 Y-119.4912
G01 X119.3495 Y-119.4887
G01 X119.3664 Y-119.4844
G01 X119.3828 Y-119.4786
G01 X119.3983 Y-119.4713
G01 X119.4134 Y-119.4622
G01 X119.4273 Y-119.4519
G01 X119.4402 Y-119.4402
G01 X119.4519 Y-119.4273
G01 X119.4619 Y-119.4138
G01 X119.4712 Y-119.3985
G01 X119.4786 Y-119.3827
G01 X119.4844 Y-119.3664
G01 X119.4886 Y-119.3497
G01 X119.4912 Y-119.3326
G01 X119.4921 Y-119.3150
G01 X119.4921 Y-70.6850
G01 X119.4912 Y-70.6676
G01 X119.4887 Y-70.6505
G01 X119.4844 Y-70.6336
G01 X119.4786 Y-70.6172
G01 X119.4712 Y-70.6015
G01 X119.4622 Y-70.5866
G01 X119.4519 Y-70.5727
G01 X119.4402 Y-70.5598
G01 X119.4273 Y-70.5481
G01 X119.4134 Y-70.5378
G01 X119.3985 Y-70.5288
G01 X119.3828 Y-70.5214
G01 X119.3664 Y-70.5156
G01 X119.3495 Y-70.5113
G01 X119.3324 Y-70.5088
G01 X119.3150 Y-70.5079
G01 X70.6850 Y-70.5079
G01 X70.6676 Y-70.5088
G01 X70.6505 Y-70.5113
G01 X70.6336 Y-70.5156
G01 X70.6172 Y-70.5214
G01 X70.6015 Y-70.5288
G01 X70.5866 Y-70.5378
G01 X70.5727 Y-70.5481
G01 X70.5598 Y-70.5598
G01 X70.5481 Y-70.5727
G01 X70.5378 Y-70.5866
G01 X70.5288 Y-70.6015
G01 X70.5214 Y-70.6172
G01 X70.5156 Y-70.6336
G01 X70.5113 Y-70.6505
G01 X70.5088 Y-70.6676
G01 X70.5079 Y-70.6850
G00 Z2.0000
G00 X78.7603 Y-74.2103
G01 F40.00
G01 Z0.0000
G01 F80.00
G01 X78.8893 Y-74.1330
G01 X79.0246 Y-74.0690
G01 X79.1701 Y-74.0167
G01 X79.3200 Y-73.9794
G01 X79.4681 Y-73.9575
G01 X79.6200 Y-73.9500
G01 X79.7719 Y-73.9575
G01 X79.9200 Y-73.9794
G01 X80.0699 Y-74.0167
G01 X80.2154 Y-74.0690
G01 X80.3507 Y-74.1330
G01 X80.4797 Y-74.2103
G01 X80.7170 Y-73.9730
G01 X80.6433 Y-73.8239
G01 X80.3365 Y-73.6677
G01 X79.9652 Y-73.5631
G01 X79.5807 Y-73.5330
G01 X79.1977 Y-73.5784
G01 X78.8293 Y-73.6983
G01 X78.5975 Y-73.8222
G01 X78.5230 Y-73.9730
G01 X78.7603 Y-74.2103
G00 Z2.0000
G00 X78.0778 Y-75.6544
G01 F40.00
G01 Z0.0000
G01 F80.00
G01 X78.0701 Y-75.4975
G01 X78.0775 Y-75.3481
G01 X78.1003 Y-75.1952
G01 X78.1367 Y-75.0501
G01 X78.1880 Y-74.9068
G01 X78.2530 Y-74.7693
G01 X78.3303 Y-74.6403
G01 X78.0930 Y-74.4030
G01 X77.9439 Y-74.4767
G01 X77.7877 Y-74.7835
G01 X77.6831 Y-75.1548
G01 X77.6530 Y-75.5393
G01 X77.6984 Y-75.9223
G01 X77.8183 Y-76.2907
G01 X77.9422 Y-76.5225
G01 X78.0930 Y-76.5970
G01 X78.3303 Y-76.3597
G01 X78.2530 Y-76.2307
G01 X78.1871 Y-76.0909
G01 X78.1367 Y-75.9499
G01 X78.1003 Y-75.8048
G01 X78.0778 Y-75.6544
G00 Z2.0000
G00 X78.7603 Y-76.7897
G01 F40.00
G01 Z0.0000
G01 F80.00
G01 X78.5230 Y-77.0270
G01 X78.5967 Y-77.1761
G01 X78.9035 Y-77.3323
G01 X79.2748 Y-77.4369
G01 X79.6593 Y-77.4670
G01 X80.0423 Y-77.4216
G01 X80.4107 Y-77.3017
G01 X80.6425 Y-77.1778
G01 X80.7170 Y-77.0270
G01 X80.4797 Y-76.7897
G01 X80.3507 Y-76.8670
G01 X80.2154 Y-76.9310
G01 X80.0699 Y-76.9833
G01 X79.9200 Y-77.0206
G01 X79.7719 Y-77.0425
G01 X79.6200 Y-77.0500
G01 X79.4681 Y-77.0425
G01 X79.3200 Y-77.0206
G01 X79.1701 Y-76.9833
G01 X79.0246 Y-76.9310
G01 X78.8893 Y-76.8670
G01 X78.7603 Y-76.7897
G00 Z2.0000
G00 X80.9097 Y-74.6403
G01 F40.00
G01 Z0.0000
G01 F80.00
G01 X80.9870 Y-74.7693
G01 X81.0510 Y-74.9046
G01 X81.1033 Y-75.0501
G01 X81.1406 Y-75.2000
G01 X81.1625 Y-75.3481
G01 X81.1700 Y-75.5000
G01 X81.1625 Y-75.6519
G01 X81.1406 Y-75.8000
G01 X81.1033 Y-75.9499
G01 X81.0510 Y-76.0954
G01 X80.9870 Y-76.2307
G01 X80.9097 Y-76.3597
G01 X81.1470 Y-76.5970
G01 X81.2835 Y-76.5296
G01 X81.2980 Y-76.5232
G01 X81.3154 Y-76.5175
G01 X81.3297 Y-76.5142
G01 X81.3503 Y-76.5116
G01 X81.3686 Y-76.5114
G01 X81.3833 Y-76.5125
G01 X81.3978 Y-76.5150
G01 X81.4166 Y-76.5199
G01 X81.4326 Y-76.5260
G01 X81.4501 Y-76.5348
G01 X81.4625 Y-76.5426
G01 X81.4742 Y-76.5515
G01 X81.4886 Y-76.5646
G01 X81.5000 Y-76.5774
G01 X81.5113 Y-76.5933
G01 X81.5187 Y-76.6060
G01 X81.5259 Y-76.6215
G01 X81.5322 Y-76.6400
G01 X81.5357 Y-76.6543
G01 X81.5382 Y-76.6712
G01 X81.5390 Y-76.6883
G01 X81.5390 Y-76.9913
G01 X81.5487 Y-77.0898
G01 X81.5749 Y-77.1761
G01 X81.6174 Y-77.2556
G01 X81.6746 Y-77.3254
G01 X81.7444 Y-77.3826
G01 X81.8239 Y-77.4251
G01 X81.9102 Y-77.4513
G01 X82.0087 Y-77.4610
G01 X84.0329 Y-77.4610
G01 X84.0503 Y-77.4619
G01 X84.0675 Y-77.4644
G01 X84.0867 Y-77.4694
G01 X84.1007 Y-77.4745
G01 X84.1164 Y-77.4819
G01 X84.1333 Y-77.4923
G01 X84.1453 Y-77.5012
G01 X84.1573 Y-77.5120
G01 X84.4294 Y-77.7842
G01 X84.4409 Y-77.7972
G01 X84.4497 Y-77.8093
G01 X84.4574 Y-77.8220
G01 X84.4661 Y-77.8399
G01 X84.4723 Y-77.8574
G01 X84.4762 Y-77.8731
G01 X84.4784 Y-77.8878
G01 X84.4796 Y-77.9076
G01 X84.4796 Y-82.7149
G01 X84.4788 Y-82.7311
G01 X84.4756 Y-82.7519
G01 X84.4719 Y-82.7663
G01 X84.4661 Y-82.7827
G01 X84.4574 Y-82.8005
G01 X84.4497 Y-82.8133
G01 X84.4394 Y-82.8273
G01 X84.4259 Y-82.8418
G01 X84.4148 Y-82.8518
G01 X84.4009 Y-82.8622
G01 X84.3860 Y-82.8711
G01 X84.3725 Y-82.8775
G01 X84.3527 Y-82.8847
G01 X84.3346 Y-82.8890
G01 X84.3199 Y-82.8912
G01 X84.3050 Y-82.8919
G01 X84.2851 Y-82.8912
G01 X84.2692 Y-82.8888
G01 X84.2511 Y-82.8844
G01 X84.2359 Y-82.8790
G01 X84.2283 Y-82.8755
G01 X84.1398 Y-82.8487
G01 X84.0426 Y-82.8391
G01 X83.9227 Y-82.8410
G01 X83.8666 Y-82.8971
G01 X83.8666 Y-83.2563
G01 X83.8915 Y-83.2626
G01 X83.9164 Y-83.2715
G01 X83.9447 Y-83.2847
G01 X83.9715 Y-83.3009
G01 X83.9926 Y-83.3167
G01 X84.0140 Y-83.3360
G01 X84.0333 Y-83.3574
G01 X84.0491 Y-83.3785
G01 X84.0653 Y-83.4053
G01 X84.0776 Y-83.4313
G01 X84.0866 Y-83.4561
G01 X84.0948 Y-83.4889
G01 X84.0986 Y-83.5150
G01 X84.1000 Y-83.5438
G01 X84.1000 Y-84.4562
G01 X84.0986 Y-84.4850
G01 X84.0944 Y-84.5136
G01 X84.0874 Y-84.5415
G01 X84.0785 Y-84.5664
G01 X84.0641 Y-84.5969
G01 X84.0505 Y-84.6194
G01 X84.0333 Y-84.6426
G01 X84.0140 Y-84.6640
G01 X83.9945 Y-84.6817
G01 X83.9674 Y-84.7018
G01 X83.9447 Y-84.7153
G01 X83.9187 Y-84.7276
G01 X83.8915 Y-84.7374
G01 X83.8666 Y-84.7437
G01 X83.8666 Y-85.1029
G01 X83.9227 Y-85.1590
G01 X84.0426 Y-85.1609
G01 X84.1398 Y-85.1513
G01 X84.2261 Y-85.1251
G01 X84.3056 Y-85.0826
G01 X84.3754 Y-85.0254
G01 X84.4281 Y-84.9611
G01 X84.4389 Y-84.9491
G01 X84.4546 Y-84.9351
G01 X84.4666 Y-84.9262
G01 X84.4794 Y-84.9185
G01 X84.4984 Y-84.9094
G01 X84.5136 Y-84.9040
G01 X84.5281 Y-84.9003
G01 X84.5476 Y-84.8972
G01 X84.5674 Y-84.8964
G01 X84.5823 Y-84.8972
G01 X84.5971 Y-84.8994
G01 X84.6152 Y-84.9037
G01 X84.6328 Y-84.9099
G01 X84.6506 Y-84.9185
G01 X84.6634 Y-84.9262
G01 X84.6773 Y-84.9366
G01 X84.6893 Y-84.9474
G01 X84.6940 Y-84.9523
G01 X84.8027 Y-85.0415
G01 X84.9244 Y-85.1066
G01 X85.0564 Y-85.1466
G01 X85.2024 Y-85.1610
G01 X85.6579 Y-85.1610
G01 X85.6741 Y-85.1618
G01 X85.6949 Y-85.1649
G01 X85.7093 Y-85.1686
G01 X85.7234 Y-85.1736
G01 X85.7414 Y-85.1819
G01 X85.7573 Y-85.1915
G01 X85.7703 Y-85.2012
G01 X85.7831 Y-85.2129
G01 X90.1109 Y-89.5407
G01 X90.1232 Y-89.5546
G01 X90.1321 Y-89.5666
G01 X90.1398 Y-89.5794
G01 X90.1485 Y-89.5972
G01 X90.1543 Y-89.6136
G01 X90.1589 Y-89.6329
G01 X90.1611 Y-89.6476
G01 X90.1619 Y-89.6625
G01 X90.1611 Y-89.6824
G01 X90.1585 Y-89.6995
G01 X90.1543 Y-89.7164
G01 X90.1493 Y-89.7305
G01 X90.1410 Y-89.7485
G01 X90.1307 Y-89.7654
G01 X90.1217 Y-89.7773
G01 X90.1126 Y-89.7875
G01 X90.1125 Y-89.8262
G01 X90.1117 Y-89.8411
G01 X90.1094 Y-89.8571
G01 X90.1042 Y-89.8775
G01 X90.0991 Y-89.8915
G01 X90.0922 Y-89.9061
G01 X90.0813 Y-89.9241
G01 X90.0724 Y-89.9361
G01 X90.0607 Y-89.9490
G01 X90.0478 Y-89.9606
G01 X90.0359 Y-89.9696
G01 X90.0179 Y-89.9805
G01 X90.0033 Y-89.9873
G01 X89.9869 Y-89.9932
G01 X89.9700 Y-89.9974
G01 X89.9529 Y-90.0000
G01 X89.9355 Y-90.0008
G01 X89.9181 Y-90.0000
G01 X89.9010 Y-89.9974
G01 X89.8829 Y-89.9928
G01 X89.8677 Y-89.9873
G01 X89.8520 Y-89.9799
G01 X89.8371 Y-89.9710
G01 X89.8232 Y-89.9606
G01 X89.8103 Y-89.9490
G01 X89.7023 Y-89.8410
G01 X89.5824 Y-89.8391
G01 X89.4852 Y-89.8487
G01 X89.3989 Y-89.8749
G01 X89.3194 Y-89.9174
G01 X89.2496 Y-89.9746
G01 X89.1924 Y-90.0444
G01 X89.1499 Y-90.1239
G01 X89.1237 Y-90.2102
G01 X89.1141 Y-90.3080
G01 X89.1165 Y-90.6404
G01 X89.1721 Y-90.6959
G01 X89.5250 Y-90.6959
G01 X89.5250 Y-90.5437
G01 X89.5266 Y-90.5137
G01 X89.5306 Y-90.4864
G01 X89.5376 Y-90.4585
G01 X89.5474 Y-90.4313
G01 X89.5597 Y-90.4053
G01 X89.5745 Y-90.3806
G01 X89.5917 Y-90.3574
G01 X89.6110 Y-90.3360
G01 X89.6343 Y-90.3152
G01 X89.6576 Y-90.2982
G01 X89.6803 Y-90.2847
G01 X89.7041 Y-90.2734
G01 X89.7335 Y-90.2626
G01 X89.7602 Y-90.2559
G01 X89.7900 Y-90.2514
G01 X89.8188 Y-90.2500
G01 X90.3062 Y-90.2500
G01 X90.3350 Y-90.2514
G01 X90.3636 Y-90.2556
G01 X90.3892 Y-90.2620
G01 X90.4209 Y-90.2734
G01 X90.4447 Y-90.2847
G01 X90.4694 Y-90.2995
G01 X90.4926 Y-90.3167
G01 X90.5140 Y-90.3360
G01 X90.5333 Y-90.3574
G01 X90.5505 Y-90.3806
G01 X90.5653 Y-90.4053
G01 X90.5766 Y-90.4291
G01 X90.5880 Y-90.4608
G01 X90.5944 Y-90.4864
G01 X90.5987 Y-90.5162
G01 X90.6000 Y-90.5438
G01 X90.6000 Y-91.4562
G01 X90.5987 Y-91.4838
G01 X90.5938 Y-91.5160
G01 X90.5874 Y-91.5415
G01 X90.5776 Y-91.5687
G01 X90.5653 Y-91.5947
G01 X90.5518 Y-91.6174
G01 X90.5317 Y-91.6445
G01 X90.5140 Y-91.6640
G01 X90.4945 Y-91.6817
G01 X90.4674 Y-91.7018
G01 X90.4447 Y-91.7153
G01 X90.4187 Y-91.7276
G01 X90.3915 Y-91.7374
G01 X90.3666 Y-91.7437
G01 X90.3666 Y-92.1029
G01 X90.4227 Y-92.1590
G01 X90.5426 Y-92.1609
G01 X90.6398 Y-92.1513
G01 X90.7261 Y-92.1251
G01 X90.8056 Y-92.0826
G01 X90.8754 Y-92.0254
G01 X90.9281 Y-91.9611
G01 X90.9407 Y-91.9474
G01 X90.9527 Y-91.9366
G01 X90.9646 Y-91.9276
G01 X90.9826 Y-91.9167
G01 X90.9972 Y-91.9099
G01 X91.0160 Y-91.9033
G01 X91.0329 Y-91.8994
G01 X91.0476 Y-91.8972
G01 X91.0625 Y-91.8964
G01 X91.0823 Y-91.8972
G01 X91.0995 Y-91.8998
G01 X91.1164 Y-91.9040
G01 X91.1316 Y-91.9094
G01 X91.1506 Y-91.9185
G01 X91.1634 Y-91.9262
G01 X91.1754 Y-91.9351
G01 X91.1884 Y-91.9465
G01 X91.1940 Y-91.9523
G01 X91.2667 Y-92.0120
G01 X91.2786 Y-92.0229
G01 X91.2903 Y-92.0358
G01 X91.3007 Y-92.0497
G01 X91.3090 Y-92.0636
G01 X91.3179 Y-92.0826
G01 X91.3229 Y-92.0967
G01 X91.3271 Y-92.1136
G01 X91.3297 Y-92.1307
G01 X91.3384 Y-92.2192
G01 X91.3731 Y-92.3338
G01 X91.4296 Y-92.4394
G01 X91.5055 Y-92.5320
G01 X91.5230 Y-92.5463
G01 X91.5349 Y-92.5571
G01 X91.6929 Y-92.7151
G01 X91.7037 Y-92.7270
G01 X91.7180 Y-92.7445
G01 X91.8106 Y-92.8204
G01 X91.9162 Y-92.8769
G01 X92.0308 Y-92.9116
G01 X92.1500 Y-92.9234
G01 X92.1724 Y-92.9212
G01 X92.1886 Y-92.9204
G01 X92.4650 Y-92.9204
G01 X92.4824 Y-92.9213
G01 X92.4995 Y-92.9238
G01 X92.5140 Y-92.9274
G01 X92.5350 Y-92.9349
G01 X92.5485 Y-92.9413
G01 X92.5634 Y-92.9503
G01 X92.5773 Y-92.9606
G01 X92.5884 Y-92.9706
G01 X92.6034 Y-92.9871
G01 X92.6129 Y-93.0002
G01 X92.6223 Y-93.0162
G01 X92.6286 Y-93.0297
G01 X92.6344 Y-93.0461
G01 X92.6387 Y-93.0630
G01 X92.6413 Y-93.0814
G01 X92.6421 Y-93.0975
G01 X92.6421 Y-93.6096
G01 X92.6537 Y-93.6052
G01 X92.6644 Y-93.6024
G01 X92.6753 Y-93.6007
G01 X92.6850 Y-93.6001
G01 X92.8137 Y-93.6000
G01 X92.8235 Y-93.6005
G01 X92.8344 Y-93.6022
G01 X92.8475 Y-93.6056
G01 X92.8556 Y-93.6086
G01 X92.8633 Y-93.6122
G01 X92.8750 Y-93.6190
G01 X92.8839 Y-93.6255
G01 X92.8929 Y-93.6338
G01 X92.9010 Y-93.6431
G01 X92.9074 Y-93.6521
G01 X92.9117 Y-93.6595
G01 X92.9154 Y-93.6672
G01 X92.9198 Y-93.6787
G01 X92.9226 Y-93.6894
G01 X92.9245 Y-93.7015
G01 X92.9250 Y-93.7113
G01 X92.9251 Y-94.4025
G01 X92.9353 Y-94.4139
G01 X92.9441 Y-94.4257
G01 X92.9549 Y-94.4436
G01 X92.9617 Y-94.4580
G01 X92.9671 Y-94.4730
G01 X92.9714 Y-94.4896
G01 X92.9729 Y-94.4983
G01 X93.1246 Y-94.6500
G01 X95.0504 Y-94.6500
G01 X95.0822 Y-94.6517
G01 X95.1088 Y-94.6558
G01 X95.1362 Y-94.6626
G01 X95.1651 Y-94.6728
G01 X95.1938 Y-94.6866
G01 X95.2168 Y-94.7005
G01 X95.2385 Y-94.7165
G01 X95.2622 Y-94.7378
G01 X95.2820 Y-94.7595
G01 X95.3008 Y-94.7852
G01 X95.3146 Y-94.8084
G01 X95.3262 Y-94.8327
G01 X95.3367 Y-94.8615
G01 X95.3447 Y-94.8936
G01 X95.3486 Y-94.9202
G01 X95.3500 Y-94.9484
G01 X95.3500 Y-95.2866
G01 X95.3615 Y-95.2884
G01 X95.3772 Y-95.2923
G01 X95.4754 Y-95.3220
G01 X95.4750 Y-95.3125
G01 X95.4750 Y-95.1863
G01 X95.4755 Y-95.1765
G01 X95.4767 Y-95.1680
G01 X95.4802 Y-95.1537
G01 X95.4846 Y-95.1422
G01 X95.4883 Y-95.1345
G01 X95.4926 Y-95.1271
G01 X95.4998 Y-95.1171
G01 X95.5080 Y-95.1080
G01 X95.5171 Y-95.0998
G01 X95.5271 Y-95.0926
G01 X95.5345 Y-95.0883
G01 X95.5422 Y-95.0846
G01 X95.5548 Y-95.0798
G01 X95.5656 Y-95.0772
G01 X95.5740 Y-95.0758
G01 X95.5875 Y-95.0750
G01 X96.2875 Y-95.0750
G01 X96.3010 Y-95.0758
G01 X96.3094 Y-95.0772
G01 X96.3202 Y-95.0798
G01 X96.3306 Y-95.0836
G01 X96.3383 Y-95.0872
G01 X96.3500 Y-95.0940
G01 X96.3607 Y-95.1021
G01 X96.3670 Y-95.1080
G01 X96.3745 Y-95.1161
G01 X96.3810 Y-95.1250
G01 X96.3855 Y-95.1323
G01 X96.3923 Y-95.1467
G01 X96.3952 Y-95.1548
G01 X96.3978 Y-95.1656
G01 X96.3995 Y-95.1765
G01 X96.3999 Y-95.1850
G01 X96.4000 Y-95.3125
G01 X96.3995 Y-95.3235
G01 X96.3976 Y-95.3356
G01 X96.3948 Y-95.3463
G01 X96.3904 Y-95.3579
G01 X96.8079 Y-95.3580
G01 X96.8262 Y-95.3592
G01 X96.8418 Y-95.3617
G01 X96.8570 Y-95.3657
G01 X96.8767 Y-95.3730
G01 X96.8919 Y-95.3806
G01 X96.9100 Y-95.3717
G01 X96.9289 Y-95.3651
G01 X96.9436 Y-95.3614
G01 X96.9585 Y-95.3591
G01 X96.9772 Y-95.3580
G01 X97.7114 Y-95.3579
G01 X97.7276 Y-95.3587
G01 X97.7500 Y-95.3609
G01 X97.8692 Y-95.3491
G01 X97.9838 Y-95.3144
G01 X98.0894 Y-95.2579
G01 X98.1506 Y-95.2077
G01 X98.1636 Y-95.1981
G01 X98.1785 Y-95.1892
G01 X98.1942 Y-95.1818
G01 X98.2093 Y-95.1763
G01 X98.2722 Y-95.1572
G01 X98.3952 Y-95.0915
G01 X98.5030 Y-95.0030
G01 X98.5915 Y-94.8952
G01 X98.6572 Y-94.7722
G01 X98.6977 Y-94.6388
G01 X98.7079 Y-94.5348
G01 X98.7079 Y-91.0582
G01 X98.7091 Y-91.0384
G01 X98.7113 Y-91.0237
G01 X98.7149 Y-91.0092
G01 X98.7214 Y-90.9905
G01 X98.7288 Y-90.9747
G01 X98.7378 Y-90.9598
G01 X98.7474 Y-90.9468
G01 X98.8290 Y-90.8473
G01 X98.8535 Y-90.8015
G01 X98.8618 Y-90.7877
G01 X98.8728 Y-90.7727
G01 X98.8836 Y-90.7607
G01 X98.8993 Y-90.7466
G01 X98.9113 Y-90.7378
G01 X98.9262 Y-90.7288
G01 X98.9442 Y-90.7205
G01 X98.9583 Y-90.7156
G01 X98.9739 Y-90.7116
G01 X98.9923 Y-90.7088
G01 X99.0097 Y-90.7079
G01 X99.9565 Y-90.7079
G01 X99.9727 Y-90.7087
G01 X100.0000 Y-90.7114
G01 X100.1388 Y-90.6977
G01 X100.2722 Y-90.6572
G01 X100.3952 Y-90.5915
G01 X100.5030 Y-90.5030
G01 X100.5205 Y-90.4818
G01 X100.5313 Y-90.4698
G01 X101.4698 Y-89.5313
G01 X101.4818 Y-89.5204
G01 X101.5030 Y-89.5030
G01 X101.5915 Y-89.3952
G01 X101.6572 Y-89.2722
G01 X101.6977 Y-89.1388
G01 X101.7114 Y-89.0000
G01 X101.7087 Y-88.9727
G01 X101.7079 Y-88.9565
G01 X101.7079 Y-81.3666
G01 X101.7088 Y-81.3492
G01 X101.7109 Y-81.3345
G01 X101.7159 Y-81.3140
G01 X101.7224 Y-81.2966
G01 X101.7288 Y-81.2831
G01 X101.7365 Y-81.2703
G01 X101.7481 Y-81.2543
G01 X101.7598 Y-81.2414
G01 X102.5283 Y-80.4729
G01 X102.5431 Y-80.4597
G01 X102.5551 Y-80.4509
G01 X102.5689 Y-80.4425
G01 X102.5880 Y-80.4336
G01 X102.6021 Y-80.4287
G01 X102.6165 Y-80.4250
G01 X102.6361 Y-80.4219
G01 X102.6547 Y-80.4211
G01 X102.6708 Y-80.4219
G01 X102.6868 Y-80.4242
G01 X102.8564 Y-80.4579
G01 X103.1436 Y-80.4579
G01 X103.4253 Y-80.4019
G01 X103.6906 Y-80.2920
G01 X103.9294 Y-80.1325
G01 X104.1325 Y-79.9294
G01 X104.2920 Y-79.6906
G01 X104.4019 Y-79.4253
G01 X104.4579 Y-79.1436
G01 X104.4579 Y-78.8564
G01 X104.4019 Y-78.5747
G01 X104.2920 Y-78.3094
G01 X104.1325 Y-78.0706
G01 X103.9294 Y-77.8675
G01 X103.6906 Y-77.7080
G01 X103.4253 Y-77.5981
G01 X103.1436 Y-77.5421
G01 X102.8564 Y-77.5421
G01 X102.5747 Y-77.5981
G01 X102.3094 Y-77.7080
G01 X102.0706 Y-77.8675
G01 X101.8675 Y-78.0706
G01 X101.7080 Y-78.3094
G01 X101.5981 Y-78.5747
G01 X101.5421 Y-78.8564
G01 X101.5421 Y-79.1436
G01 X101.5758 Y-79.3132
G01 X101.5781 Y-79.3292
G01 X101.5789 Y-79.3453
G01 X101.5778 Y-79.3663
G01 X101.5756 Y-79.3811
G01 X101.5713 Y-79.3979
G01 X101.5645 Y-79.4165
G01 X101.5581 Y-79.4300
G01 X101.5504 Y-79.4428
G01 X101.5388 Y-79.4589
G01 X101.5271 Y-79.4717
G01 X100.5302 Y-80.4687
G01 X100.5182 Y-80.4796
G01 X100.4970 Y-80.4970
G01 X100.4085 Y-80.6048
G01 X100.3428 Y-80.7278
G01 X100.3023 Y-80.8612
G01 X100.2886 Y-81.0000
G01 X100.2913 Y-81.0273
G01 X100.2921 Y-81.0435
G01 X100.2921 Y-88.6334
G01 X100.2912 Y-88.6508
G01 X100.2891 Y-88.6655
G01 X100.2837 Y-88.6871
G01 X100.2786 Y-88.7012
G01 X100.2712 Y-88.7169
G01 X100.2622 Y-88.7318
G01 X100.2519 Y-88.7457
G01 X100.2402 Y-88.7586
G01 X99.7586 Y-89.2402
G01 X99.7476 Y-89.2503
G01 X99.7328 Y-89.2615
G01 X99.7190 Y-89.2699
G01 X99.6989 Y-89.2795
G01 X99.6848 Y-89.2844
G01 X99.6680 Y-89.2887
G01 X99.6508 Y-89.2912
G01 X99.6346 Y-89.2920
G01 X99.0097 Y-89.2921
G01 X98.9923 Y-89.2912
G01 X98.9775 Y-89.2891
G01 X98.9571 Y-89.2841
G01 X98.9396 Y-89.2776
G01 X98.9262 Y-89.2712
G01 X98.9134 Y-89.2635
G01 X98.8973 Y-89.2519
G01 X98.8844 Y-89.2402
G01 X98.8728 Y-89.2273
G01 X98.8618 Y-89.2123
G01 X98.8535 Y-89.1985
G01 X98.8290 Y-89.1527
G01 X98.7415 Y-89.0460
G01 X98.6348 Y-88.9585
G01 X98.5131 Y-88.8934
G01 X98.3811 Y-88.8534
G01 X98.2351 Y-88.8390
G01 X97.7649 Y-88.8390
G01 X97.6189 Y-88.8534
G01 X97.4869 Y-88.8934
G01 X97.3652 Y-88.9585
G01 X97.2585 Y-89.0460
G01 X97.1986 Y-89.1190
G01 X97.1877 Y-89.1310
G01 X97.1729 Y-89.1441
G01 X97.1609 Y-89.1530
G01 X97.1460 Y-89.1619
G01 X97.1303 Y-89.1693
G01 X97.1162 Y-89.1744
G01 X97.0946 Y-89.1798
G01 X97.0799 Y-89.1820
G01 X97.0637 Y-89.1828
G01 X97.0427 Y-89.1817
G01 X97.0280 Y-89.1794
G01 X97.0111 Y-89.1752
G01 X96.9947 Y-89.1693
G01 X96.9812 Y-89.1630
G01 X96.9621 Y-89.1516
G01 X96.9483 Y-89.1410
G01 X96.9373 Y-89.1310
G01 X96.9272 Y-89.1199
G01 X96.8665 Y-89.0460
G01 X96.7598 Y-88.9585
G01 X96.6381 Y-88.8934
G01 X96.5061 Y-88.8534
G01 X96.3601 Y-88.8390
G01 X95.8899 Y-88.8390
G01 X95.7439 Y-88.8534
G01 X95.6099 Y-88.8940
G01 X95.6016 Y-88.8978
G01 X95.5864 Y-88.9032
G01 X95.5695 Y-88.9074
G01 X95.5536 Y-88.9098
G01 X95.5325 Y-88.9108
G01 X95.5176 Y-88.9100
G01 X95.5029 Y-88.9078
G01 X95.4836 Y-88.9032
G01 X95.4650 Y-88.8963
G01 X95.4515 Y-88.8899
G01 X95.4387 Y-88.8823
G01 X95.4227 Y-88.8706
G01 X95.4081 Y-88.8572
G01 X95.3981 Y-88.8461
G01 X95.3878 Y-88.8321
G01 X95.3777 Y-88.8150
G01 X95.3714 Y-88.8015
G01 X95.3656 Y-88.7852
G01 X95.3609 Y-88.7659
G01 X95.3588 Y-88.7511
G01 X95.3580 Y-88.7362
G01 X95.3579 Y-86.7002
G01 X95.3588 Y-86.6828
G01 X95.3613 Y-86.6656
G01 X95.3656 Y-86.6488
G01 X95.3719 Y-86.6313
G01 X95.3788 Y-86.6167
G01 X95.3878 Y-86.6018
G01 X95.3981 Y-86.5878
G01 X95.4098 Y-86.5750
G01 X95.7728 Y-86.2120
G01 X95.7848 Y-86.2012
G01 X95.7987 Y-86.1908
G01 X95.8136 Y-86.1819
G01 X95.8271 Y-86.1755
G01 X95.8457 Y-86.1686
G01 X95.8613 Y-86.1647
G01 X95.8797 Y-86.1619
G01 X95.8946 Y-86.1611
G01 X96.3601 Y-86.1610
G01 X96.5061 Y-86.1466
G01 X96.6381 Y-86.1066
G01 X96.7598 Y-86.0415
G01 X96.8685 Y-85.9523
G01 X96.8732 Y-85.9474
G01 X96.8852 Y-85.9366
G01 X96.8981 Y-85.9269
G01 X96.9140 Y-85.9173
G01 X96.9297 Y-85.9099
G01 X96.9461 Y-85.9040
G01 X96.9618 Y-85.9000
G01 X96.9802 Y-85.8972
G01 X96.9951 Y-85.8964
G01 X97.0173 Y-85.8975
G01 X97.0320 Y-85.8998
G01 X97.0489 Y-85.9040
G01 X97.0653 Y-85.9099
G01 X97.0810 Y-85.9173
G01 X97.0979 Y-85.9276
G01 X97.1098 Y-85.9366
G01 X97.1227 Y-85.9482
G01 X97.1344 Y-85.9611
G01 X97.1871 Y-86.0254
G01 X97.2569 Y-86.0826
G01 X97.3364 Y-86.1251
G01 X97.4227 Y-86.1513
G01 X97.5199 Y-86.1609
G01 X97.6398 Y-86.1590
G01 X97.6959 Y-86.1029
G01 X97.6959 Y-85.7437
G01 X97.6710 Y-85.7374
G01 X97.6461 Y-85.7285
G01 X97.6178 Y-85.7153
G01 X97.5910 Y-85.6991
G01 X97.5699 Y-85.6833
G01 X97.5485 Y-85.6640
G01 X97.5292 Y-85.6426
G01 X97.5134 Y-85.6215
G01 X97.4972 Y-85.5947
G01 X97.4849 Y-85.5687
G01 X97.4759 Y-85.5439
G01 X97.4677 Y-85.5111
G01 X97.4639 Y-85.4850
G01 X97.4625 Y-85.4562
G01 X97.4625 Y-84.5438
G01 X97.4639 Y-84.5150
G01 X97.4681 Y-84.4864
G01 X97.4751 Y-84.4585
G01 X97.4840 Y-84.4336
G01 X97.4984 Y-84.4031
G01 X97.5120 Y-84.3806
G01 X97.5292 Y-84.3574
G01 X97.5485 Y-84.3360
G01 X97.5680 Y-84.3183
G01 X97.5951 Y-84.2982
G01 X97.6178 Y-84.2847
G01 X97.6438 Y-84.2724
G01 X97.6710 Y-84.2626
G01 X97.6959 Y-84.2563
G01 X97.6959 Y-83.8971
G01 X97.6398 Y-83.8410
G01 X97.5199 Y-83.8391
G01 X97.4227 Y-83.8487
G01 X97.3364 Y-83.8749
G01 X97.2569 Y-83.9174
G01 X97.1871 Y-83.9746
G01 X97.1344 Y-84.0389
G01 X97.1244 Y-84.0500
G01 X97.1098 Y-84.0634
G01 X97.0969 Y-84.0731
G01 X97.0788 Y-84.0838
G01 X97.0653 Y-84.0901
G01 X97.0489 Y-84.0960
G01 X97.0320 Y-84.1002
G01 X97.0173 Y-84.1025
G01 X96.9963 Y-84.1036
G01 X96.9777 Y-84.1025
G01 X96.9630 Y-84.1002
G01 X96.9485 Y-84.0967
G01 X96.9297 Y-84.0901
G01 X96.9119 Y-84.0815
G01 X96.8991 Y-84.0738
G01 X96.8852 Y-84.0634
G01 X96.8732 Y-84.0526
G01 X96.8685 Y-84.0477
G01 X96.7598 Y-83.9585
G01 X96.6381 Y-83.8934
G01 X96.5061 Y-83.8534
G01 X96.3601 Y-83.8390
G01 X95.8899 Y-83.8390
G01 X95.7439 Y-83.8534
G01 X95.6119 Y-83.8934
G01 X95.4902 Y-83.9585
G01 X95.3835 Y-84.0460
G01 X95.2960 Y-84.1527
G01 X95.2309 Y-84.2744
G01 X95.1909 Y-84.4064
G01 X95.1765 Y-84.5524
G01 X95.1765 Y-85.0154
G01 X95.1758 Y-85.0303
G01 X95.1731 Y-85.0500
G01 X95.1689 Y-85.0668
G01 X95.1630 Y-85.0832
G01 X95.1550 Y-85.1000
G01 X95.1467 Y-85.1138
G01 X95.1378 Y-85.1258
G01 X95.1246 Y-85.1406
G01 X94.3474 Y-85.9179
G01 X94.3355 Y-85.9287
G01 X94.3180 Y-85.9430
G01 X94.2421 Y-86.0356
G01 X94.1856 Y-86.1412
G01 X94.1509 Y-86.2558
G01 X94.1391 Y-86.3750
G01 X94.1413 Y-86.3974
G01 X94.1421 Y-86.4136
G01 X94.1421 Y-87.0134
G01 X94.1411 Y-87.0320
G01 X94.1381 Y-87.0504
G01 X94.1344 Y-87.0648
G01 X94.1295 Y-87.0789
G01 X94.1212 Y-87.0969
G01 X94.1122 Y-87.1118
G01 X94.1003 Y-87.1276
G01 X94.0902 Y-87.1386
G01 X94.0792 Y-87.1487
G01 X94.0634 Y-87.1606
G01 X94.0474 Y-87.1701
G01 X94.0328 Y-87.1770
G01 X94.0187 Y-87.1821
G01 X93.9971 Y-87.1875
G01 X93.9824 Y-87.1896
G01 X93.9650 Y-87.1905
G01 X93.9476 Y-87.1896
G01 X93.9329 Y-87.1875
G01 X93.9113 Y-87.1821
G01 X93.8972 Y-87.1770
G01 X93.8815 Y-87.1696
G01 X93.8646 Y-87.1592
G01 X93.8527 Y-87.1503
G01 X93.8407 Y-87.1395
G01 X93.1348 Y-86.4336
G01 X93.1239 Y-86.4217
G01 X93.1128 Y-86.4068
G01 X93.1027 Y-86.3897
G01 X93.0964 Y-86.3762
G01 X93.0913 Y-86.3622
G01 X93.0866 Y-86.3442
G01 X93.0838 Y-86.3258
G01 X93.0829 Y-86.3084
G01 X93.0830 Y-86.2845
G01 X93.0836 Y-86.2708
G01 X93.0863 Y-86.2512
G01 X93.0906 Y-86.2343
G01 X93.0955 Y-86.2203
G01 X93.1044 Y-86.2012
G01 X93.1128 Y-86.1874
G01 X93.1224 Y-86.1744
G01 X93.1753 Y-86.1098
G01 X93.2643 Y-85.9434
G01 X93.3191 Y-85.7628
G01 X93.3329 Y-85.6221
G01 X93.3329 Y-85.2020
G01 X93.3337 Y-85.1859
G01 X93.3369 Y-85.1651
G01 X93.3406 Y-85.1506
G01 X93.3464 Y-85.1342
G01 X93.3538 Y-85.1185
G01 X93.3615 Y-85.1057
G01 X93.3747 Y-85.0878
G01 X93.3848 Y-85.0768
G01 X93.3958 Y-85.0667
G01 X93.4116 Y-85.0548
G01 X93.4265 Y-85.0458
G01 X93.4400 Y-85.0394
G01 X93.4598 Y-85.0322
G01 X93.4755 Y-85.0283
G01 X93.4914 Y-85.0259
G01 X93.6878 Y-85.0066
G01 X93.8684 Y-84.9518
G01 X94.0348 Y-84.8628
G01 X94.1806 Y-84.7431
G01 X94.2059 Y-84.7124
G01 X94.2168 Y-84.7004
G01 X97.1379 Y-81.7793
G01 X97.1499 Y-81.7684
G01 X97.1806 Y-81.7431
G01 X97.3003 Y-81.5973
G01 X97.3893 Y-81.4309
G01 X97.4441 Y-81.2503
G01 X97.4626 Y-81.0625
G01 X97.4587 Y-81.0229
G01 X97.4579 Y-81.0067
G01 X97.4579 Y-77.6381
G01 X97.4591 Y-77.6183
G01 X97.4613 Y-77.6035
G01 X97.4649 Y-77.5890
G01 X97.4714 Y-77.5703
G01 X97.4801 Y-77.5525
G01 X97.4878 Y-77.5397
G01 X97.4981 Y-77.5257
G01 X97.5116 Y-77.5112
G01 X97.5227 Y-77.5012
G01 X97.5366 Y-77.4908
G01 X97.5515 Y-77.4819
G01 X97.5650 Y-77.4755
G01 X97.5848 Y-77.4683
G01 X97.6029 Y-77.4640
G01 X97.6176 Y-77.4619
G01 X97.6338 Y-77.4610
G01 X97.9913 Y-77.4610
G01 X98.0898 Y-77.4513
G01 X98.1761 Y-77.4251
G01 X98.2556 Y-77.3826
G01 X98.3254 Y-77.3254
G01 X98.3826 Y-77.2556
G01 X98.4251 Y-77.1761
G01 X98.4513 Y-77.0898
G01 X98.4610 Y-76.9913
G01 X98.4610 Y-74.0087
G01 X98.4513 Y-73.9102
G01 X98.4251 Y-73.8239
G01 X98.3826 Y-73.7444
G01 X98.3254 Y-73.6746
G01 X98.2556 Y-73.6174
G01 X98.1761 Y-73.5749
G01 X98.0898 Y-73.5487
G01 X97.9913 Y-73.5390
G01 X95.0087 Y-73.5390
G01 X94.9102 Y-73.5487
G01 X94.8239 Y-73.5749
G01 X94.7444 Y-73.6174
G01 X94.6746 Y-73.6746
G01 X94.6174 Y-73.7444
G01 X94.5749 Y-73.8239
G01 X94.5487 Y-73.9102
G01 X94.5390 Y-74.0087
G01 X94.5390 Y-74.3117
G01 X94.5382 Y-74.3288
G01 X94.5357 Y-74.3457
G01 X94.5322 Y-74.3600
G01 X94.5259 Y-74.3785
G01 X94.5187 Y-74.3940
G01 X94.5113 Y-74.4067
G01 X94.5000 Y-74.4226
G01 X94.4886 Y-74.4354
G01 X94.4742 Y-74.4485
G01 X94.4625 Y-74.4574
G01 X94.4501 Y-74.4652
G01 X94.4326 Y-74.4740
G01 X94.4166 Y-74.4801
G01 X94.3978 Y-74.4850
G01 X94.3833 Y-74.4875
G01 X94.3686 Y-74.4886
G01 X94.3503 Y-74.4884
G01 X94.3297 Y-74.4858
G01 X94.3154 Y-74.4825
G01 X94.2980 Y-74.4768
G01 X94.2835 Y-74.4704
G01 X94.1470 Y-74.4030
G01 X93.9097 Y-74.6403
G01 X93.9870 Y-74.7693
G01 X94.0510 Y-74.9046
G01 X94.1033 Y-75.0501
G01 X94.1406 Y-75.2000
G01 X94.1625 Y-75.3481
G01 X94.1700 Y-75.5000
G01 X94.1625 Y-75.6519
G01 X94.1406 Y-75.8000
G01 X94.1033 Y-75.9499
G01 X94.0510 Y-76.0954
G01 X93.9870 Y-76.2307
G01 X93.9097 Y-76.3597
G01 X94.1470 Y-76.5970
G01 X94.2835 Y-76.5296
G01 X94.2980 Y-76.5232
G01 X94.3154 Y-76.5175
G01 X94.3297 Y-76.5142
G01 X94.3503 Y-76.5116
G01 X94.3686 Y-76.5114
G01 X94.3833 Y-76.5125
G01 X94.3978 Y-76.5150
G01 X94.4166 Y-76.5199
G01 X94.4326 Y-76.5260
G01 X94.4501 Y-76.5348
G01 X94.4625 Y-76.5426
G01 X94.4742 Y-76.5515
G01 X94.4886 Y-76.5646
G01 X94.5000 Y-76.5774
G01 X94.5113 Y-76.5933
G01 X94.5187 Y-76.6060
G01 X94.5259 Y-76.6215
G01 X94.5322 Y-76.6400
G01 X94.5357 Y-76.6543
G01 X94.5380 Y-76.6700
G01 X94.5390 Y-76.6883
G01 X94.5390 Y-76.9913
G01 X94.5487 Y-77.0898
G01 X94.5749 Y-77.1761
G01 X94.6174 Y-77.2556
G01 X94.6746 Y-77.3254
G01 X94.7444 Y-77.3826
G01 X94.8239 Y-77.4251
G01 X94.9102 Y-77.4513
G01 X95.0087 Y-77.4610
G01 X95.3650 Y-77.4610
G01 X95.3824 Y-77.4619
G01 X95.4019 Y-77.4649
G01 X95.4164 Y-77.4686
G01 X95.4305 Y-77.4736
G01 X95.4463 Y-77.4808
G01 X95.4634 Y-77.4908
G01 X95.4773 Y-77.5012
G01 X95.4919 Y-77.5146
G01 X95.5019 Y-77.5257
G01 X95.5108 Y-77.5377
G01 X95.5212 Y-77.5546
G01 X95.5290 Y-77.5715
G01 X95.5344 Y-77.5867
G01 X95.5387 Y-77.6035
G01 X95.5412 Y-77.6207
G01 X95.5421 Y-77.6381
G01 X95.5421 Y-80.5924
G01 X95.5412 Y-80.6097
G01 X95.5387 Y-80.6269
G01 X95.5344 Y-80.6438
G01 X95.5286 Y-80.6601
G01 X95.5212 Y-80.6758
G01 X95.5122 Y-80.6907
G01 X95.5019 Y-80.7047
G01 X95.4902 Y-80.7176
G01 X93.2180 Y-82.9898
G01 X93.2051 Y-83.0014
G01 X93.1932 Y-83.0104
G01 X93.1741 Y-83.0218
G01 X93.1606 Y-83.0282
G01 X93.1442 Y-83.0340
G01 X93.1273 Y-83.0382
G01 X93.1102 Y-83.0408
G01 X93.0928 Y-83.0416
G01 X93.0754 Y-83.0408
G01 X93.0583 Y-83.0382
G01 X93.0438 Y-83.0347
G01 X93.0250 Y-83.0282
G01 X93.0104 Y-83.0213
G01 X92.8881 Y-82.9559
G01 X92.7561 Y-82.9159
G01 X92.6101 Y-82.9015
G01 X92.1399 Y-82.9015
G01 X91.9939 Y-82.9159
G01 X91.8619 Y-82.9559
G01 X91.7402 Y-83.0210
G01 X91.6315 Y-83.1102
G01 X91.6268 Y-83.1151
G01 X91.6148 Y-83.1259
G01 X91.6009 Y-83.1363
G01 X91.5881 Y-83.1440
G01 X91.5703 Y-83.1526
G01 X91.5515 Y-83.1592
G01 X91.5370 Y-83.1627
G01 X91.5223 Y-83.1650
G01 X91.5013 Y-83.1661
G01 X91.4851 Y-83.1653
G01 X91.4704 Y-83.1631
G01 X91.4511 Y-83.1585
G01 X91.4347 Y-83.1526
G01 X91.4212 Y-83.1463
G01 X91.4031 Y-83.1356
G01 X91.3902 Y-83.1259
G01 X91.3756 Y-83.1125
G01 X91.3656 Y-83.1014
G01 X91.3129 Y-83.0371
G01 X91.2431 Y-82.9799
G01 X91.1636 Y-82.9374
G01 X91.0773 Y-82.9112
G01 X90.9801 Y-82.9016
G01 X90.8602 Y-82.9035
G01 X90.8041 Y-82.9596
G01 X90.8041 Y-83.3188
G01 X90.8290 Y-83.3251
G01 X90.8539 Y-83.3340
G01 X90.8822 Y-83.3472
G01 X90.9090 Y-83.3634
G01 X90.9301 Y-83.3792
G01 X90.9515 Y-83.3985
G01 X90.9708 Y-83.4199
G01 X90.9866 Y-83.4410
G01 X91.0028 Y-83.4678
G01 X91.0151 Y-83.4938
G01 X91.0241 Y-83.5186
G01 X91.0323 Y-83.5514
G01 X91.0361 Y-83.5775
G01 X91.0375 Y-83.6063
G01 X91.0375 Y-84.5187
G01 X91.0361 Y-84.5475
G01 X91.0319 Y-84.5761
G01 X91.0249 Y-84.6040
G01 X91.0160 Y-84.6289
G01 X91.0016 Y-84.6594
G01 X90.9880 Y-84.6819
G01 X90.9708 Y-84.7051
G01 X90.9515 Y-84.7265
G01 X90.9320 Y-84.7442
G01 X90.9049 Y-84.7643
G01 X90.8822 Y-84.7778
G01 X90.8562 Y-84.7901
G01 X90.8290 Y-84.7999
G01 X90.8041 Y-84.8062
G01 X90.8041 Y-85.1654
G01 X90.8602 Y-85.2215
G01 X90.9801 Y-85.2234
G01 X91.0773 Y-85.2138
G01 X91.1658 Y-85.1870
G01 X91.1734 Y-85.1835
G01 X91.1886 Y-85.1781
G01 X91.2043 Y-85.1741
G01 X91.2226 Y-85.1713
G01 X91.2375 Y-85.1706
G01 X91.2598 Y-85.1716
G01 X91.2757 Y-85.1741
G01 X91.2937 Y-85.1789
G01 X91.3078 Y-85.1840
G01 X91.3213 Y-85.1903
G01 X91.3363 Y-85.1990
G01 X91.3523 Y-85.2107
G01 X91.3652 Y-85.2224
G01 X91.3769 Y-85.2352
G01 X91.3865 Y-85.2482
G01 X91.3962 Y-85.2641
G01 X91.4045 Y-85.2821
G01 X91.4094 Y-85.2962
G01 X91.4131 Y-85.3106
G01 X91.4162 Y-85.3302
G01 X91.4171 Y-85.3476
G01 X91.4171 Y-85.6221
G01 X91.4309 Y-85.7628
G01 X91.4857 Y-85.9434
G01 X91.5747 Y-86.1098
G01 X91.6276 Y-86.1744
G01 X91.6372 Y-86.1874
G01 X91.6456 Y-86.2012
G01 X91.6545 Y-86.2203
G01 X91.6594 Y-86.2343
G01 X91.6637 Y-86.2512
G01 X91.6662 Y-86.2684
G01 X91.6671 Y-86.2857
G01 X91.6671 Y-86.6315
G01 X91.6663 Y-86.6477
G01 X91.6636 Y-86.6750
G01 X91.6773 Y-86.8138
G01 X91.7178 Y-86.9472
G01 X91.7835 Y-87.0702
G01 X91.8720 Y-87.1780
G01 X91.8932 Y-87.1954
G01 X91.9052 Y-87.2063
G01 X92.9386 Y-88.2398
G01 X92.9503 Y-88.2527
G01 X92.9592 Y-88.2646
G01 X92.9701 Y-88.2826
G01 X92.9770 Y-88.2972
G01 X92.9829 Y-88.3136
G01 X92.9871 Y-88.3305
G01 X92.9896 Y-88.3476
G01 X92.9905 Y-88.3650
G01 X92.9896 Y-88.3824
G01 X92.9871 Y-88.3995
G01 X92.9835 Y-88.4140
G01 X92.9770 Y-88.4328
G01 X92.9701 Y-88.4474
G01 X92.9606 Y-88.4634
G01 X92.9518 Y-88.4754
G01 X92.9395 Y-88.4893
G01 X92.9276 Y-88.5003
G01 X92.9097 Y-88.5135
G01 X92.8947 Y-88.5223
G01 X92.8812 Y-88.5286
G01 X92.8672 Y-88.5337
G01 X92.8480 Y-88.5387
G01 X92.8296 Y-88.5413
G01 X92.8134 Y-88.5421
G01 X92.5607 Y-88.5421
G01 X92.5409 Y-88.5409
G01 X92.5262 Y-88.5387
G01 X92.5093 Y-88.5344
G01 X92.4930 Y-88.5286
G01 X92.4762 Y-88.5206
G01 X92.4624 Y-88.5122
G01 X92.4494 Y-88.5026
G01 X92.3848 Y-88.4497
G01 X92.2184 Y-88.3607
G01 X92.0378 Y-88.3059
G01 X91.8971 Y-88.2921
G01 X91.6451 Y-88.2921
G01 X91.6278 Y-88.2912
G01 X91.6106 Y-88.2887
G01 X91.5961 Y-88.2851
G01 X91.5774 Y-88.2786
G01 X91.5617 Y-88.2712
G01 X91.5488 Y-88.2635
G01 X91.5319 Y-88.2511
G01 X91.5199 Y-88.2402
G01 X86.6418 Y-83.3621
G01 X86.6309 Y-83.3501
G01 X86.6056 Y-83.3194
G01 X86.4602 Y-83.2000
G01 X86.4491 Y-83.1900
G01 X86.4364 Y-83.1764
G01 X86.4267 Y-83.1635
G01 X86.4152 Y-83.1444
G01 X86.4080 Y-83.1286
G01 X86.4031 Y-83.1145
G01 X86.3994 Y-83.1000
G01 X86.3963 Y-83.0805
G01 X86.3954 Y-83.0631
G01 X86.3954 Y-77.4933
G01 X86.3962 Y-77.4771
G01 X86.4001 Y-77.4375
G01 X86.3816 Y-77.2497
G01 X86.3268 Y-77.0691
G01 X86.2378 Y-76.9027
G01 X86.1181 Y-76.7569
G01 X86.0874 Y-76.7316
G01 X86.0754 Y-76.7207
G01 X85.5120 Y-76.1573
G01 X85.4997 Y-76.1433
G01 X85.4908 Y-76.1313
G01 X85.4831 Y-76.1185
G01 X85.4745 Y-76.1007
G01 X85.4686 Y-76.0843
G01 X85.4640 Y-76.0651
G01 X85.4619 Y-76.0503
G01 X85.4610 Y-76.0329
G01 X85.4610 Y-74.0087
G01 X85.4513 Y-73.9102
G01 X85.4251 Y-73.8239
G01 X85.3826 Y-73.7444
G01 X85.3254 Y-73.6746
G01 X85.2556 Y-73.6174
G01 X85.1761 Y-73.5749
G01 X85.0898 Y-73.5487
G01 X84.9913 Y-73.5390
G01 X82.0087 Y-73.5390
G01 X81.9102 Y-73.5487
G01 X81.8239 Y-73.5749
G01 X81.7444 Y-73.6174
G01 X81.6746 Y-73.6746
G01 X81.6174 Y-73.7444
G01 X81.5749 Y-73.8239
G01 X81.5487 Y-73.9102
G01 X81.5390 Y-74.0087
G01 X81.5390 Y-74.3117
G01 X81.5379 Y-74.3312
G01 X81.5357 Y-74.3457
G01 X81.5316 Y-74.3623
G01 X81.5259 Y-74.3785
G01 X81.5198 Y-74.3918
G01 X81.5087 Y-74.4107
G01 X81.5000 Y-74.4226
G01 X81.4895 Y-74.4345
G01 X81.4761 Y-74.4470
G01 X81.4625 Y-74.4574
G01 X81.4480 Y-74.4664
G01 X81.4304 Y-74.4749
G01 X81.4143 Y-74.4808
G01 X81.4001 Y-74.4846
G01 X81.3857 Y-74.4871
G01 X81.3662 Y-74.4887
G01 X81.3479 Y-74.4882
G01 X81.3321 Y-74.4862
G01 X81.3178 Y-74.4831
G01 X81.2969 Y-74.4763
G01 X81.2835 Y-74.4704
G01 X81.1470 Y-74.4030
G01 X80.9097 Y-74.6403
G00 Z2.0000
G00 X82.0000 Y-77.0500
G01 F40.00
G01 Z0.0000
G01 F80.00
G01 X84.2718 Y-77.0500
G01 X84.8872 Y-77.6654
G01 X84.8873 Y-84.0012
G01 X84.8899 Y-84.0539
G01 X84.8976 Y-84.1061
G01 X84.9000 Y-84.1163
G01 X84.9000 Y-84.4562
G01 X84.9017 Y-84.4875
G01 X84.9056 Y-84.5136
G01 X84.9120 Y-84.5392
G01 X84.9234 Y-84.5709
G01 X84.9347 Y-84.5947
G01 X84.9495 Y-84.6194
G01 X84.9667 Y-84.6426
G01 X84.9843 Y-84.6622
G01 X85.0074 Y-84.6833
G01 X85.0306 Y-84.7005
G01 X85.0553 Y-84.7153
G01 X85.0813 Y-84.7276
G01 X85.1085 Y-84.7374
G01 X85.1364 Y-84.7444
G01 X85.1650 Y-84.7486
G01 X85.1913 Y-84.7499
G01 X85.6812 Y-84.7500
G01 X85.7088 Y-84.7487
G01 X85.7410 Y-84.7438
G01 X85.7665 Y-84.7374
G01 X85.7914 Y-84.7285
G01 X85.8197 Y-84.7153
G01 X85.8461 Y-84.6993
G01 X90.7859 Y-89.6391
G01 X90.8279 Y-89.6769
G01 X90.8693 Y-89.7075
G01 X90.9145 Y-89.7347
G01 X90.9644 Y-89.7584
G01 X91.0153 Y-89.7766
G01 X91.0677 Y-89.7897
G01 X91.1223 Y-89.7977
G01 X91.1750 Y-89.8003
G01 X91.8500 Y-89.8003
G01 X91.9027 Y-89.7977
G01 X91.9573 Y-89.7897
G01 X92.0121 Y-89.7758
G01 X92.0628 Y-89.7574
G01 X92.1094 Y-89.7353
G01 X92.1536 Y-89.7088
G01 X92.1991 Y-89.6753
G01 X92.2391 Y-89.6391
G01 X92.2753 Y-89.5991
G01 X92.3061 Y-89.5577
G01 X92.3109 Y-89.5501
G01 X93.5499 Y-89.5501
G01 X93.5499 Y-94.0625
G01 X93.5508 Y-94.0809
G01 X93.5538 Y-94.1015
G01 X93.5585 Y-94.1206
G01 X93.5652 Y-94.1391
G01 X93.5750 Y-94.1594
G01 X93.5750 Y-94.4125
G01 X93.5757 Y-94.4247
G01 X93.5772 Y-94.4344
G01 X93.5792 Y-94.4428
G01 X93.5836 Y-94.4556
G01 X93.5895 Y-94.4677
G01 X93.5940 Y-94.4750
G01 X93.5998 Y-94.4829
G01 X93.6080 Y-94.4920
G01 X93.6161 Y-94.4995
G01 X93.6250 Y-94.5060
G01 X93.6345 Y-94.5117
G01 X93.6444 Y-94.5164
G01 X93.6548 Y-94.5202
G01 X93.6656 Y-94.5228
G01 X93.6777 Y-94.5246
G01 X93.6875 Y-94.5250
G01 X93.8125 Y-94.5250
G01 X93.8235 Y-94.5245
G01 X93.8356 Y-94.5226
G01 X93.8475 Y-94.5194
G01 X93.8556 Y-94.5164
G01 X93.8633 Y-94.5128
G01 X93.8750 Y-94.5060
G01 X93.8839 Y-94.4995
G01 X93.8920 Y-94.4920
G01 X93.8995 Y-94.4839
G01 X93.9060 Y-94.4750
G01 X93.9117 Y-94.4655
G01 X93.9164 Y-94.4556
G01 X93.9202 Y-94.4452
G01 X93.9231 Y-94.4332
G01 X93.9245 Y-94.4235
G01 X93.9250 Y-94.4125
G01 X93.9250 Y-94.1594
G01 X93.9348 Y-94.1391
G01 X93.9421 Y-94.1182
G01 X93.9462 Y-94.1015
G01 X93.9488 Y-94.0845
G01 X93.9501 Y-94.0625
G01 X93.9501 Y-89.3696
G01 X93.9527 Y-89.3637
G01 X93.9622 Y-89.3371
G01 X93.9693 Y-89.3086
G01 X93.9737 Y-89.2794
G01 X93.9751 Y-89.2500
G01 X93.9737 Y-89.2206
G01 X93.9698 Y-89.1939
G01 X93.9622 Y-89.1629
G01 X93.9523 Y-89.1351
G01 X93.9408 Y-89.1107
G01 X93.9238 Y-89.0822
G01 X93.9070 Y-89.0596
G01 X93.8854 Y-89.0361
G01 X93.8635 Y-89.0165
G01 X93.8417 Y-89.0005
G01 X93.8186 Y-88.9865
G01 X93.7898 Y-88.9727
G01 X93.7621 Y-88.9628
G01 X93.7335 Y-88.9556
G01 X93.7032 Y-88.9512
G01 X93.6750 Y-88.9499
G01 X92.3109 Y-88.9499
G01 X92.3061 Y-88.9423
G01 X92.2737 Y-88.8991
G01 X92.2391 Y-88.8609
G01 X92.1971 Y-88.8231
G01 X92.1557 Y-88.7925
G01 X92.1094 Y-88.7647
G01 X92.0606 Y-88.7416
G01 X92.0086 Y-88.7231
G01 X91.9549 Y-88.7099
G01 X91.9039 Y-88.7024
G01 X91.8525 Y-88.6998
G01 X91.4029 Y-88.6997
G01 X86.3132 Y-83.6101
G01 X86.2741 Y-83.5747
G01 X86.2327 Y-83.5439
G01 X86.1822 Y-83.5136
G01 X86.1356 Y-83.4916
G01 X86.0847 Y-83.4734
G01 X86.0323 Y-83.4603
G01 X85.9878 Y-83.4536
G01 X85.9878 Y-77.4375
G01 X85.9851 Y-77.3836
G01 X85.9772 Y-77.3302
G01 X85.9647 Y-77.2801
G01 X85.9459 Y-77.2269
G01 X85.9228 Y-77.1781
G01 X85.8963 Y-77.1339
G01 X85.8628 Y-77.0884
G01 X85.8266 Y-77.0484
G01 X85.0500 Y-76.2718
G01 X85.0500 Y-74.0000
G01 X85.0490 Y-73.9902
G01 X85.0462 Y-73.9809
G01 X85.0416 Y-73.9722
G01 X85.0354 Y-73.9646
G01 X85.0278 Y-73.9584
G01 X85.0191 Y-73.9538
G01 X85.0098 Y-73.9510
G01 X85.0000 Y-73.9500
G01 X82.0000 Y-73.9500
G01 X81.9902 Y-73.9510
G01 X81.9809 Y-73.9538
G01 X81.9722 Y-73.9584
G01 X81.9646 Y-73.9646
G01 X81.9584 Y-73.9722
G01 X81.9538 Y-73.9809
G01 X81.9510 Y-73.9902
G01 X81.9500 Y-74.0000
G01 X81.9500 Y-77.0000
G01 X81.9510 Y-77.0098
G01 X81.9538 Y-77.0191
G01 X81.9584 Y-77.0278
G01 X81.9646 Y-77.0354
G01 X81.9722 Y-77.0416
G01 X81.9809 Y-77.0462
G01 X81.9902 Y-77.0490
G01 X82.0000 Y-77.0500
G00 Z2.0000
G00 X83.0302 Y-83.4889
G01 F40.00
G01 Z0.0000
G01 F80.00
G01 X83.0384 Y-83.4561
G01 X83.0474 Y-83.4313
G01 X83.0597 Y-83.4053
G01 X83.0759 Y-83.3785
G01 X83.0917 Y-83.3574
G01 X83.1110 Y-83.3360
G01 X83.1324 Y-83.3167
G01 X83.1535 Y-83.3009
G01 X83.1803 Y-83.2847
G01 X83.2086 Y-83.2715
G01 X83.2335 Y-83.2626
G01 X83.2584 Y-83.2563
G01 X83.2584 Y-82.8971
G01 X83.2023 Y-82.8410
G01 X83.0824 Y-82.8391
G01 X82.9852 Y-82.8487
G01 X82.8989 Y-82.8749
G01 X82.8194 Y-82.9174
G01 X82.7496 Y-82.9746
G01 X82.6924 Y-83.0444
G01 X82.6499 Y-83.1239
G01 X82.6237 Y-83.2102
G01 X82.6141 Y-83.3080
G01 X82.6165 Y-83.6404
G01 X82.6721 Y-83.6959
G01 X83.0250 Y-83.6959
G01 X83.0250 Y-83.5425
G01 X83.0264 Y-83.5150
G01 X83.0302 Y-83.4889
G00 Z2.0000
G00 X83.0250 Y-84.3041
G01 F40.00
G01 Z0.0000
G01 F80.00
G01 X82.6721 Y-84.3041
G01 X82.6165 Y-84.3596
G01 X82.6141 Y-84.6920
G01 X82.6237 Y-84.7898
G01 X82.6499 Y-84.8761
G01 X82.6924 Y-84.9556
G01 X82.7496 Y-85.0254
G01 X82.8194 Y-85.0826
G01 X82.8989 Y-85.1251
G01 X82.9852 Y-85.1513
G01 X83.0824 Y-85.1609
G01 X83.2023 Y-85.1590
G01 X83.2584 Y-85.1029
G01 X83.2584 Y-84.7437
G01 X83.2335 Y-84.7374
G01 X83.2086 Y-84.7285
G01 X83.1825 Y-84.7164
G01 X83.1556 Y-84.7005
G01 X83.1343 Y-84.6848
G01 X83.1110 Y-84.6640
G01 X83.0917 Y-84.6426
G01 X83.0745 Y-84.6194
G01 X83.0597 Y-84.5947
G01 X83.0474 Y-84.5687
G01 X83.0376 Y-84.5415
G01 X83.0306 Y-84.5136
G01 X83.0266 Y-84.4863
G01 X83.0250 Y-84.4562
G01 X83.0250 Y-84.3041
G00 Z2.0000
G00 X89.9625 Y-84.3666
G01 F40.00
G01 Z0.0000
G01 F80.00
G01 X89.6096 Y-84.3666
G01 X89.5540 Y-84.4221
G01 X89.5516 Y-84.7545
G01 X89.5612 Y-84.8523
G01 X89.5874 Y-84.9386
G01 X89.6299 Y-85.0181
G01 X89.6871 Y-85.0879
G01 X89.7569 Y-85.1451
G01 X89.8364 Y-85.1876
G01 X89.9227 Y-85.2138
G01 X90.0199 Y-85.2234
G01 X90.1398 Y-85.2215
G01 X90.1959 Y-85.1654
G01 X90.1959 Y-84.8062
G01 X90.1710 Y-84.7999
G01 X90.1461 Y-84.7910
G01 X90.1200 Y-84.7789
G01 X90.0931 Y-84.7630
G01 X90.0718 Y-84.7473
G01 X90.0485 Y-84.7265
G01 X90.0292 Y-84.7051
G01 X90.0120 Y-84.6819
G01 X89.9972 Y-84.6572
G01 X89.9849 Y-84.6312
G01 X89.9751 Y-84.6040
G01 X89.9681 Y-84.5761
G01 X89.9641 Y-84.5488
G01 X89.9625 Y-84.5187
G01 X89.9625 Y-84.3666
G00 Z2.0000
G00 X89.9677 Y-83.5514
G01 F40.00
G01 Z0.0000
G01 F80.00
G01 X89.9759 Y-83.5186
G01 X89.9849 Y-83.4938
G01 X89.9972 Y-83.4678
G01 X90.0134 Y-83.4410
G01 X90.0292 Y-83.4199
G01 X90.0485 Y-83.3985
G01 X90.0699 Y-83.3792
G01 X90.0910 Y-83.3634
G01 X90.1178 Y-83.3472
G01 X90.1461 Y-83.3340
G01 X90.1710 Y-83.3251
G01 X90.1959 Y-83.3188
G01 X90.1959 Y-82.9596
G01 X90.1398 Y-82.9035
G01 X90.0199 Y-82.9016
G01 X89.9227 Y-82.9112
G01 X89.8364 Y-82.9374
G01 X89.7569 Y-82.9799
G01 X89.6871 Y-83.0371
G01 X89.6299 Y-83.1069
G01 X89.5874 Y-83.1864
G01 X89.5612 Y-83.2727
G01 X89.5516 Y-83.3705
G01 X89.5540 Y-83.7029
G01 X89.6096 Y-83.7584
G01 X89.9625 Y-83.7584
G01 X89.9625 Y-83.6050
G01 X89.9639 Y-83.5775
G01 X89.9677 Y-83.5514
G00 Z2.0000
G00 X91.8247 Y-84.0625
G01 F40.00
G01 Z0.0000
G01 F80.00
G01 X91.8247 Y-85.5750
G01 X91.8274 Y-85.6289
G01 X91.8353 Y-85.6823
G01 X91.8492 Y-85.7371
G01 X91.8676 Y-85.7878
G01 X91.8897 Y-85.8344
G01 X91.9162 Y-85.8786
G01 X91.9497 Y-85.9241
G01 X91.9859 Y-85.9641
G01 X92.0259 Y-86.0003
G01 X92.0673 Y-86.0311
G01 X92.0749 Y-86.0359
G01 X92.0749 Y-86.6762
G01 X92.0763 Y-86.7044
G01 X92.0806 Y-86.7336
G01 X92.0878 Y-86.7621
G01 X92.0987 Y-86.7921
G01 X92.1103 Y-86.8165
G01 X92.1255 Y-86.8417
G01 X92.1430 Y-86.8654
G01 X92.1628 Y-86.8872
G01 X93.8800 Y-88.6044
G01 X93.8812 Y-88.6109
G01 X93.8878 Y-88.6371
G01 X93.8987 Y-88.6671
G01 X93.9103 Y-88.6915
G01 X93.9241 Y-88.7147
G01 X93.9422 Y-88.7394
G01 X93.9628 Y-88.7622
G01 X93.9856 Y-88.7828
G01 X94.0093 Y-88.8002
G01 X94.0335 Y-88.8147
G01 X94.0499 Y-88.8225
G01 X94.0499 Y-94.0625
G01 X94.0507 Y-94.0797
G01 X94.0538 Y-94.1015
G01 X94.0585 Y-94.1206
G01 X94.0652 Y-94.1391
G01 X94.0750 Y-94.1594
G01 X94.0750 Y-94.4125
G01 X94.0754 Y-94.4211
G01 X94.0772 Y-94.4344
G01 X94.0802 Y-94.4463
G01 X94.0836 Y-94.4556
G01 X94.0872 Y-94.4633
G01 X94.0933 Y-94.4740
G01 X94.1005 Y-94.4839
G01 X94.1080 Y-94.4920
G01 X94.1161 Y-94.4995
G01 X94.1250 Y-94.5060
G01 X94.1345 Y-94.5117
G01 X94.1444 Y-94.5164
G01 X94.1548 Y-94.5202
G01 X94.1656 Y-94.5228
G01 X94.1765 Y-94.5245
G01 X94.1863 Y-94.5250
G01 X94.3125 Y-94.5250
G01 X94.3235 Y-94.5245
G01 X94.3368 Y-94.5223
G01 X94.3452 Y-94.5202
G01 X94.3533 Y-94.5173
G01 X94.3655 Y-94.5117
G01 X94.3750 Y-94.5060
G01 X94.3819 Y-94.5010
G01 X94.3920 Y-94.4920
G01 X94.4010 Y-94.4819
G01 X94.4060 Y-94.4750
G01 X94.4117 Y-94.4655
G01 X94.4173 Y-94.4533
G01 X94.4202 Y-94.4452
G01 X94.4223 Y-94.4368
G01 X94.4245 Y-94.4235
G01 X94.4250 Y-94.4125
G01 X94.4250 Y-94.1594
G01 X94.4348 Y-94.1391
G01 X94.4421 Y-94.1182
G01 X94.4462 Y-94.1015
G01 X94.4488 Y-94.0845
G01 X94.4501 Y-94.0637
G01 X94.4501 Y-88.6696
G01 X94.4532 Y-88.6626
G01 X94.4628 Y-88.6348
G01 X94.4693 Y-88.6086
G01 X94.4737 Y-88.5794
G01 X94.4751 Y-88.5512
G01 X94.4751 Y-88.4750
G01 X94.4734 Y-88.4431
G01 X94.4693 Y-88.4164
G01 X94.4622 Y-88.3879
G01 X94.4523 Y-88.3601
G01 X94.4408 Y-88.3357
G01 X94.4231 Y-88.3062
G01 X94.4070 Y-88.2846
G01 X94.3881 Y-88.2636
G01 X92.6751 Y-86.5507
G01 X92.6751 Y-86.0359
G01 X92.6827 Y-86.0311
G01 X92.7241 Y-86.0003
G01 X92.7641 Y-85.9641
G01 X92.8003 Y-85.9241
G01 X92.8338 Y-85.8786
G01 X92.8603 Y-85.8344
G01 X92.8824 Y-85.7878
G01 X92.9008 Y-85.7371
G01 X92.9147 Y-85.6823
G01 X92.9225 Y-85.6302
G01 X92.9253 Y-85.5750
G01 X92.9253 Y-84.6128
G01 X93.5000 Y-84.6128
G01 X93.5552 Y-84.6100
G01 X93.6073 Y-84.6022
G01 X93.6574 Y-84.5897
G01 X93.7106 Y-84.5709
G01 X93.7594 Y-84.5478
G01 X93.8036 Y-84.5213
G01 X93.8491 Y-84.4878
G01 X93.8891 Y-84.4516
G01 X96.8891 Y-81.4516
G01 X96.9253 Y-81.4116
G01 X96.9561 Y-81.3702
G01 X96.9864 Y-81.3197
G01 X97.0092 Y-81.2708
G01 X97.0266 Y-81.2222
G01 X97.0391 Y-81.1722
G01 X97.0476 Y-81.1164
G01 X97.0502 Y-81.0637
G01 X97.0503 Y-77.0500
G01 X98.0012 Y-77.0500
G01 X98.0085 Y-77.0493
G01 X98.0168 Y-77.0471
G01 X98.0236 Y-77.0441
G01 X98.0298 Y-77.0402
G01 X98.0362 Y-77.0345
G01 X98.0409 Y-77.0288
G01 X98.0452 Y-77.0214
G01 X98.0478 Y-77.0145
G01 X98.0495 Y-77.0073
G01 X98.0500 Y-77.0000
G01 X98.0500 Y-74.0000
G01 X98.0496 Y-73.9939
G01 X98.0482 Y-73.9867
G01 X98.0462 Y-73.9809
G01 X98.0435 Y-73.9754
G01 X98.0394 Y-73.9692
G01 X98.0354 Y-73.9646
G01 X98.0308 Y-73.9606
G01 X98.0257 Y-73.9571
G01 X98.0191 Y-73.9538
G01 X98.0133 Y-73.9518
G01 X98.0073 Y-73.9505
G01 X98.0000 Y-73.9500
G01 X95.0000 Y-73.9500
G01 X94.9939 Y-73.9504
G01 X94.9867 Y-73.9518
G01 X94.9809 Y-73.9538
G01 X94.9754 Y-73.9565
G01 X94.9692 Y-73.9606
G01 X94.9646 Y-73.9646
G01 X94.9606 Y-73.9692
G01 X94.9571 Y-73.9743
G01 X94.9538 Y-73.9809
G01 X94.9518 Y-73.9867
G01 X94.9505 Y-73.9927
G01 X94.9500 Y-74.0000
G01 X94.9500 Y-77.0000
G01 X94.9507 Y-77.0085
G01 X94.9525 Y-77.0157
G01 X94.9553 Y-77.0225
G01 X94.9598 Y-77.0298
G01 X94.9646 Y-77.0354
G01 X94.9702 Y-77.0402
G01 X94.9764 Y-77.0441
G01 X94.9832 Y-77.0471
G01 X94.9915 Y-77.0493
G01 X94.9988 Y-77.0500
G01 X95.9497 Y-77.0500
G01 X95.9497 Y-80.8346
G01 X93.2721 Y-83.5122
G01 X92.8968 Y-83.5122
G01 X92.8901 Y-83.4938
G01 X92.8784 Y-83.4689
G01 X92.8623 Y-83.4420
G01 X92.8458 Y-83.4199
G01 X92.8282 Y-83.4003
G01 X92.8041 Y-83.3784
G01 X92.7819 Y-83.3620
G01 X92.7594 Y-83.3484
G01 X92.7312 Y-83.3349
G01 X92.7017 Y-83.3245
G01 X92.6761 Y-83.3181
G01 X92.6475 Y-83.3139
G01 X92.6187 Y-83.3125
G01 X92.1313 Y-83.3125
G01 X92.1025 Y-83.3139
G01 X92.0739 Y-83.3181
G01 X92.0483 Y-83.3245
G01 X92.0188 Y-83.3349
G01 X91.9906 Y-83.3484
G01 X91.9681 Y-83.3620
G01 X91.9459 Y-83.3784
G01 X91.9235 Y-83.3985
G01 X91.9058 Y-83.4180
G01 X91.8857 Y-83.4451
G01 X91.8722 Y-83.4678
G01 X91.8599 Y-83.4938
G01 X91.8501 Y-83.5210
G01 X91.8429 Y-83.5501
G01 X91.8389 Y-83.5775
G01 X91.8375 Y-83.6050
G01 X91.8375 Y-83.9462
G01 X91.8351 Y-83.9564
G01 X91.8274 Y-84.0086
G01 X91.8247 Y-84.0625
G00 Z2.0000
G00 X94.5499 Y-86.3750
G01 F40.00
G01 Z0.0000
G01 F80.00
G01 X94.5499 Y-94.0637
G01 X94.5512 Y-94.0845
G01 X94.5538 Y-94.1015
G01 X94.5579 Y-94.1182
G01 X94.5652 Y-94.1391
G01 X94.5750 Y-94.1594
G01 X94.5751 Y-94.4150
G01 X94.5755 Y-94.4235
G01 X94.5767 Y-94.4320
G01 X94.5795 Y-94.4440
G01 X94.5836 Y-94.4556
G01 X94.5889 Y-94.4666
G01 X94.5940 Y-94.4750
G01 X94.6005 Y-94.4839
G01 X94.6080 Y-94.4920
G01 X94.6171 Y-94.5002
G01 X94.6250 Y-94.5060
G01 X94.6356 Y-94.5123
G01 X94.6456 Y-94.5169
G01 X94.6572 Y-94.5208
G01 X94.6656 Y-94.5228
G01 X94.6740 Y-94.5242
G01 X94.6863 Y-94.5250
G01 X94.8137 Y-94.5250
G01 X94.8235 Y-94.5245
G01 X94.8332 Y-94.5231
G01 X94.8475 Y-94.5194
G01 X94.8556 Y-94.5164
G01 X94.8655 Y-94.5117
G01 X94.8750 Y-94.5060
G01 X94.8819 Y-94.5010
G01 X94.8937 Y-94.4903
G01 X94.8995 Y-94.4839
G01 X94.9060 Y-94.4750
G01 X94.9128 Y-94.4633
G01 X94.9164 Y-94.4556
G01 X94.9202 Y-94.4452
G01 X94.9233 Y-94.4320
G01 X94.9245 Y-94.4235
G01 X94.9250 Y-94.4137
G01 X94.9250 Y-94.1594
G01 X94.9348 Y-94.1391
G01 X94.9421 Y-94.1182
G01 X94.9462 Y-94.1015
G01 X94.9488 Y-94.0845
G01 X94.9501 Y-94.0637
G01 X94.9501 Y-86.4579
G01 X95.7121 Y-85.6961
G01 X95.7191 Y-85.7012
G01 X95.7428 Y-85.7153
G01 X95.7711 Y-85.7285
G01 X95.7960 Y-85.7374
G01 X95.8215 Y-85.7438
G01 X95.8537 Y-85.7487
G01 X95.8813 Y-85.7500
G01 X96.3687 Y-85.7500
G01 X96.3963 Y-85.7487
G01 X96.4261 Y-85.7444
G01 X96.4540 Y-85.7374
G01 X96.4812 Y-85.7276
G01 X96.5072 Y-85.7153
G01 X96.5319 Y-85.7005
G01 X96.5551 Y-85.6833
G01 X96.5765 Y-85.6640
G01 X96.5966 Y-85.6416
G01 X96.6130 Y-85.6194
G01 X96.6266 Y-85.5969
G01 X96.6401 Y-85.5687
G01 X96.6499 Y-85.5415
G01 X96.6563 Y-85.5160
G01 X96.6613 Y-85.4826
G01 X96.6625 Y-85.4562
G01 X96.6625 Y-84.5425
G01 X96.6611 Y-84.5150
G01 X96.6569 Y-84.4864
G01 X96.6499 Y-84.4585
G01 X96.6401 Y-84.4313
G01 X96.6278 Y-84.4053
G01 X96.6130 Y-84.3806
G01 X96.5958 Y-84.3574
G01 X96.5765 Y-84.3360
G01 X96.5551 Y-84.3167
G01 X96.5340 Y-84.3009
G01 X96.5050 Y-84.2836
G01 X96.4812 Y-84.2724
G01 X96.4540 Y-84.2626
G01 X96.4261 Y-84.2556
G01 X96.3988 Y-84.2516
G01 X96.3687 Y-84.2500
G01 X95.8813 Y-84.2500
G01 X95.8525 Y-84.2514
G01 X95.8239 Y-84.2556
G01 X95.7960 Y-84.2626
G01 X95.7688 Y-84.2724
G01 X95.7428 Y-84.2847
G01 X95.7181 Y-84.2995
G01 X95.6949 Y-84.3167
G01 X95.6735 Y-84.3360
G01 X95.6542 Y-84.3574
G01 X95.6370 Y-84.3806
G01 X95.6222 Y-84.4053
G01 X95.6109 Y-84.4291
G01 X95.5995 Y-84.4608
G01 X95.5931 Y-84.4864
G01 X95.5889 Y-84.5150
G01 X95.5875 Y-84.5438
G01 X95.5875 Y-85.2546
G01 X94.6068 Y-86.2353
G01 X94.5953 Y-86.2481
G01 X94.5836 Y-86.2638
G01 X94.5735 Y-86.2807
G01 X94.5652 Y-86.2984
G01 X94.5585 Y-86.3169
G01 X94.5538 Y-86.3360
G01 X94.5509 Y-86.3554
G01 X94.5499 Y-86.3750
G00 Z2.0000
G00 X98.3041 Y-85.7437
G01 F40.00
G01 Z0.0000
G01 F80.00
G01 X98.3041 Y-86.1029
G01 X98.3602 Y-86.1590
G01 X98.4801 Y-86.1609
G01 X98.5773 Y-86.1513
G01 X98.6636 Y-86.1251
G01 X98.7431 Y-86.0826
G01 X98.8129 Y-86.0254
G01 X98.8701 Y-85.9556
G01 X98.9126 Y-85.8761
G01 X98.9388 Y-85.7898
G01 X98.9484 Y-85.6920
G01 X98.9460 Y-85.3596
G01 X98.8904 Y-85.3041
G01 X98.5375 Y-85.3041
G01 X98.5375 Y-85.4563
G01 X98.5359 Y-85.4863
G01 X98.5319 Y-85.5136
G01 X98.5249 Y-85.5415
G01 X98.5151 Y-85.5687
G01 X98.5028 Y-85.5947
G01 X98.4880 Y-85.6194
G01 X98.4708 Y-85.6426
G01 X98.4515 Y-85.6640
G01 X98.4282 Y-85.6848
G01 X98.4069 Y-85.7005
G01 X98.3800 Y-85.7164
G01 X98.3539 Y-85.7285
G01 X98.3290 Y-85.7374
G01 X98.3041 Y-85.7437
G00 Z2.0000
G00 X98.3041 Y-84.2563
G01 F40.00
G01 Z0.0000
G01 F80.00
G01 X98.3290 Y-84.2626
G01 X98.3539 Y-84.2715
G01 X98.3800 Y-84.2836
G01 X98.4069 Y-84.2995
G01 X98.4282 Y-84.3152
G01 X98.4515 Y-84.3360
G01 X98.4708 Y-84.3574
G01 X98.4880 Y-84.3806
G01 X98.5028 Y-84.4053
G01 X98.5151 Y-84.4313
G01 X98.5249 Y-84.4585
G01 X98.5319 Y-84.4864
G01 X98.5359 Y-84.5137
G01 X98.5375 Y-84.5438
G01 X98.5375 Y-84.6959
G01 X98.8904 Y-84.6959
G01 X98.9460 Y-84.6404
G01 X98.9484 Y-84.3080
G01 X98.9388 Y-84.2102
G01 X98.9126 Y-84.1239
G01 X98.8701 Y-84.0444
G01 X98.8129 Y-83.9746
G01 X98.7431 Y-83.9174
G01 X98.6636 Y-83.8749
G01 X98.5773 Y-83.8487
G01 X98.4801 Y-83.8391
G01 X98.3602 Y-83.8410
G01 X98.3041 Y-83.8971
G01 X98.3041 Y-84.2563
G00 Z2.0000
G00 X103.5302 Y-86.4889
G01 F40.00
G01 Z0.0000
G01 F80.00
G01 X103.5384 Y-86.4561
G01 X103.5474 Y-86.4313
G01 X103.5597 Y-86.4053
G01 X103.5759 Y-86.3785
G01 X103.5917 Y-86.3574
G01 X103.6110 Y-86.3360
G01 X103.6324 Y-86.3167
G01 X103.6535 Y-86.3009
G01 X103.6803 Y-86.2847
G01 X103.7086 Y-86.2715
G01 X103.7335 Y-86.2626
G01 X103.7584 Y-86.2563
G01 X103.7584 Y-85.8971
G01 X103.7023 Y-85.8410
G01 X103.5824 Y-85.8391
G01 X103.4852 Y-85.8487
G01 X103.3989 Y-85.8749
G01 X103.3194 Y-85.9174
G01 X103.2496 Y-85.9746
G01 X103.1924 Y-86.0444
G01 X103.1499 Y-86.1239
G01 X103.1237 Y-86.2102
G01 X103.1141 Y-86.3080
G01 X103.1165 Y-86.6404
G01 X103.1721 Y-86.6959
G01 X103.5250 Y-86.6959
G01 X103.5250 Y-86.5425
G01 X103.5264 Y-86.5150
G01 X103.5302 Y-86.4889
G00 Z2.0000
G00 X103.5250 Y-87.3041
G01 F40.00
G01 Z0.0000
G01 F80.00
G01 X103.1721 Y-87.3041
G01 X103.1165 Y-87.3596
G01 X103.1141 Y-87.6920
G01 X103.1237 Y-87.7898
G01 X103.1499 Y-87.8761
G01 X103.1924 Y-87.9556
G01 X103.2496 Y-88.0254
G01 X103.3194 Y-88.0826
G01 X103.3989 Y-88.1251
G01 X103.4852 Y-88.1513
G01 X103.5824 Y-88.1609
G01 X103.7023 Y-88.1590
G01 X103.7584 Y-88.1029
G01 X103.7584 Y-87.7437
G01 X103.7335 Y-87.7374
G01 X103.7086 Y-87.7285
G01 X103.6825 Y-87.7164
G01 X103.6556 Y-87.7005
G01 X103.6343 Y-87.6848
G01 X103.6110 Y-87.6640
G01 X103.5917 Y-87.6426
G01 X103.5745 Y-87.6194
G01 X103.5597 Y-87.5947
G01 X103.5474 Y-87.5687
G01 X103.5376 Y-87.5415
G01 X103.5306 Y-87.5136
G01 X103.5266 Y-87.4863
G01 X103.5250 Y-87.4562
G01 X103.5250 Y-87.3041
G00 Z2.0000
G00 X95.0499 Y-90.8750
G01 F40.00
G01 Z0.0000
G01 F80.00
G01 X95.0499 Y-94.0625
G01 X95.0512 Y-94.0845
G01 X95.0538 Y-94.1015
G01 X95.0579 Y-94.1182
G01 X95.0652 Y-94.1391
G01 X95.0750 Y-94.1594
G01 X95.0750 Y-94.4125
G01 X95.0754 Y-94.4223
G01 X95.0774 Y-94.4356
G01 X95.0798 Y-94.4452
G01 X95.0827 Y-94.4533
G01 X95.0883 Y-94.4655
G01 X95.0954 Y-94.4770
G01 X95.1005 Y-94.4839
G01 X95.1063 Y-94.4903
G01 X95.1161 Y-94.4995
G01 X95.1271 Y-94.5074
G01 X95.1345 Y-94.5117
G01 X95.1444 Y-94.5164
G01 X95.1548 Y-94.5202
G01 X95.1656 Y-94.5228
G01 X95.1765 Y-94.5245
G01 X95.1850 Y-94.5249
G01 X95.3125 Y-94.5250
G01 X95.3223 Y-94.5246
G01 X95.3368 Y-94.5223
G01 X95.3452 Y-94.5202
G01 X95.3556 Y-94.5164
G01 X95.3655 Y-94.5117
G01 X95.3729 Y-94.5074
G01 X95.3839 Y-94.4995
G01 X95.3920 Y-94.4920
G01 X95.3979 Y-94.4857
G01 X95.4060 Y-94.4750
G01 X95.4117 Y-94.4655
G01 X95.4154 Y-94.4578
G01 X95.4205 Y-94.4440
G01 X95.4228 Y-94.4344
G01 X95.4242 Y-94.4260
G01 X95.4250 Y-94.4137
G01 X95.4250 Y-94.1594
G01 X95.4348 Y-94.1391
G01 X95.4421 Y-94.1182
G01 X95.4462 Y-94.1015
G01 X95.4488 Y-94.0845
G01 X95.4501 Y-94.0637
G01 X95.4501 Y-90.9579
G01 X95.7121 Y-90.6961
G01 X95.7191 Y-90.7012
G01 X95.7428 Y-90.7153
G01 X95.7711 Y-90.7285
G01 X95.7960 Y-90.7374
G01 X95.8215 Y-90.7438
G01 X95.8537 Y-90.7487
G01 X95.8813 Y-90.7500
G01 X96.3687 Y-90.7500
G01 X96.3963 Y-90.7487
G01 X96.4261 Y-90.7444
G01 X96.4540 Y-90.7374
G01 X96.4812 Y-90.7276
G01 X96.5094 Y-90.7141
G01 X96.5340 Y-90.6991
G01 X96.5551 Y-90.6833
G01 X96.5747 Y-90.6657
G01 X96.5958 Y-90.6426
G01 X96.6123 Y-90.6205
G01 X96.6289 Y-90.5925
G01 X96.6401 Y-90.5687
G01 X96.6499 Y-90.5415
G01 X96.6573 Y-90.5111
G01 X96.6611 Y-90.4850
G01 X96.6624 Y-90.4587
G01 X96.6625 Y-89.5425
G01 X96.6611 Y-89.5150
G01 X96.6569 Y-89.4864
G01 X96.6499 Y-89.4585
G01 X96.6401 Y-89.4313
G01 X96.6278 Y-89.4053
G01 X96.6130 Y-89.3806
G01 X96.5958 Y-89.3574
G01 X96.5765 Y-89.3360
G01 X96.5551 Y-89.3167
G01 X96.5340 Y-89.3009
G01 X96.5050 Y-89.2836
G01 X96.4812 Y-89.2724
G01 X96.4540 Y-89.2626
G01 X96.4261 Y-89.2556
G01 X96.3988 Y-89.2516
G01 X96.3687 Y-89.2500
G01 X95.8813 Y-89.2500
G01 X95.8525 Y-89.2514
G01 X95.8239 Y-89.2556
G01 X95.7960 Y-89.2626
G01 X95.7688 Y-89.2724
G01 X95.7428 Y-89.2847
G01 X95.7181 Y-89.2995
G01 X95.6949 Y-89.3167
G01 X95.6735 Y-89.3360
G01 X95.6542 Y-89.3574
G01 X95.6370 Y-89.3806
G01 X95.6222 Y-89.4053
G01 X95.6109 Y-89.4291
G01 X95.5995 Y-89.4608
G01 X95.5931 Y-89.4864
G01 X95.5889 Y-89.5150
G01 X95.5875 Y-89.5438
G01 X95.5875 Y-90.2546
G01 X95.1085 Y-90.7335
G01 X95.0961 Y-90.7471
G01 X95.0836 Y-90.7638
G01 X95.0748 Y-90.7786
G01 X95.0643 Y-90.8007
G01 X95.0585 Y-90.8169
G01 X95.0538 Y-90.8360
G01 X95.0509 Y-90.8554
G01 X95.0499 Y-90.8750
G00 Z2.0000
G00 X91.4017 Y-91.4875
G01 F40.00
G01 Z0.0000
G01 F80.00
G01 X91.4056 Y-91.5136
G01 X91.4126 Y-91.5415
G01 X91.4224 Y-91.5687
G01 X91.4347 Y-91.5947
G01 X91.4495 Y-91.6194
G01 X91.4667 Y-91.6426
G01 X91.4860 Y-91.6640
G01 X91.5084 Y-91.6841
G01 X91.5306 Y-91.7005
G01 X91.5553 Y-91.7153
G01 X91.5813 Y-91.7276
G01 X91.6097 Y-91.7377
G01 X91.6364 Y-91.7444
G01 X91.6650 Y-91.7486
G01 X91.6925 Y-91.7500
G01 X91.7374 Y-91.7500
G01 X91.7374 Y-92.1012
G01 X91.7384 Y-92.1196
G01 X91.7413 Y-92.1390
G01 X91.7460 Y-92.1581
G01 X91.7527 Y-92.1766
G01 X91.7610 Y-92.1943
G01 X91.7711 Y-92.2112
G01 X91.7828 Y-92.2269
G01 X91.7952 Y-92.2406
G01 X92.0085 Y-92.4540
G01 X92.0231 Y-92.4672
G01 X92.0399 Y-92.4795
G01 X92.0557 Y-92.4890
G01 X92.0712 Y-92.4964
G01 X92.0919 Y-92.5040
G01 X92.1134 Y-92.5092
G01 X92.1304 Y-92.5116
G01 X92.1488 Y-92.5126
G01 X93.0499 Y-92.5126
G01 X93.0499 Y-94.0637
G01 X93.0512 Y-94.0845
G01 X93.0538 Y-94.1015
G01 X93.0579 Y-94.1182
G01 X93.0652 Y-94.1391
G01 X93.0750 Y-94.1594
G01 X93.0750 Y-94.4125
G01 X93.0755 Y-94.4235
G01 X93.0769 Y-94.4332
G01 X93.0806 Y-94.4475
G01 X93.0836 Y-94.4556
G01 X93.0883 Y-94.4655
G01 X93.0954 Y-94.4770
G01 X93.1005 Y-94.4839
G01 X93.1071 Y-94.4912
G01 X93.1181 Y-94.5010
G01 X93.1250 Y-94.5060
G01 X93.1334 Y-94.5111
G01 X93.1456 Y-94.5169
G01 X93.1548 Y-94.5202
G01 X93.1632 Y-94.5223
G01 X93.1753 Y-94.5243
G01 X93.1863 Y-94.5250
G01 X93.3125 Y-94.5250
G01 X93.3223 Y-94.5246
G01 X93.3344 Y-94.5228
G01 X93.3475 Y-94.5194
G01 X93.3556 Y-94.5164
G01 X93.3633 Y-94.5128
G01 X93.3750 Y-94.5060
G01 X93.3839 Y-94.4995
G01 X93.3920 Y-94.4920
G01 X93.3995 Y-94.4839
G01 X93.4060 Y-94.4750
G01 X93.4117 Y-94.4655
G01 X93.4164 Y-94.4556
G01 X93.4202 Y-94.4452
G01 X93.4231 Y-94.4332
G01 X93.4245 Y-94.4235
G01 X93.4250 Y-94.4125
G01 X93.4250 Y-94.1594
G01 X93.4348 Y-94.1391
G01 X93.4421 Y-94.1182
G01 X93.4462 Y-94.1015
G01 X93.4488 Y-94.0845
G01 X93.4501 Y-94.0637
G01 X93.4501 Y-92.3113
G01 X93.4491 Y-92.2929
G01 X93.4457 Y-92.2711
G01 X93.4415 Y-92.2544
G01 X93.4357 Y-92.2382
G01 X93.4270 Y-92.2193
G01 X93.4164 Y-92.2013
G01 X93.4031 Y-92.1837
G01 X93.3897 Y-92.1693
G01 X93.3769 Y-92.1578
G01 X93.3632 Y-92.1476
G01 X93.3443 Y-92.1360
G01 X93.3266 Y-92.1277
G01 X93.3081 Y-92.1210
G01 X93.2866 Y-92.1158
G01 X93.2696 Y-92.1134
G01 X93.2500 Y-92.1124
G01 X92.2329 Y-92.1124
G01 X92.1376 Y-92.0171
G01 X92.1376 Y-91.7500
G01 X92.1825 Y-91.7500
G01 X92.2100 Y-91.7486
G01 X92.2386 Y-91.7444
G01 X92.2653 Y-91.7377
G01 X92.2937 Y-91.7276
G01 X92.3197 Y-91.7153
G01 X92.3444 Y-91.7005
G01 X92.3666 Y-91.6841
G01 X92.3890 Y-91.6640
G01 X92.4083 Y-91.6426
G01 X92.4255 Y-91.6194
G01 X92.4403 Y-91.5947
G01 X92.4526 Y-91.5687
G01 X92.4624 Y-91.5415
G01 X92.4694 Y-91.5136
G01 X92.4734 Y-91.4863
G01 X92.4750 Y-91.4562
G01 X92.4750 Y-90.5438
G01 X92.4736 Y-90.5150
G01 X92.4694 Y-90.4864
G01 X92.4624 Y-90.4585
G01 X92.4526 Y-90.4313
G01 X92.4403 Y-90.4053
G01 X92.4255 Y-90.3806
G01 X92.4083 Y-90.3574
G01 X92.3890 Y-90.3360
G01 X92.3676 Y-90.3167
G01 X92.3424 Y-90.2982
G01 X92.3197 Y-90.2847
G01 X92.2937 Y-90.2724
G01 X92.2642 Y-90.2620
G01 X92.2386 Y-90.2556
G01 X92.2100 Y-90.2514
G01 X92.1812 Y-90.2500
G01 X91.6913 Y-90.2501
G01 X91.6625 Y-90.2517
G01 X91.6364 Y-90.2556
G01 X91.6108 Y-90.2620
G01 X91.5813 Y-90.2724
G01 X91.5575 Y-90.2836
G01 X91.5306 Y-90.2995
G01 X91.5074 Y-90.3167
G01 X91.4860 Y-90.3360
G01 X91.4667 Y-90.3574
G01 X91.4482 Y-90.3826
G01 X91.4347 Y-90.4053
G01 X91.4224 Y-90.4313
G01 X91.4126 Y-90.4585
G01 X91.4062 Y-90.4840
G01 X91.4012 Y-90.5174
G01 X91.4000 Y-90.5438
G01 X91.4000 Y-91.4562
G01 X91.4017 Y-91.4875
G00 Z2.0000
G00 X89.5250 Y-91.3041
G01 F40.00
G01 Z0.0000
G01 F80.00
G01 X89.1721 Y-91.3041
G01 X89.1165 Y-91.3596
G01 X89.1141 Y-91.6920
G01 X89.1237 Y-91.7898
G01 X89.1499 Y-91.8761
G01 X89.1924 Y-91.9556
G01 X89.2496 Y-92.0254
G01 X89.3194 Y-92.0826
G01 X89.3989 Y-92.1251
G01 X89.4852 Y-92.1513
G01 X89.5824 Y-92.1609
G01 X89.7023 Y-92.1590
G01 X89.7584 Y-92.1029
G01 X89.7584 Y-91.7437
G01 X89.7335 Y-91.7374
G01 X89.7086 Y-91.7285
G01 X89.6825 Y-91.7164
G01 X89.6556 Y-91.7005
G01 X89.6343 Y-91.6848
G01 X89.6110 Y-91.6640
G01 X89.5917 Y-91.6426
G01 X89.5745 Y-91.6194
G01 X89.5597 Y-91.5947
G01 X89.5474 Y-91.5687
G01 X89.5376 Y-91.5415
G01 X89.5306 Y-91.5136
G01 X89.5266 Y-91.4863
G01 X89.5250 Y-91.4562
G01 X89.5250 Y-91.3041
G00 Z2.0000
G00 X91.6008 Y-94.8260
G01 F40.00
G01 Z0.0000
G01 F80.00
G01 X91.6022 Y-94.8344
G01 X91.6048 Y-94.8452
G01 X91.6086 Y-94.8556
G01 X91.6122 Y-94.8633
G01 X91.6204 Y-94.8770
G01 X91.6255 Y-94.8839
G01 X91.6330 Y-94.8920
G01 X91.6411 Y-94.8995
G01 X91.6480 Y-94.9046
G01 X91.6617 Y-94.9128
G01 X91.6694 Y-94.9164
G01 X91.6798 Y-94.9202
G01 X91.6906 Y-94.9228
G01 X91.7003 Y-94.9243
G01 X91.7125 Y-94.9250
G01 X92.4125 Y-94.9250
G01 X92.4235 Y-94.9245
G01 X92.4332 Y-94.9231
G01 X92.4463 Y-94.9198
G01 X92.4556 Y-94.9164
G01 X92.4633 Y-94.9128
G01 X92.4750 Y-94.9060
G01 X92.4848 Y-94.8987
G01 X92.4920 Y-94.8920
G01 X92.4979 Y-94.8857
G01 X92.5060 Y-94.8750
G01 X92.5128 Y-94.8633
G01 X92.5164 Y-94.8556
G01 X92.5194 Y-94.8475
G01 X92.5231 Y-94.8332
G01 X92.5245 Y-94.8235
G01 X92.5250 Y-94.8137
G01 X92.5250 Y-94.6863
G01 X92.5245 Y-94.6765
G01 X92.5231 Y-94.6668
G01 X92.5194 Y-94.6525
G01 X92.5164 Y-94.6444
G01 X92.5117 Y-94.6345
G01 X92.5060 Y-94.6250
G01 X92.5010 Y-94.6181
G01 X92.4903 Y-94.6063
G01 X92.4839 Y-94.6005
G01 X92.4750 Y-94.5940
G01 X92.4655 Y-94.5883
G01 X92.4578 Y-94.5846
G01 X92.4428 Y-94.5792
G01 X92.4344 Y-94.5772
G01 X92.4235 Y-94.5755
G01 X92.4125 Y-94.5750
G01 X91.7125 Y-94.5750
G01 X91.7015 Y-94.5755
G01 X91.6918 Y-94.5769
G01 X91.6798 Y-94.5798
G01 X91.6672 Y-94.5846
G01 X91.6595 Y-94.5883
G01 X91.6521 Y-94.5926
G01 X91.6411 Y-94.6005
G01 X91.6313 Y-94.6097
G01 X91.6255 Y-94.6161
G01 X91.6204 Y-94.6230
G01 X91.6133 Y-94.6345
G01 X91.6077 Y-94.6467
G01 X91.6048 Y-94.6548
G01 X91.6022 Y-94.6656
G01 X91.6005 Y-94.6765
G01 X91.6001 Y-94.6850
G01 X91.6000 Y-94.8125
G01 X91.6008 Y-94.8260
G00 Z2.0000
G00 X91.6008 Y-95.3260
G01 F40.00
G01 Z0.0000
G01 F80.00
G01 X91.6022 Y-95.3344
G01 X91.6048 Y-95.3452
G01 X91.6086 Y-95.3556
G01 X91.6122 Y-95.3633
G01 X91.6204 Y-95.3770
G01 X91.6255 Y-95.3839
G01 X91.6330 Y-95.3920
G01 X91.6411 Y-95.3995
G01 X91.6480 Y-95.4046
G01 X91.6617 Y-95.4128
G01 X91.6694 Y-95.4164
G01 X91.6798 Y-95.4202
G01 X91.6906 Y-95.4228
G01 X91.7003 Y-95.4243
G01 X91.7125 Y-95.4250
G01 X92.4125 Y-95.4250
G01 X92.4235 Y-95.4245
G01 X92.4332 Y-95.4231
G01 X92.4463 Y-95.4198
G01 X92.4556 Y-95.4164
G01 X92.4633 Y-95.4128
G01 X92.4750 Y-95.4060
G01 X92.4848 Y-95.3987
G01 X92.4920 Y-95.3920
G01 X92.4979 Y-95.3857
G01 X92.5060 Y-95.3750
G01 X92.5128 Y-95.3633
G01 X92.5164 Y-95.3556
G01 X92.5194 Y-95.3475
G01 X92.5231 Y-95.3332
G01 X92.5245 Y-95.3235
G01 X92.5250 Y-95.3137
G01 X92.5250 Y-95.1863
G01 X92.5245 Y-95.1765
G01 X92.5231 Y-95.1668
G01 X92.5194 Y-95.1525
G01 X92.5164 Y-95.1444
G01 X92.5117 Y-95.1345
G01 X92.5060 Y-95.1250
G01 X92.5010 Y-95.1181
G01 X92.4903 Y-95.1063
G01 X92.4839 Y-95.1005
G01 X92.4750 Y-95.0940
G01 X92.4655 Y-95.0883
G01 X92.4578 Y-95.0846
G01 X92.4428 Y-95.0792
G01 X92.4344 Y-95.0772
G01 X92.4235 Y-95.0755
G01 X92.4125 Y-95.0750
G01 X91.7125 Y-95.0750
G01 X91.7015 Y-95.0755
G01 X91.6918 Y-95.0769
G01 X91.6798 Y-95.0798
G01 X91.6672 Y-95.0846
G01 X91.6595 Y-95.0883
G01 X91.6521 Y-95.0926
G01 X91.6411 Y-95.1005
G01 X91.6313 Y-95.1097
G01 X91.6255 Y-95.1161
G01 X91.6204 Y-95.1230
G01 X91.6133 Y-95.1345
G01 X91.6077 Y-95.1467
G01 X91.6048 Y-95.1548
G01 X91.6022 Y-95.1656
G01 X91.6005 Y-95.1765
G01 X91.6001 Y-95.1850
G01 X91.6000 Y-95.3125
G01 X91.6008 Y-95.3260
G00 Z2.0000
G00 X94.0758 Y-98.3010
G01 F40.00
G01 Z0.0000
G01 F80.00
G01 X94.0772 Y-98.3094
G01 X94.0798 Y-98.3202
G01 X94.0836 Y-98.3306
G01 X94.0877 Y-98.3394
G01 X94.0933 Y-98.3490
G01 X94.0990 Y-98.3569
G01 X94.1088 Y-98.3679
G01 X94.1161 Y-98.3745
G01 X94.1250 Y-98.3810
G01 X94.1345 Y-98.3867
G01 X94.1433 Y-98.3910
G01 X94.1537 Y-98.3948
G01 X94.1632 Y-98.3973
G01 X94.1789 Y-98.3996
G01 X94.1875 Y-98.4000
G01 X94.3137 Y-98.4000
G01 X94.3235 Y-98.3995
G01 X94.3320 Y-98.3983
G01 X94.3463 Y-98.3948
G01 X94.3578 Y-98.3904
G01 X94.3655 Y-98.3867
G01 X94.3729 Y-98.3824
G01 X94.3829 Y-98.3752
G01 X94.3920 Y-98.3670
G01 X94.4002 Y-98.3579
G01 X94.4074 Y-98.3479
G01 X94.4117 Y-98.3405
G01 X94.4154 Y-98.3328
G01 X94.4198 Y-98.3213
G01 X94.4233 Y-98.3070
G01 X94.4245 Y-98.2985
G01 X94.4250 Y-98.2875
G01 X94.4250 Y-97.5875
G01 X94.4245 Y-97.5765
G01 X94.4228 Y-97.5656
G01 X94.4208 Y-97.5572
G01 X94.4164 Y-97.5444
G01 X94.4117 Y-97.5345
G01 X94.4074 Y-97.5271
G01 X94.3995 Y-97.5161
G01 X94.3920 Y-97.5080
G01 X94.3857 Y-97.5021
G01 X94.3750 Y-97.4940
G01 X94.3633 Y-97.4872
G01 X94.3556 Y-97.4836
G01 X94.3463 Y-97.4802
G01 X94.3320 Y-97.4767
G01 X94.3235 Y-97.4755
G01 X94.3125 Y-97.4750
G01 X94.1863 Y-97.4750
G01 X94.1740 Y-97.4758
G01 X94.1656 Y-97.4772
G01 X94.1560 Y-97.4795
G01 X94.1444 Y-97.4836
G01 X94.1323 Y-97.4895
G01 X94.1250 Y-97.4940
G01 X94.1181 Y-97.4990
G01 X94.1080 Y-97.5080
G01 X94.0998 Y-97.5171
G01 X94.0926 Y-97.5271
G01 X94.0883 Y-97.5345
G01 X94.0846 Y-97.5422
G01 X94.0802 Y-97.5537
G01 X94.0767 Y-97.5680
G01 X94.0755 Y-97.5765
G01 X94.0750 Y-97.5875
G01 X94.0750 Y-98.2875
G01 X94.0758 Y-98.3010
G00 Z2.0000
G00 X95.4758 Y-97.3260
G01 F40.00
G01 Z0.0000
G01 F80.00
G01 X95.4772 Y-97.3344
G01 X95.4798 Y-97.3452
G01 X95.4836 Y-97.3556
G01 X95.4872 Y-97.3633
G01 X95.4947 Y-97.3760
G01 X95.5005 Y-97.3839
G01 X95.5063 Y-97.3903
G01 X95.5181 Y-97.4010
G01 X95.5250 Y-97.4060
G01 X95.5345 Y-97.4117
G01 X95.5444 Y-97.4164
G01 X95.5525 Y-97.4194
G01 X95.5656 Y-97.4228
G01 X95.5765 Y-97.4245
G01 X95.5875 Y-97.4250
G01 X96.2875 Y-97.4250
G01 X96.2985 Y-97.4245
G01 X96.3082 Y-97.4231
G01 X96.3226 Y-97.4194
G01 X96.3312 Y-97.4269
G01 X96.3747 Y-97.4588
G01 X96.4190 Y-97.4853
G01 X96.4701 Y-97.5092
G01 X96.5186 Y-97.5266
G01 X96.5710 Y-97.5397
G01 X96.6244 Y-97.5476
G01 X96.6771 Y-97.5502
G01 X102.0012 Y-97.5502
G01 X102.0539 Y-97.5476
G01 X102.1049 Y-97.5401
G01 X102.1597 Y-97.5266
G01 X102.2106 Y-97.5084
G01 X102.2572 Y-97.4864
G01 X102.3067 Y-97.4568
G01 X102.3491 Y-97.4253
G01 X102.3891 Y-97.3891
G01 X106.3266 Y-93.4516
G01 X106.3628 Y-93.4116
G01 X106.3950 Y-93.3682
G01 X106.4228 Y-93.3219
G01 X106.4459 Y-93.2731
G01 X106.4641 Y-93.2222
G01 X106.4772 Y-93.1698
G01 X106.4851 Y-93.1164
G01 X106.4878 Y-93.0625
G01 X106.4878 Y-87.2279
G01 X109.2854 Y-84.4303
G01 X113.4500 Y-84.4303
G01 X113.4500 Y-85.3812
G01 X113.4507 Y-85.3885
G01 X113.4529 Y-85.3968
G01 X113.4559 Y-85.4036
G01 X113.4598 Y-85.4098
G01 X113.4655 Y-85.4162
G01 X113.4712 Y-85.4209
G01 X113.4775 Y-85.4247
G01 X113.4843 Y-85.4275
G01 X113.4915 Y-85.4293
G01 X113.5000 Y-85.4300
G01 X116.5000 Y-85.4300
G01 X116.5061 Y-85.4296
G01 X116.5110 Y-85.4288
G01 X116.5157 Y-85.4275
G01 X116.5214 Y-85.4252
G01 X116.5278 Y-85.4216
G01 X116.5336 Y-85.4170
G01 X116.5387 Y-85.4117
G01 X116.5422 Y-85.4067
G01 X116.5452 Y-85.4014
G01 X116.5478 Y-85.3945
G01 X116.5495 Y-85.3873
G01 X116.5500 Y-85.3800
G01 X116.5500 Y-82.3800
G01 X116.5495 Y-82.3727
G01 X116.5478 Y-82.3655
G01 X116.5452 Y-82.3586
G01 X116.5409 Y-82.3512
G01 X116.5370 Y-82.3464
G01 X116.5336 Y-82.3430
G01 X116.5288 Y-82.3391
G01 X116.5236 Y-82.3359
G01 X116.5180 Y-82.3334
G01 X116.5121 Y-82.3315
G01 X116.5061 Y-82.3304
G01 X116.5000 Y-82.3300
G01 X113.5000 Y-82.3300
G01 X113.4915 Y-82.3307
G01 X113.4832 Y-82.3329
G01 X113.4754 Y-82.3365
G01 X113.4683 Y-82.3413
G01 X113.4630 Y-82.3464
G01 X113.4578 Y-82.3533
G01 X113.4538 Y-82.3609
G01 X113.4512 Y-82.3690
G01 X113.4501 Y-82.3775
G01 X113.4500 Y-83.3297
G01 X110.5503 Y-83.3297
G01 X110.5502 Y-78.9988
G01 X110.5476 Y-78.9461
G01 X110.5401 Y-78.8951
G01 X110.5258 Y-78.8379
G01 X110.5084 Y-78.7894
G01 X110.4853 Y-78.7406
G01 X110.4575 Y-78.6943
G01 X110.4261 Y-78.6519
G01 X110.3891 Y-78.6109
G01 X110.3491 Y-78.5747
G01 X110.3057 Y-78.5425
G01 X110.2594 Y-78.5147
G01 X110.2106 Y-78.4916
G01 X110.1597 Y-78.4734
G01 X110.1073 Y-78.4603
G01 X110.0527 Y-78.4523
G01 X110.0000 Y-78.4497
G01 X107.8930 Y-78.4497
G01 X107.8723 Y-78.4156
G01 X107.8124 Y-78.3348
G01 X107.7433 Y-78.2584
G01 X107.6661 Y-78.1883
G01 X107.5823 Y-78.1263
G01 X107.4950 Y-78.0740
G01 X107.3995 Y-78.0290
G01 X107.3048 Y-77.9952
G01 X107.2072 Y-77.9707
G01 X107.1041 Y-77.9552
G01 X107.0000 Y-77.9500
G01 X106.8971 Y-77.9551
G01 X106.7952 Y-77.9702
G01 X106.6976 Y-77.9946
G01 X106.5959 Y-78.0309
G01 X106.5050 Y-78.0740
G01 X106.4156 Y-78.1277
G01 X106.3339 Y-78.1883
G01 X106.2593 Y-78.2558
G01 X106.1883 Y-78.3339
G01 X106.1256 Y-78.4187
G01 X106.0740 Y-78.5050
G01 X106.0309 Y-78.5959
G01 X105.9952 Y-78.6952
G01 X105.9698 Y-78.7976
G01 X105.9551 Y-78.8971
G01 X105.9501 Y-78.9975
G01 X105.9551 Y-79.1029
G01 X105.9707 Y-79.2072
G01 X105.9952 Y-79.3048
G01 X106.0290 Y-79.3995
G01 X106.0740 Y-79.4950
G01 X106.1284 Y-79.5854
G01 X106.1883 Y-79.6661
G01 X106.2558 Y-79.7407
G01 X106.3339 Y-79.8117
G01 X106.4187 Y-79.8744
G01 X106.5050 Y-79.9260
G01 X106.5959 Y-79.9691
G01 X106.6976 Y-80.0054
G01 X106.7952 Y-80.0298
G01 X106.8995 Y-80.0451
G01 X107.0000 Y-80.0500
G01 X107.1029 Y-80.0449
G01 X107.2048 Y-80.0298
G01 X107.3060 Y-80.0044
G01 X107.4018 Y-79.9701
G01 X107.4950 Y-79.9260
G01 X107.5833 Y-79.8730
G01 X107.6652 Y-79.8124
G01 X107.7425 Y-79.7425
G01 X107.8109 Y-79.6671
G01 X107.8723 Y-79.5844
G01 X107.8930 Y-79.5503
G01 X109.4497 Y-79.5503
G01 X109.4497 Y-83.3297
G01 X109.0563 Y-83.3298
G01 X109.0036 Y-83.3324
G01 X108.9514 Y-83.3401
G01 X108.8978 Y-83.3534
G01 X108.8447 Y-83.3726
G01 X108.7981 Y-83.3947
G01 X108.7539 Y-83.4212
G01 X108.7094 Y-83.4539
G01 X108.6684 Y-83.4909
G01 X105.9093 Y-86.2500
G01 X105.6938 Y-86.2500
G01 X105.6662 Y-86.2513
G01 X105.6340 Y-86.2562
G01 X105.6085 Y-86.2626
G01 X105.5825 Y-86.2719
G01 X105.5553 Y-86.2847
G01 X105.5306 Y-86.2995
G01 X105.5074 Y-86.3167
G01 X105.4860 Y-86.3360
G01 X105.4667 Y-86.3574
G01 X105.4495 Y-86.3806
G01 X105.4347 Y-86.4053
G01 X105.4224 Y-86.4313
G01 X105.4126 Y-86.4585
G01 X105.4062 Y-86.4840
G01 X105.4013 Y-86.5162
G01 X105.4000 Y-86.5438
G01 X105.4000 Y-86.8837
G01 X105.3976 Y-86.8939
G01 X105.3899 Y-86.9461
G01 X105.3872 Y-87.0000
G01 X105.3872 Y-92.8346
G01 X101.7721 Y-96.4497
G01 X96.6771 Y-96.4498
G01 X96.6244 Y-96.4524
G01 X96.5710 Y-96.4603
G01 X96.5186 Y-96.4734
G01 X96.4701 Y-96.4908
G01 X96.4168 Y-96.5159
G01 X96.3726 Y-96.5425
G01 X96.3289 Y-96.5749
G01 X95.5875 Y-96.5750
G01 X95.5740 Y-96.5758
G01 X95.5656 Y-96.5772
G01 X95.5572 Y-96.5792
G01 X95.5444 Y-96.5836
G01 X95.5345 Y-96.5883
G01 X95.5271 Y-96.5926
G01 X95.5161 Y-96.6005
G01 X95.5080 Y-96.6080
G01 X95.5021 Y-96.6143
G01 X95.4940 Y-96.6250
G01 X95.4872 Y-96.6367
G01 X95.4836 Y-96.6444
G01 X95.4802 Y-96.6537
G01 X95.4767 Y-96.6680
G01 X95.4755 Y-96.6765
G01 X95.4750 Y-96.6863
G01 X95.4750 Y-96.8137
G01 X95.4755 Y-96.8235
G01 X95.4772 Y-96.8344
G01 X95.4798 Y-96.8452
G01 X95.4831 Y-96.8544
G01 X95.4883 Y-96.8655
G01 X95.4947 Y-96.8760
G01 X95.5021 Y-96.8857
G01 X95.5080 Y-96.8920
G01 X95.5143 Y-96.8979
G01 X95.5240 Y-96.9053
G01 X95.5345 Y-96.9117
G01 X95.5456 Y-96.9169
G01 X95.5572 Y-96.9208
G01 X95.5656 Y-96.9228
G01 X95.5740 Y-96.9242
G01 X95.5863 Y-96.9250
G01 X95.7624 Y-96.9250
G01 X95.7624 Y-97.0750
G01 X95.5875 Y-97.0750
G01 X95.5765 Y-97.0755
G01 X95.5656 Y-97.0772
G01 X95.5572 Y-97.0792
G01 X95.5444 Y-97.0836
G01 X95.5345 Y-97.0883
G01 X95.5271 Y-97.0926
G01 X95.5152 Y-97.1013
G01 X95.5080 Y-97.1080
G01 X95.5005 Y-97.1161
G01 X95.4940 Y-97.1250
G01 X95.4895 Y-97.1323
G01 X95.4827 Y-97.1467
G01 X95.4795 Y-97.1560
G01 X95.4769 Y-97.1668
G01 X95.4755 Y-97.1765
G01 X95.4750 Y-97.1875
G01 X95.4750 Y-97.3125
G01 X95.4758 Y-97.3260
G00 Z2.0000
G00 X95.4758 Y-94.8260
G01 F40.00
G01 Z0.0000
G01 F80.00
G01 X95.4772 Y-94.8344
G01 X95.4795 Y-94.8440
G01 X95.4840 Y-94.8567
G01 X95.4883 Y-94.8655
G01 X95.4926 Y-94.8729
G01 X95.5013 Y-94.8848
G01 X95.5080 Y-94.8920
G01 X95.5143 Y-94.8979
G01 X95.5250 Y-94.9060
G01 X95.5345 Y-94.9117
G01 X95.5422 Y-94.9154
G01 X95.5560 Y-94.9205
G01 X95.5656 Y-94.9228
G01 X95.5740 Y-94.9242
G01 X95.5863 Y-94.9250
G01 X95.8406 Y-94.9250
G01 X95.8609 Y-94.9348
G01 X95.8794 Y-94.9415
G01 X95.8985 Y-94.9462
G01 X95.9203 Y-94.9493
G01 X95.9375 Y-94.9501
G01 X97.7525 Y-94.9500
G01 X97.7696 Y-94.9491
G01 X97.7866 Y-94.9467
G01 X97.8081 Y-94.9415
G01 X97.8288 Y-94.9339
G01 X97.8443 Y-94.9265
G01 X97.8612 Y-94.9164
G01 X97.8769 Y-94.9047
G01 X97.8906 Y-94.8923
G01 X97.9836 Y-94.7994
G01 X98.0012 Y-94.8001
G01 X98.0282 Y-94.7988
G01 X98.0573 Y-94.7946
G01 X98.0871 Y-94.7872
G01 X98.1137 Y-94.7777
G01 X98.1415 Y-94.7647
G01 X98.1667 Y-94.7495
G01 X98.1904 Y-94.7320
G01 X98.2122 Y-94.7122
G01 X98.2320 Y-94.6904
G01 X98.2495 Y-94.6667
G01 X98.2647 Y-94.6415
G01 X98.2773 Y-94.6149
G01 X98.2872 Y-94.5871
G01 X98.2944 Y-94.5586
G01 X98.2987 Y-94.5294
G01 X98.3001 Y-94.5012
G01 X98.3001 Y-90.7445
G01 X98.3290 Y-90.7374
G01 X98.3562 Y-90.7276
G01 X98.3822 Y-90.7153
G01 X98.4090 Y-90.6991
G01 X98.4301 Y-90.6833
G01 X98.4497 Y-90.6657
G01 X98.4692 Y-90.6445
G01 X98.4880 Y-90.6194
G01 X98.5028 Y-90.5947
G01 X98.5151 Y-90.5687
G01 X98.5249 Y-90.5415
G01 X98.5319 Y-90.5136
G01 X98.5359 Y-90.4863
G01 X98.5375 Y-90.4563
G01 X98.5375 Y-90.3001
G01 X100.0012 Y-90.3001
G01 X100.0294 Y-90.2987
G01 X100.0586 Y-90.2944
G01 X100.0871 Y-90.2872
G01 X100.1149 Y-90.2773
G01 X100.1415 Y-90.2647
G01 X100.1667 Y-90.2495
G01 X100.1904 Y-90.2320
G01 X100.2122 Y-90.2122
G01 X101.2122 Y-89.2122
G01 X101.2320 Y-89.1904
G01 X101.2481 Y-89.1687
G01 X101.2658 Y-89.1393
G01 X101.2782 Y-89.1126
G01 X101.2872 Y-89.0871
G01 X101.2938 Y-89.0609
G01 X101.2987 Y-89.0294
G01 X101.3001 Y-89.0000
G01 X101.3001 Y-81.1243
G01 X102.5009 Y-79.9236
G01 X102.5072 Y-79.9271
G01 X102.6005 Y-79.9710
G01 X102.6952 Y-80.0048
G01 X102.7976 Y-80.0302
G01 X102.8971 Y-80.0449
G01 X103.0000 Y-80.0500
G01 X103.1029 Y-80.0449
G01 X103.2072 Y-80.0293
G01 X103.3048 Y-80.0048
G01 X103.4018 Y-79.9701
G01 X103.4950 Y-79.9260
G01 X103.5833 Y-79.8730
G01 X103.6661 Y-79.8117
G01 X103.7425 Y-79.7425
G01 X103.8117 Y-79.6661
G01 X103.8723 Y-79.5844
G01 X103.9260 Y-79.4950
G01 X103.9701 Y-79.4018
G01 X104.0048 Y-79.3048
G01 X104.0302 Y-79.2024
G01 X104.0449 Y-79.1029
G01 X104.0499 Y-78.9975
G01 X104.0446 Y-78.8946
G01 X104.0298 Y-78.7952
G01 X104.0054 Y-78.6976
G01 X103.9701 Y-78.5982
G01 X103.9260 Y-78.5050
G01 X103.8730 Y-78.4167
G01 X103.8117 Y-78.3339
G01 X103.7425 Y-78.2575
G01 X103.6661 Y-78.1883
G01 X103.5833 Y-78.1270
G01 X103.4928 Y-78.0729
G01 X103.4018 Y-78.0299
G01 X103.3048 Y-77.9952
G01 X103.2048 Y-77.9702
G01 X103.1054 Y-77.9554
G01 X102.9975 Y-77.9501
G01 X102.8971 Y-77.9551
G01 X102.7976 Y-77.9698
G01 X102.6929 Y-77.9960
G01 X102.5982 Y-78.0299
G01 X102.5050 Y-78.0740
G01 X102.4167 Y-78.1270
G01 X102.3358 Y-78.1868
G01 X102.2575 Y-78.2575
G01 X102.1883 Y-78.3339
G01 X102.1284 Y-78.4146
G01 X102.0729 Y-78.5072
G01 X102.0299 Y-78.5982
G01 X101.9952 Y-78.6952
G01 X101.9702 Y-78.7952
G01 X101.9554 Y-78.8946
G01 X101.9501 Y-79.0025
G01 X101.9551 Y-79.1029
G01 X101.9702 Y-79.2048
G01 X101.9952 Y-79.3048
G01 X102.0290 Y-79.3995
G01 X102.0729 Y-79.4928
G01 X102.0764 Y-79.4991
G01 X100.7869 Y-80.7887
G01 X100.7665 Y-80.8115
G01 X100.7505 Y-80.8333
G01 X100.7365 Y-80.8564
G01 X100.7227 Y-80.8851
G01 X100.7121 Y-80.9152
G01 X100.7056 Y-80.9414
G01 X100.7016 Y-80.9681
G01 X100.6999 Y-81.0000
G01 X100.6999 Y-88.8757
G01 X99.8757 Y-89.6999
G01 X98.5375 Y-89.6999
G01 X98.5375 Y-89.5438
G01 X98.5359 Y-89.5137
G01 X98.5319 Y-89.4864
G01 X98.5249 Y-89.4585
G01 X98.5151 Y-89.4313
G01 X98.5016 Y-89.4031
G01 X98.4866 Y-89.3785
G01 X98.4708 Y-89.3574
G01 X98.4532 Y-89.3378
G01 X98.4301 Y-89.3167
G01 X98.4069 Y-89.2995
G01 X98.3822 Y-89.2847
G01 X98.3539 Y-89.2715
G01 X98.3267 Y-89.2620
G01 X98.3011 Y-89.2556
G01 X98.2750 Y-89.2517
G01 X98.2437 Y-89.2500
G01 X97.7563 Y-89.2500
G01 X97.7250 Y-89.2517
G01 X97.6989 Y-89.2556
G01 X97.6710 Y-89.2626
G01 X97.6438 Y-89.2724
G01 X97.6178 Y-89.2847
G01 X97.5931 Y-89.2995
G01 X97.5699 Y-89.3167
G01 X97.5485 Y-89.3360
G01 X97.5300 Y-89.3565
G01 X97.5107 Y-89.3826
G01 X97.4972 Y-89.4053
G01 X97.4849 Y-89.4313
G01 X97.4751 Y-89.4585
G01 X97.4687 Y-89.4840
G01 X97.4637 Y-89.5174
G01 X97.4625 Y-89.5438
G01 X97.4625 Y-90.4562
G01 X97.4641 Y-90.4863
G01 X97.4681 Y-90.5136
G01 X97.4745 Y-90.5392
G01 X97.4859 Y-90.5709
G01 X97.4972 Y-90.5947
G01 X97.5120 Y-90.6194
G01 X97.5292 Y-90.6426
G01 X97.5468 Y-90.6622
G01 X97.5718 Y-90.6848
G01 X97.5931 Y-90.7005
G01 X97.6178 Y-90.7153
G01 X97.6438 Y-90.7276
G01 X97.6686 Y-90.7366
G01 X97.6999 Y-90.7445
G01 X97.6999 Y-94.5000
G01 X97.7006 Y-94.5164
G01 X97.6671 Y-94.5499
G01 X95.9363 Y-94.5499
G01 X95.9155 Y-94.5512
G01 X95.8985 Y-94.5538
G01 X95.8818 Y-94.5579
G01 X95.8609 Y-94.5652
G01 X95.8406 Y-94.5750
G01 X95.5875 Y-94.5750
G01 X95.5740 Y-94.5758
G01 X95.5656 Y-94.5772
G01 X95.5572 Y-94.5792
G01 X95.5444 Y-94.5836
G01 X95.5323 Y-94.5895
G01 X95.5250 Y-94.5940
G01 X95.5171 Y-94.5998
G01 X95.5080 Y-94.6080
G01 X95.4990 Y-94.6181
G01 X95.4940 Y-94.6250
G01 X95.4889 Y-94.6334
G01 X95.4831 Y-94.6456
G01 X95.4798 Y-94.6548
G01 X95.4772 Y-94.6656
G01 X95.4755 Y-94.6765
G01 X95.4751 Y-94.6850
G01 X95.4750 Y-94.8125
G01 X95.4758 Y-94.8260
G00 Z2.0000
G00 X91.4642 Y-103.4875
G01 F40.00
G01 Z0.0000
G01 F80.00
G01 X91.4681 Y-103.5136
G01 X91.4745 Y-103.5392
G01 X91.4859 Y-103.5709
G01 X91.4972 Y-103.5947
G01 X91.5120 Y-103.6194
G01 X91.5292 Y-103.6426
G01 X91.5468 Y-103.6622
G01 X91.5718 Y-103.6848
G01 X91.5931 Y-103.7005
G01 X91.6178 Y-103.7153
G01 X91.6461 Y-103.7285
G01 X91.6710 Y-103.7374
G01 X91.6965 Y-103.7438
G01 X91.7275 Y-103.7486
G01 X91.7563 Y-103.7500
G01 X92.2462 Y-103.7499
G01 X92.2750 Y-103.7483
G01 X92.3011 Y-103.7444
G01 X92.3267 Y-103.7380
G01 X92.3562 Y-103.7276
G01 X92.3822 Y-103.7153
G01 X92.4069 Y-103.7005
G01 X92.4301 Y-103.6833
G01 X92.4515 Y-103.6640
G01 X92.4708 Y-103.6426
G01 X92.4880 Y-103.6194
G01 X92.5028 Y-103.5947
G01 X92.5151 Y-103.5687
G01 X92.5249 Y-103.5415
G01 X92.5323 Y-103.5111
G01 X92.5361 Y-103.4850
G01 X92.5374 Y-103.4587
G01 X92.5375 Y-103.2001
G01 X92.6025 Y-103.2000
G01 X92.6196 Y-103.1991
G01 X92.6414 Y-103.1957
G01 X92.6581 Y-103.1915
G01 X92.6743 Y-103.1857
G01 X92.6921 Y-103.1776
G01 X92.7112 Y-103.1664
G01 X92.7279 Y-103.1539
G01 X92.7415 Y-103.1415
G01 X93.3923 Y-102.4906
G01 X93.4062 Y-102.4750
G01 X93.4164 Y-102.4612
G01 X93.4252 Y-102.4464
G01 X93.4348 Y-102.4266
G01 X93.4415 Y-102.4081
G01 X93.4467 Y-102.3866
G01 X93.4491 Y-102.3696
G01 X93.4501 Y-102.3500
G01 X93.4501 Y-97.9363
G01 X93.4488 Y-97.9155
G01 X93.4462 Y-97.8985
G01 X93.4421 Y-97.8818
G01 X93.4348 Y-97.8609
G01 X93.4250 Y-97.8406
G01 X93.4250 Y-97.5875
G01 X93.4245 Y-97.5765
G01 X93.4226 Y-97.5644
G01 X93.4202 Y-97.5548
G01 X93.4173 Y-97.5467
G01 X93.4117 Y-97.5345
G01 X93.4046 Y-97.5230
G01 X93.3995 Y-97.5161
G01 X93.3937 Y-97.5097
G01 X93.3839 Y-97.5005
G01 X93.3729 Y-97.4926
G01 X93.3655 Y-97.4883
G01 X93.3578 Y-97.4846
G01 X93.3452 Y-97.4798
G01 X93.3320 Y-97.4767
G01 X93.3235 Y-97.4755
G01 X93.3137 Y-97.4750
G01 X93.1863 Y-97.4750
G01 X93.1765 Y-97.4755
G01 X93.1668 Y-97.4769
G01 X93.1548 Y-97.4798
G01 X93.1444 Y-97.4836
G01 X93.1345 Y-97.4883
G01 X93.1250 Y-97.4940
G01 X93.1161 Y-97.5005
G01 X93.1080 Y-97.5080
G01 X93.1005 Y-97.5161
G01 X93.0940 Y-97.5250
G01 X93.0872 Y-97.5367
G01 X93.0836 Y-97.5444
G01 X93.0806 Y-97.5525
G01 X93.0772 Y-97.5656
G01 X93.0754 Y-97.5789
G01 X93.0750 Y-97.5875
G01 X93.0750 Y-97.8406
G01 X93.0652 Y-97.8609
G01 X93.0585 Y-97.8794
G01 X93.0538 Y-97.8985
G01 X93.0508 Y-97.9191
G01 X93.0499 Y-97.9375
G01 X93.0499 Y-102.2671
G01 X92.5375 Y-102.7796
G01 X92.5374 Y-102.5413
G01 X92.5361 Y-102.5150
G01 X92.5323 Y-102.4889
G01 X92.5245 Y-102.4573
G01 X92.5151 Y-102.4313
G01 X92.5028 Y-102.4053
G01 X92.4880 Y-102.3806
G01 X92.4708 Y-102.3574
G01 X92.4515 Y-102.3360
G01 X92.4301 Y-102.3167
G01 X92.4069 Y-102.2995
G01 X92.3800 Y-102.2836
G01 X92.3562 Y-102.2724
G01 X92.3290 Y-102.2626
G01 X92.3011 Y-102.2556
G01 X92.2701 Y-102.2512
G01 X92.2437 Y-102.2500
G01 X91.7538 Y-102.2501
G01 X91.7275 Y-102.2514
G01 X91.6989 Y-102.2556
G01 X91.6710 Y-102.2626
G01 X91.6461 Y-102.2715
G01 X91.6156 Y-102.2859
G01 X91.5931 Y-102.2995
G01 X91.5709 Y-102.3159
G01 X91.5485 Y-102.3360
G01 X91.5292 Y-102.3574
G01 X91.5120 Y-102.3806
G01 X91.4972 Y-102.4053
G01 X91.4849 Y-102.4313
G01 X91.4751 Y-102.4585
G01 X91.4681 Y-102.4864
G01 X91.4639 Y-102.5150
G01 X91.4625 Y-102.5438
G01 X91.4625 Y-103.4562
G01 X91.4642 Y-103.4875
G00 Z2.0000
G00 X85.7517 Y-101.2750
G01 F40.00
G01 Z0.0000
G01 F80.00
G01 X85.7556 Y-101.3011
G01 X85.7620 Y-101.3267
G01 X85.7715 Y-101.3539
G01 X85.7847 Y-101.3822
G01 X85.7995 Y-101.4069
G01 X85.8167 Y-101.4301
G01 X85.8378 Y-101.4532
G01 X85.8574 Y-101.4708
G01 X85.8785 Y-101.4866
G01 X85.9031 Y-101.5016
G01 X85.9313 Y-101.5151
G01 X85.9585 Y-101.5249
G01 X85.9864 Y-101.5319
G01 X86.0137 Y-101.5359
G01 X86.0437 Y-101.5375
G01 X86.1999 Y-101.5375
G01 X86.1999 Y-102.5012
G01 X86.2013 Y-102.5294
G01 X86.2056 Y-102.5586
G01 X86.2128 Y-102.5871
G01 X86.2223 Y-102.6137
G01 X86.2353 Y-102.6415
G01 X86.2505 Y-102.6667
G01 X86.2680 Y-102.6904
G01 X86.2878 Y-102.7122
G01 X86.7887 Y-103.2131
G01 X86.8096 Y-103.2320
G01 X86.8333 Y-103.2495
G01 X86.8585 Y-103.2647
G01 X86.8829 Y-103.2763
G01 X86.9129 Y-103.2872
G01 X86.9414 Y-103.2944
G01 X86.9706 Y-103.2987
G01 X87.0000 Y-103.3001
G01 X89.5875 Y-103.3001
G01 X89.5875 Y-103.4562
G01 X89.5891 Y-103.4863
G01 X89.5931 Y-103.5136
G01 X89.6001 Y-103.5415
G01 X89.6099 Y-103.5687
G01 X89.6234 Y-103.5969
G01 X89.6384 Y-103.6215
G01 X89.6542 Y-103.6426
G01 X89.6718 Y-103.6622
G01 X89.6949 Y-103.6833
G01 X89.7181 Y-103.7005
G01 X89.7450 Y-103.7164
G01 X89.7688 Y-103.7276
G01 X89.7936 Y-103.7366
G01 X89.8239 Y-103.7444
G01 X89.8537 Y-103.7487
G01 X89.8813 Y-103.7500
G01 X90.3687 Y-103.7500
G01 X90.3975 Y-103.7486
G01 X90.4273 Y-103.7441
G01 X90.4564 Y-103.7366
G01 X90.4812 Y-103.7276
G01 X90.5050 Y-103.7164
G01 X90.5319 Y-103.7005
G01 X90.5551 Y-103.6833
G01 X90.5765 Y-103.6640
G01 X90.5973 Y-103.6407
G01 X90.6143 Y-103.6174
G01 X90.6278 Y-103.5947
G01 X90.6391 Y-103.5709
G01 X90.6499 Y-103.5415
G01 X90.6569 Y-103.5136
G01 X90.6611 Y-103.4850
G01 X90.6625 Y-103.4575
G01 X90.6625 Y-102.5438
G01 X90.6611 Y-102.5150
G01 X90.6573 Y-102.4889
G01 X90.6491 Y-102.4561
G01 X90.6401 Y-102.4313
G01 X90.6278 Y-102.4053
G01 X90.6116 Y-102.3785
G01 X90.5958 Y-102.3574
G01 X90.5765 Y-102.3360
G01 X90.5551 Y-102.3167
G01 X90.5340 Y-102.3009
G01 X90.5072 Y-102.2847
G01 X90.4789 Y-102.2715
G01 X90.4540 Y-102.2626
G01 X90.4285 Y-102.2562
G01 X90.3975 Y-102.2514
G01 X90.3687 Y-102.2500
G01 X89.8788 Y-102.2501
G01 X89.8500 Y-102.2517
G01 X89.8239 Y-102.2556
G01 X89.7983 Y-102.2620
G01 X89.7688 Y-102.2724
G01 X89.7428 Y-102.2847
G01 X89.7181 Y-102.2995
G01 X89.6949 Y-102.3167
G01 X89.6735 Y-102.3360
G01 X89.6558 Y-102.3555
G01 X89.6357 Y-102.3826
G01 X89.6222 Y-102.4053
G01 X89.6094 Y-102.4325
G01 X89.6001 Y-102.4585
G01 X89.5937 Y-102.4840
G01 X89.5888 Y-102.5162
G01 X89.5875 Y-102.5437
G01 X89.5875 Y-102.6999
G01 X87.1243 Y-102.6999
G01 X86.8001 Y-102.3757
G01 X86.8001 Y-101.5375
G01 X86.9562 Y-101.5375
G01 X86.9863 Y-101.5359
G01 X87.0136 Y-101.5319
G01 X87.0415 Y-101.5249
G01 X87.0687 Y-101.5151
G01 X87.0969 Y-101.5016
G01 X87.1215 Y-101.4866
G01 X87.1426 Y-101.4708
G01 X87.1622 Y-101.4532
G01 X87.1833 Y-101.4301
G01 X87.2005 Y-101.4069
G01 X87.2153 Y-101.3822
G01 X87.2285 Y-101.3539
G01 X87.2380 Y-101.3267
G01 X87.2444 Y-101.3011
G01 X87.2483 Y-101.2750
G01 X87.2500 Y-101.2437
G01 X87.2500 Y-100.7563
G01 X87.2486 Y-100.7275
G01 X87.2441 Y-100.6977
G01 X87.2366 Y-100.6686
G01 X87.2276 Y-100.6438
G01 X87.2164 Y-100.6200
G01 X87.2005 Y-100.5931
G01 X87.1833 Y-100.5699
G01 X87.1640 Y-100.5485
G01 X87.1407 Y-100.5277
G01 X87.1174 Y-100.5107
G01 X87.0947 Y-100.4972
G01 X87.0709 Y-100.4859
G01 X87.0415 Y-100.4751
G01 X87.0136 Y-100.4681
G01 X86.9850 Y-100.4639
G01 X86.9575 Y-100.4625
G01 X86.0438 Y-100.4625
G01 X86.0125 Y-100.4642
G01 X85.9864 Y-100.4681
G01 X85.9608 Y-100.4745
G01 X85.9313 Y-100.4849
G01 X85.9031 Y-100.4984
G01 X85.8806 Y-100.5120
G01 X85.8555 Y-100.5308
G01 X85.8343 Y-100.5503
G01 X85.8167 Y-100.5699
G01 X85.8009 Y-100.5910
G01 X85.7847 Y-100.6178
G01 X85.7724 Y-100.6438
G01 X85.7626 Y-100.6710
G01 X85.7556 Y-100.6989
G01 X85.7514 Y-100.7275
G01 X85.7500 Y-100.7563
G01 X85.7500 Y-101.2437
G01 X85.7517 Y-101.2750
G00 Z2.0000
G00 X80.9517 Y-99.3750
G01 F40.00
G01 Z0.0000
G01 F80.00
G01 X80.9556 Y-99.4011
G01 X80.9626 Y-99.4290
G01 X80.9724 Y-99.4562
G01 X80.9836 Y-99.4800
G01 X81.0009 Y-99.5090
G01 X81.0167 Y-99.5301
G01 X81.0378 Y-99.5532
G01 X81.0574 Y-99.5708
G01 X81.0806 Y-99.5880
G01 X81.1053 Y-99.6028
G01 X81.1313 Y-99.6151
G01 X81.1585 Y-99.6249
G01 X81.1864 Y-99.6319
G01 X81.2150 Y-99.6361
G01 X81.2413 Y-99.6374
G01 X82.1562 Y-99.6375
G01 X82.1850 Y-99.6361
G01 X82.2136 Y-99.6319
G01 X82.2415 Y-99.6249
G01 X82.2664 Y-99.6160
G01 X82.2947 Y-99.6028
G01 X82.3215 Y-99.5866
G01 X82.3426 Y-99.5708
G01 X82.3640 Y-99.5515
G01 X82.3833 Y-99.5301
G01 X82.3991 Y-99.5090
G01 X82.4153 Y-99.4822
G01 X82.4276 Y-99.4562
G01 X82.4366 Y-99.4314
G01 X82.4445 Y-99.4001
G01 X85.7517 Y-99.4001
G01 X85.7556 Y-99.4261
G01 X85.7626 Y-99.4540
G01 X85.7724 Y-99.4812
G01 X85.7836 Y-99.5050
G01 X85.8009 Y-99.5340
G01 X85.8167 Y-99.5551
G01 X85.8343 Y-99.5747
G01 X85.8593 Y-99.5973
G01 X85.8806 Y-99.6130
G01 X85.9053 Y-99.6278
G01 X85.9336 Y-99.6410
G01 X85.9585 Y-99.6499
G01 X85.9864 Y-99.6569
G01 X86.0150 Y-99.6611
G01 X86.0438 Y-99.6625
G01 X86.9562 Y-99.6625
G01 X86.9850 Y-99.6611
G01 X87.0136 Y-99.6569
G01 X87.0415 Y-99.6499
G01 X87.0664 Y-99.6410
G01 X87.0947 Y-99.6278
G01 X87.1215 Y-99.6116
G01 X87.1426 Y-99.5958
G01 X87.1622 Y-99.5782
G01 X87.1833 Y-99.5551
G01 X87.2018 Y-99.5299
G01 X87.2153 Y-99.5072
G01 X87.2266 Y-99.4834
G01 X87.2377 Y-99.4528
G01 X87.2444 Y-99.4261
G01 X87.2483 Y-99.4000
G01 X87.2500 Y-99.3687
G01 X87.2500 Y-98.8813
G01 X87.2486 Y-98.8525
G01 X87.2444 Y-98.8239
G01 X87.2374 Y-98.7960
G01 X87.2266 Y-98.7666
G01 X87.2153 Y-98.7428
G01 X87.2018 Y-98.7201
G01 X87.1833 Y-98.6949
G01 X87.1640 Y-98.6735
G01 X87.1407 Y-98.6527
G01 X87.1194 Y-98.6370
G01 X87.0969 Y-98.6234
G01 X87.0698 Y-98.6103
G01 X87.0392 Y-98.5995
G01 X87.0136 Y-98.5931
G01 X86.9838 Y-98.5888
G01 X86.9563 Y-98.5875
G01 X86.7001 Y-98.5875
G01 X86.7001 Y-98.0829
G01 X87.3329 Y-97.4501
G01 X92.0625 Y-97.4501
G01 X92.0797 Y-97.4493
G01 X92.1015 Y-97.4462
G01 X92.1206 Y-97.4415
G01 X92.1391 Y-97.4348
G01 X92.1594 Y-97.4250
G01 X92.4125 Y-97.4250
G01 X92.4211 Y-97.4246
G01 X92.4344 Y-97.4228
G01 X92.4463 Y-97.4198
G01 X92.4556 Y-97.4164
G01 X92.4633 Y-97.4128
G01 X92.4740 Y-97.4067
G01 X92.4839 Y-97.3995
G01 X92.4920 Y-97.3920
G01 X92.4995 Y-97.3839
G01 X92.5060 Y-97.3750
G01 X92.5117 Y-97.3655
G01 X92.5164 Y-97.3556
G01 X92.5202 Y-97.3452
G01 X92.5228 Y-97.3344
G01 X92.5245 Y-97.3235
G01 X92.5250 Y-97.3137
G01 X92.5250 Y-97.1875
G01 X92.5245 Y-97.1765
G01 X92.5228 Y-97.1656
G01 X92.5194 Y-97.1525
G01 X92.5164 Y-97.1444
G01 X92.5117 Y-97.1345
G01 X92.5046 Y-97.1230
G01 X92.4995 Y-97.1161
G01 X92.4937 Y-97.1097
G01 X92.4839 Y-97.1005
G01 X92.4729 Y-97.0926
G01 X92.4655 Y-97.0883
G01 X92.4567 Y-97.0840
G01 X92.4428 Y-97.0792
G01 X92.4344 Y-97.0772
G01 X92.4260 Y-97.0758
G01 X92.4137 Y-97.0750
G01 X92.1594 Y-97.0750
G01 X92.1391 Y-97.0652
G01 X92.1182 Y-97.0579
G01 X92.1015 Y-97.0538
G01 X92.0845 Y-97.0512
G01 X92.0637 Y-97.0499
G01 X87.2500 Y-97.0499
G01 X87.2304 Y-97.0509
G01 X87.2110 Y-97.0538
G01 X87.1919 Y-97.0585
G01 X87.1757 Y-97.0643
G01 X87.1557 Y-97.0735
G01 X87.1368 Y-97.0851
G01 X87.1231 Y-97.0953
G01 X87.1094 Y-97.1077
G01 X86.3585 Y-97.8585
G01 X86.3438 Y-97.8750
G01 X86.3336 Y-97.8888
G01 X86.3248 Y-97.9036
G01 X86.3152 Y-97.9234
G01 X86.3079 Y-97.9443
G01 X86.3038 Y-97.9610
G01 X86.3012 Y-97.9780
G01 X86.2999 Y-97.9988
G01 X86.2999 Y-98.5875
G01 X86.0438 Y-98.5875
G01 X86.0174 Y-98.5887
G01 X85.9840 Y-98.5937
G01 X85.9585 Y-98.6001
G01 X85.9325 Y-98.6094
G01 X85.9053 Y-98.6222
G01 X85.8785 Y-98.6384
G01 X85.8574 Y-98.6542
G01 X85.8378 Y-98.6718
G01 X85.8183 Y-98.6930
G01 X85.7995 Y-98.7181
G01 X85.7847 Y-98.7428
G01 X85.7724 Y-98.7688
G01 X85.7634 Y-98.7936
G01 X85.7616 Y-98.7999
G01 X82.4445 Y-98.7999
G01 X82.4366 Y-98.7686
G01 X82.4276 Y-98.7438
G01 X82.4153 Y-98.7178
G01 X82.3991 Y-98.6910
G01 X82.3833 Y-98.6699
G01 X82.3640 Y-98.6485
G01 X82.3426 Y-98.6292
G01 X82.3215 Y-98.6134
G01 X82.2947 Y-98.5972
G01 X82.2664 Y-98.5840
G01 X82.2415 Y-98.5751
G01 X82.2136 Y-98.5681
G01 X82.1850 Y-98.5639
G01 X82.1562 Y-98.5625
G01 X81.2438 Y-98.5625
G01 X81.2137 Y-98.5641
G01 X81.1864 Y-98.5681
G01 X81.1608 Y-98.5745
G01 X81.1313 Y-98.5849
G01 X81.1053 Y-98.5972
G01 X81.0826 Y-98.6107
G01 X81.0574 Y-98.6292
G01 X81.0343 Y-98.6503
G01 X81.0167 Y-98.6699
G01 X80.9995 Y-98.6931
G01 X80.9836 Y-98.7200
G01 X80.9724 Y-98.7438
G01 X80.9630 Y-98.7698
G01 X80.9552 Y-98.8014
G01 X80.9514 Y-98.8275
G01 X80.9500 Y-98.8550
G01 X80.9500 Y-99.3437
G01 X80.9517 Y-99.3750
G00 Z2.0000
G00 X76.2563 Y-98.7584
G01 F40.00
G01 Z0.0000
G01 F80.00
G01 X76.2626 Y-98.7335
G01 X76.2715 Y-98.7086
G01 X76.2836 Y-98.6825
G01 X76.2995 Y-98.6556
G01 X76.3152 Y-98.6343
G01 X76.3360 Y-98.6110
G01 X76.3574 Y-98.5917
G01 X76.3806 Y-98.5745
G01 X76.4053 Y-98.5597
G01 X76.4313 Y-98.5474
G01 X76.4585 Y-98.5376
G01 X76.4864 Y-98.5306
G01 X76.5137 Y-98.5266
G01 X76.5438 Y-98.5250
G01 X76.6959 Y-98.5250
G01 X76.6959 Y-98.1721
G01 X76.6404 Y-98.1165
G01 X76.3080 Y-98.1141
G01 X76.2102 Y-98.1237
G01 X76.1239 Y-98.1499
G01 X76.0444 Y-98.1924
G01 X75.9746 Y-98.2496
G01 X75.9174 Y-98.3194
G01 X75.8749 Y-98.3989
G01 X75.8487 Y-98.4852
G01 X75.8391 Y-98.5824
G01 X75.8410 Y-98.7023
G01 X75.8971 Y-98.7584
G01 X76.2563 Y-98.7584
G00 Z2.0000
G00 X76.2517 Y-101.2125
G01 F40.00
G01 Z0.0000
G01 F80.00
G01 X76.2556 Y-101.2386
G01 X76.2626 Y-101.2665
G01 X76.2724 Y-101.2937
G01 X76.2847 Y-101.3197
G01 X76.2995 Y-101.3444
G01 X76.3167 Y-101.3676
G01 X76.3360 Y-101.3890
G01 X76.3555 Y-101.4067
G01 X76.3826 Y-101.4268
G01 X76.4053 Y-101.4403
G01 X76.4336 Y-101.4535
G01 X76.4585 Y-101.4624
G01 X76.4864 Y-101.4694
G01 X76.5150 Y-101.4736
G01 X76.5438 Y-101.4750
G01 X77.4562 Y-101.4750
G01 X77.4850 Y-101.4736
G01 X77.5136 Y-101.4694
G01 X77.5415 Y-101.4624
G01 X77.5664 Y-101.4535
G01 X77.5947 Y-101.4403
G01 X77.6215 Y-101.4241
G01 X77.6426 Y-101.4083
G01 X77.6640 Y-101.3890
G01 X77.6833 Y-101.3676
G01 X77.6991 Y-101.3465
G01 X77.7153 Y-101.3197
G01 X77.7276 Y-101.2937
G01 X77.7366 Y-101.2689
G01 X77.7445 Y-101.2376
G01 X80.9509 Y-101.2376
G01 X80.9516 Y-101.2488
G01 X80.9559 Y-101.2773
G01 X80.9626 Y-101.3040
G01 X80.9719 Y-101.3300
G01 X80.9859 Y-101.3594
G01 X80.9995 Y-101.3819
G01 X81.0159 Y-101.4041
G01 X81.0378 Y-101.4282
G01 X81.0574 Y-101.4458
G01 X81.0806 Y-101.4630
G01 X81.1075 Y-101.4789
G01 X81.1313 Y-101.4901
G01 X81.1561 Y-101.4991
G01 X81.1889 Y-101.5073
G01 X81.2150 Y-101.5111
G01 X81.2425 Y-101.5125
G01 X81.5322 Y-101.5125
G01 X81.5393 Y-101.5317
G01 X81.5456 Y-101.5450
G01 X81.5544 Y-101.5598
G01 X81.5647 Y-101.5736
G01 X81.5745 Y-101.5845
G01 X81.5889 Y-101.5978
G01 X81.6027 Y-101.6081
G01 X81.6153 Y-101.6157
G01 X81.6330 Y-101.6242
G01 X81.6492 Y-101.6300
G01 X81.6635 Y-101.6337
G01 X81.6841 Y-101.6368
G01 X81.7000 Y-101.6376
G01 X81.7147 Y-101.6369
G01 X81.7342 Y-101.6342
G01 X81.7531 Y-101.6293
G01 X81.7670 Y-101.6242
G01 X81.7814 Y-101.6175
G01 X81.7993 Y-101.6066
G01 X81.8111 Y-101.5978
G01 X81.8229 Y-101.5871
G01 X81.8361 Y-101.5726
G01 X81.8456 Y-101.5598
G01 X81.8511 Y-101.5506
G01 X86.5128 Y-106.2122
G01 X86.5365 Y-106.2335
G01 X86.5583 Y-106.2495
G01 X86.5835 Y-106.2647
G01 X86.6124 Y-106.2782
G01 X86.6379 Y-106.2872
G01 X86.6652 Y-106.2941
G01 X86.6956 Y-106.2987
G01 X86.7250 Y-106.3001
G01 X93.0000 Y-106.3001
G01 X93.0306 Y-106.2985
G01 X93.0586 Y-106.2944
G01 X93.0848 Y-106.2879
G01 X93.1171 Y-106.2763
G01 X93.1415 Y-106.2647
G01 X93.1667 Y-106.2495
G01 X93.1904 Y-106.2320
G01 X93.2113 Y-106.2131
G01 X93.9639 Y-105.4604
G01 X93.9820 Y-105.4404
G01 X93.9981 Y-105.4187
G01 X94.0147 Y-105.3915
G01 X94.0282 Y-105.3626
G01 X94.0372 Y-105.3371
G01 X94.0441 Y-105.3098
G01 X94.0487 Y-105.2794
G01 X94.0501 Y-105.2500
G01 X94.0501 Y-104.2500
G01 X94.0488 Y-104.2218
G01 X94.0444 Y-104.1914
G01 X94.0372 Y-104.1629
G01 X94.0273 Y-104.1351
G01 X94.0153 Y-104.1096
G01 X93.9995 Y-104.0833
G01 X93.9828 Y-104.0606
G01 X93.9631 Y-104.0387
G01 X93.9501 Y-104.0267
G01 X93.9501 Y-97.9363
G01 X93.9488 Y-97.9155
G01 X93.9462 Y-97.8985
G01 X93.9421 Y-97.8818
G01 X93.9348 Y-97.8609
G01 X93.9250 Y-97.8406
G01 X93.9250 Y-97.5875
G01 X93.9245 Y-97.5765
G01 X93.9223 Y-97.5632
G01 X93.9202 Y-97.5548
G01 X93.9173 Y-97.5467
G01 X93.9117 Y-97.5345
G01 X93.9060 Y-97.5250
G01 X93.9010 Y-97.5181
G01 X93.8920 Y-97.5080
G01 X93.8819 Y-97.4990
G01 X93.8750 Y-97.4940
G01 X93.8655 Y-97.4883
G01 X93.8533 Y-97.4827
G01 X93.8452 Y-97.4798
G01 X93.8356 Y-97.4774
G01 X93.8235 Y-97.4755
G01 X93.8125 Y-97.4750
G01 X93.6863 Y-97.4750
G01 X93.6765 Y-97.4755
G01 X93.6656 Y-97.4772
G01 X93.6548 Y-97.4798
G01 X93.6444 Y-97.4836
G01 X93.6345 Y-97.4883
G01 X93.6250 Y-97.4940
G01 X93.6161 Y-97.5005
G01 X93.6080 Y-97.5080
G01 X93.6005 Y-97.5161
G01 X93.5933 Y-97.5260
G01 X93.5872 Y-97.5367
G01 X93.5836 Y-97.5444
G01 X93.5802 Y-97.5537
G01 X93.5772 Y-97.5656
G01 X93.5754 Y-97.5789
G01 X93.5750 Y-97.5875
G01 X93.5750 Y-97.8406
G01 X93.5652 Y-97.8609
G01 X93.5585 Y-97.8794
G01 X93.5538 Y-97.8985
G01 X93.5507 Y-97.9203
G01 X93.5499 Y-97.9375
G01 X93.5499 Y-104.0267
G01 X93.5369 Y-104.0387
G01 X93.5172 Y-104.0606
G01 X93.5005 Y-104.0833
G01 X93.4847 Y-104.1096
G01 X93.4727 Y-104.1351
G01 X93.4628 Y-104.1629
G01 X93.4556 Y-104.1914
G01 X93.4513 Y-104.2206
G01 X93.4499 Y-104.2500
G01 X93.4499 Y-105.1257
G01 X92.8757 Y-105.6999
G01 X86.8493 Y-105.6999
G01 X82.4406 Y-101.2912
G01 X82.4446 Y-101.2749
G01 X82.4484 Y-101.2488
G01 X82.4500 Y-101.2187
G01 X82.4500 Y-100.7313
G01 X82.4486 Y-100.7025
G01 X82.4438 Y-100.6715
G01 X82.4374 Y-100.6460
G01 X82.4285 Y-100.6211
G01 X82.4153 Y-100.5928
G01 X82.3991 Y-100.5660
G01 X82.3833 Y-100.5449
G01 X82.3657 Y-100.5253
G01 X82.3426 Y-100.5042
G01 X82.3174 Y-100.4857
G01 X82.2947 Y-100.4722
G01 X82.2709 Y-100.4609
G01 X82.2403 Y-100.4498
G01 X82.2136 Y-100.4431
G01 X82.1875 Y-100.4392
G01 X82.1562 Y-100.4375
G01 X81.2438 Y-100.4375
G01 X81.2125 Y-100.4392
G01 X81.1864 Y-100.4431
G01 X81.1608 Y-100.4495
G01 X81.1313 Y-100.4599
G01 X81.1053 Y-100.4722
G01 X81.0826 Y-100.4857
G01 X81.0574 Y-100.5042
G01 X81.0343 Y-100.5253
G01 X81.0167 Y-100.5449
G01 X81.0002 Y-100.5670
G01 X80.9841 Y-100.5939
G01 X80.9724 Y-100.6188
G01 X80.9657 Y-100.6374
G01 X77.7445 Y-100.6374
G01 X77.7366 Y-100.6061
G01 X77.7276 Y-100.5813
G01 X77.7153 Y-100.5553
G01 X77.6991 Y-100.5285
G01 X77.6833 Y-100.5074
G01 X77.6640 Y-100.4860
G01 X77.6426 Y-100.4667
G01 X77.6215 Y-100.4509
G01 X77.5947 Y-100.4347
G01 X77.5664 Y-100.4215
G01 X77.5415 Y-100.4126
G01 X77.5136 Y-100.4056
G01 X77.4850 Y-100.4014
G01 X77.4562 Y-100.4000
G01 X76.5438 Y-100.4000
G01 X76.5137 Y-100.4016
G01 X76.4864 Y-100.4056
G01 X76.4608 Y-100.4120
G01 X76.4313 Y-100.4224
G01 X76.4053 Y-100.4347
G01 X76.3826 Y-100.4482
G01 X76.3574 Y-100.4667
G01 X76.3343 Y-100.4878
G01 X76.3167 Y-100.5074
G01 X76.2995 Y-100.5306
G01 X76.2836 Y-100.5575
G01 X76.2724 Y-100.5813
G01 X76.2630 Y-100.6073
G01 X76.2552 Y-100.6389
G01 X76.2514 Y-100.6650
G01 X76.2500 Y-100.6925
G01 X76.2500 Y-101.1812
G01 X76.2517 Y-101.2125
G00 Z2.0000
G00 X72.4529 Y-93.5963
G01 F40.00
G01 Z0.0000
G01 F80.00
G01 X72.4606 Y-93.6473
G01 X72.4737 Y-93.6997
G01 X72.4919 Y-93.7505
G01 X72.5138 Y-93.7971
G01 X72.5441 Y-93.8476
G01 X72.5748 Y-93.8889
G01 X72.6129 Y-93.9306
G01 X72.6511 Y-93.9652
G01 X72.6944 Y-93.9973
G01 X72.7407 Y-94.0251
G01 X72.7895 Y-94.0481
G01 X72.8403 Y-94.0663
G01 X72.8927 Y-94.0794
G01 X72.9461 Y-94.0874
G01 X72.9975 Y-94.0899
G01 X73.0563 Y-94.0871
G01 X73.1073 Y-94.0794
G01 X73.1597 Y-94.0663
G01 X73.2127 Y-94.0471
G01 X73.2593 Y-94.0251
G01 X73.3056 Y-93.9973
G01 X73.3489 Y-93.9652
G01 X73.3871 Y-93.9306
G01 X73.4252 Y-93.8889
G01 X73.4573 Y-93.8456
G01 X73.4838 Y-93.8014
G01 X73.5077 Y-93.7516
G01 X73.5119 Y-93.7401
G01 X75.4571 Y-93.7401
G01 X77.8999 Y-96.1829
G01 X77.8999 Y-98.5625
G01 X77.9009 Y-98.5821
G01 X77.9038 Y-98.6015
G01 X77.9085 Y-98.6206
G01 X77.9152 Y-98.6391
G01 X77.9235 Y-98.6568
G01 X77.9336 Y-98.6736
G01 X77.9453 Y-98.6894
G01 X77.9585 Y-98.7040
G01 X79.4960 Y-100.2415
G01 X79.5125 Y-100.2562
G01 X79.5264 Y-100.2664
G01 X79.5411 Y-100.2752
G01 X79.5609 Y-100.2848
G01 X79.5806 Y-100.2918
G01 X79.5985 Y-100.2962
G01 X79.6155 Y-100.2988
G01 X79.6375 Y-100.3001
G01 X92.1000 Y-100.3001
G01 X92.1172 Y-100.2993
G01 X92.1390 Y-100.2962
G01 X92.1557 Y-100.2921
G01 X92.1788 Y-100.2839
G01 X92.1943 Y-100.2765
G01 X92.2112 Y-100.2664
G01 X92.2269 Y-100.2547
G01 X92.2406 Y-100.2423
G01 X92.8923 Y-99.5906
G01 X92.9062 Y-99.5750
G01 X92.9164 Y-99.5612
G01 X92.9252 Y-99.5464
G01 X92.9348 Y-99.5266
G01 X92.9418 Y-99.5069
G01 X92.9462 Y-99.4890
G01 X92.9488 Y-99.4720
G01 X92.9501 Y-99.4500
G01 X92.9501 Y-97.9375
G01 X92.9488 Y-97.9155
G01 X92.9462 Y-97.8985
G01 X92.9421 Y-97.8818
G01 X92.9348 Y-97.8609
G01 X92.9250 Y-97.8406
G01 X92.9250 Y-97.5875
G01 X92.9243 Y-97.5753
G01 X92.9228 Y-97.5656
G01 X92.9208 Y-97.5572
G01 X92.9164 Y-97.5444
G01 X92.9105 Y-97.5323
G01 X92.9060 Y-97.5250
G01 X92.9010 Y-97.5181
G01 X92.8920 Y-97.5080
G01 X92.8819 Y-97.4990
G01 X92.8750 Y-97.4940
G01 X92.8677 Y-97.4895
G01 X92.8556 Y-97.4836
G01 X92.8452 Y-97.4798
G01 X92.8368 Y-97.4777
G01 X92.8211 Y-97.4754
G01 X92.8125 Y-97.4750
G01 X92.6863 Y-97.4750
G01 X92.6765 Y-97.4755
G01 X92.6668 Y-97.4769
G01 X92.6525 Y-97.4806
G01 X92.6444 Y-97.4836
G01 X92.6345 Y-97.4883
G01 X92.6250 Y-97.4940
G01 X92.6181 Y-97.4990
G01 X92.6063 Y-97.5097
G01 X92.6005 Y-97.5161
G01 X92.5940 Y-97.5250
G01 X92.5872 Y-97.5367
G01 X92.5836 Y-97.5444
G01 X92.5798 Y-97.5548
G01 X92.5767 Y-97.5680
G01 X92.5755 Y-97.5765
G01 X92.5750 Y-97.5863
G01 X92.5750 Y-97.8406
G01 X92.5652 Y-97.8609
G01 X92.5585 Y-97.8794
G01 X92.5538 Y-97.8985
G01 X92.5508 Y-97.9191
G01 X92.5499 Y-97.9375
G01 X92.5499 Y-99.3671
G01 X92.0171 Y-99.8999
G01 X79.7204 Y-99.8999
G01 X78.3001 Y-98.4796
G01 X78.3001 Y-96.0988
G01 X78.2991 Y-96.0804
G01 X78.2967 Y-96.0634
G01 X78.2915 Y-96.0419
G01 X78.2839 Y-96.0212
G01 X78.2765 Y-96.0057
G01 X78.2670 Y-95.9899
G01 X78.2547 Y-95.9731
G01 X78.2415 Y-95.9585
G01 X75.6815 Y-93.3985
G01 X75.6679 Y-93.3861
G01 X75.6512 Y-93.3736
G01 X75.6364 Y-93.3648
G01 X75.6143 Y-93.3543
G01 X75.5981 Y-93.3485
G01 X75.5790 Y-93.3438
G01 X75.5596 Y-93.3409
G01 X75.5412 Y-93.3399
G01 X73.5119 Y-93.3399
G01 X73.5077 Y-93.3284
G01 X73.4838 Y-93.2786
G01 X73.4573 Y-93.2344
G01 X73.4252 Y-93.1911
G01 X73.3889 Y-93.1511
G01 X73.3508 Y-93.1164
G01 X73.3035 Y-93.0814
G01 X73.2593 Y-93.0549
G01 X73.2105 Y-93.0319
G01 X73.1597 Y-93.0137
G01 X73.1097 Y-93.0011
G01 X73.0515 Y-92.9925
G01 X73.0000 Y-92.9900
G01 X72.9473 Y-92.9925
G01 X72.8927 Y-93.0006
G01 X72.8403 Y-93.0137
G01 X72.7895 Y-93.0319
G01 X72.7407 Y-93.0549
G01 X72.6944 Y-93.0827
G01 X72.6511 Y-93.1148
G01 X72.6111 Y-93.1511
G01 X72.5748 Y-93.1911
G01 X72.5427 Y-93.2344
G01 X72.5149 Y-93.2807
G01 X72.4919 Y-93.3295
G01 X72.4737 Y-93.3803
G01 X72.4606 Y-93.4327
G01 X72.4526 Y-93.4861
G01 X72.4500 Y-93.5400
G01 X72.4529 Y-93.5963
G00 Z2.0000
G00 X72.2065 Y-93.0034
G01 F40.00
G01 Z0.0000
G01 F80.00
G01 X72.1511 Y-93.0862
G01 X72.0789 Y-93.2606
G01 X72.0421 Y-93.4457
G01 X72.0421 Y-93.6343
G01 X72.0789 Y-93.8194
G01 X72.1511 Y-93.9938
G01 X72.2559 Y-94.1506
G01 X72.3894 Y-94.2841
G01 X72.5462 Y-94.3889
G01 X72.7206 Y-94.4611
G01 X72.9057 Y-94.4979
G01 X73.0943 Y-94.4979
G01 X73.2794 Y-94.4611
G01 X73.4538 Y-94.3889
G01 X73.6106 Y-94.2841
G01 X73.6958 Y-94.1989
G01 X73.7078 Y-94.1881
G01 X73.7207 Y-94.1785
G01 X73.7367 Y-94.1688
G01 X73.7524 Y-94.1614
G01 X73.7687 Y-94.1556
G01 X73.7880 Y-94.1509
G01 X73.8028 Y-94.1488
G01 X73.8201 Y-94.1479
G01 X75.2148 Y-94.1479
G01 X75.2322 Y-94.1488
G01 X75.2494 Y-94.1513
G01 X75.2662 Y-94.1556
G01 X75.2815 Y-94.1610
G01 X75.2983 Y-94.1688
G01 X75.3132 Y-94.1778
G01 X75.3272 Y-94.1881
G01 X75.3400 Y-94.1998
G01 X77.4402 Y-96.3000
G01 X77.4519 Y-96.3128
G01 X77.4622 Y-96.3268
G01 X77.4712 Y-96.3417
G01 X77.4781 Y-96.3563
G01 X77.4844 Y-96.3738
G01 X77.4887 Y-96.3906
G01 X77.4912 Y-96.4078
G01 X77.4921 Y-96.4252
G01 X77.4921 Y-97.9398
G01 X77.4913 Y-97.9558
G01 X77.4882 Y-97.9765
G01 X77.4845 Y-97.9909
G01 X77.4787 Y-98.0072
G01 X77.4714 Y-98.0229
G01 X77.4638 Y-98.0357
G01 X77.4515 Y-98.0526
G01 X77.4407 Y-98.0645
G01 X77.4297 Y-98.0746
G01 X77.4141 Y-98.0865
G01 X77.3993 Y-98.0955
G01 X77.3859 Y-98.1020
G01 X77.3672 Y-98.1090
G01 X77.3041 Y-98.1721
G01 X77.3041 Y-98.5250
G01 X77.4563 Y-98.5250
G01 X77.4838 Y-98.5263
G01 X77.5160 Y-98.5312
G01 X77.5415 Y-98.5376
G01 X77.5675 Y-98.5469
G01 X77.5947 Y-98.5597
G01 X77.6194 Y-98.5745
G01 X77.6426 Y-98.5917
G01 X77.6622 Y-98.6093
G01 X77.6848 Y-98.6343
G01 X77.7005 Y-98.6556
G01 X77.7159 Y-98.6814
G01 X77.7276 Y-98.7063
G01 X77.7380 Y-98.7358
G01 X77.7444 Y-98.7614
G01 X77.7483 Y-98.7875
G01 X77.7500 Y-98.8175
G01 X77.7500 Y-99.3075
G01 X77.7483 Y-99.3375
G01 X77.7444 Y-99.3636
G01 X77.7377 Y-99.3903
G01 X77.7266 Y-99.4209
G01 X77.7153 Y-99.4447
G01 X77.7005 Y-99.4694
G01 X77.6833 Y-99.4926
G01 X77.6657 Y-99.5122
G01 X77.6407 Y-99.5348
G01 X77.6194 Y-99.5505
G01 X77.5947 Y-99.5653
G01 X77.5687 Y-99.5776
G01 X77.5439 Y-99.5866
G01 X77.5111 Y-99.5948
G01 X77.4850 Y-99.5986
G01 X77.4575 Y-99.6000
G01 X76.5438 Y-99.6000
G01 X76.5150 Y-99.5986
G01 X76.4864 Y-99.5944
G01 X76.4608 Y-99.5880
G01 X76.4313 Y-99.5776
G01 X76.4053 Y-99.5653
G01 X76.3826 Y-99.5518
G01 X76.3555 Y-99.5317
G01 X76.3360 Y-99.5140
G01 X76.3183 Y-99.4945
G01 X76.2982 Y-99.4674
G01 X76.2847 Y-99.4447
G01 X76.2724 Y-99.4187
G01 X76.2626 Y-99.3915
G01 X76.2563 Y-99.3666
G01 X75.8971 Y-99.3666
G01 X75.8410 Y-99.4227
G01 X75.8391 Y-99.5426
G01 X75.8487 Y-99.6398
G01 X75.8749 Y-99.7261
G01 X75.9174 Y-99.8056
G01 X75.9746 Y-99.8754
G01 X76.0389 Y-99.9281
G01 X76.0500 Y-99.9381
G01 X76.0634 Y-99.9527
G01 X76.0731 Y-99.9656
G01 X76.0827 Y-99.9815
G01 X76.0910 Y-99.9995
G01 X76.0960 Y-100.0136
G01 X76.0997 Y-100.0281
G01 X76.1028 Y-100.0476
G01 X76.1036 Y-100.0674
G01 X76.1028 Y-100.0823
G01 X76.1002 Y-100.0995
G01 X76.0960 Y-100.1164
G01 X76.0910 Y-100.1305
G01 X76.0821 Y-100.1495
G01 X76.0738 Y-100.1634
G01 X76.0634 Y-100.1773
G01 X76.0526 Y-100.1893
G01 X76.0477 Y-100.1940
G01 X75.9585 Y-100.3027
G01 X75.8934 Y-100.4244
G01 X75.8534 Y-100.5564
G01 X75.8390 Y-100.7024
G01 X75.8390 Y-101.1726
G01 X75.8534 Y-101.3186
G01 X75.8934 Y-101.4506
G01 X75.9585 Y-101.5723
G01 X76.0460 Y-101.6790
G01 X76.1527 Y-101.7665
G01 X76.2744 Y-101.8316
G01 X76.4064 Y-101.8716
G01 X76.5524 Y-101.8860
G01 X77.4476 Y-101.8860
G01 X77.5936 Y-101.8716
G01 X77.7256 Y-101.8316
G01 X77.8473 Y-101.7665
G01 X77.9468 Y-101.6849
G01 X77.9598 Y-101.6753
G01 X77.9726 Y-101.6676
G01 X77.9905 Y-101.6589
G01 X78.0068 Y-101.6531
G01 X78.0237 Y-101.6488
G01 X78.0421 Y-101.6462
G01 X78.0582 Y-101.6454
G01 X80.6040 Y-101.6454
G01 X80.6201 Y-101.6462
G01 X80.6385 Y-101.6488
G01 X80.6577 Y-101.6538
