(G-CODE GENERATED BY FLATCAM v8.994 - www.flatcam.org - Version Date: 2020/11/7)

(Name: bq24160.drl_cnc)
(Type: G-code from Geometry)
(Units: MM)

(Created on Friday, 11 February 2022 at 14:41)

(This preprocessor is the default preprocessor used by FlatCAM.)
(It is made to work with MACH3 compatible motion controllers.)


(TOOLS DIAMETER: )
(Tool: 1 -> Dia: 0.65)
(Tool: 2 -> Dia: 1.0)
(Tool: 3 -> Dia: 1.75)

(FEEDRATE Z: )
(Tool: 1 -> Feedrate: 300)
(Tool: 2 -> Feedrate: 300)
(Tool: 3 -> Feedrate: 300)

(FEEDRATE RAPIDS: )
(Tool: 1 -> Feedrate Rapids: 1500)
(Tool: 2 -> Feedrate Rapids: 1500)
(Tool: 3 -> Feedrate Rapids: 1500)

(Z_CUT: )
(Tool: 1 -> Z_Cut: -1.7)
(Tool: 2 -> Z_Cut: -1.7)
(Tool: 3 -> Z_Cut: -1.7)

(Tools Offset: )
(Tool: 1 -> Offset Z: 0.0)
(Tool: 2 -> Offset Z: 0.0)
(Tool: 3 -> Offset Z: 0.0)

(Z_MOVE: )
(Tool: 1 -> Z_Move: 2)
(Tool: 2 -> Z_Move: 2)
(Tool: 3 -> Z_Move: 2)

(Z Toolchange: 15 mm)
(X,Y Toolchange: 0.0000, 0.0000 mm)
(Z Start: None mm)
(Z End: 0.5 mm)
(X,Y End: None mm)
(Steps per circle: 64)
(Preprocessor Excellon: default)

(X range:    2.1171 ...   45.3171  mm)
(Y range:    3.5671 ...   44.8171  mm)

(Spindle Speed: 0 RPM)
G21
G90
G94

G01 F300.00

M5
G00 Z15.0000
T1
G00 X0.0000 Y0.0000                
M6
(MSG, Change to Tool Dia = 0.6500 ||| Total drills for tool T1 = 13)
M0
G00 Z15.0000

G01 F300.00
M03
G00 X2.4421 Y28.4421
G01 Z-1.7000
G01 Z0
G00 Z2.0000
G00 X2.4421 Y27.1721
G01 Z-1.7000
G01 Z0
G00 Z2.0000
G00 X2.4421 Y25.9021
G01 Z-1.7000
G01 Z0
G00 Z2.0000
G00 X24.5621 Y4.4421
G01 Z-1.7000
G01 Z0
G00 Z2.0000
G00 X28.4421 Y4.4421
G01 Z-1.7000
G01 Z0
G00 Z2.0000
G00 X44.4421 Y35.5621
G01 Z-1.7000
G01 Z0
G00 Z2.0000
G00 X44.4421 Y39.4421
G01 Z-1.7000
G01 Z0
G00 Z2.0000
G00 X36.4421 Y40.4421
G01 Z-1.7000
G01 Z0
G00 Z2.0000
G00 X32.4421 Y40.4421
G01 Z-1.7000
G01 Z0
G00 Z2.0000
G00 X25.9421 Y43.9421
G01 Z-1.7000
G01 Z0
G00 Z2.0000
G00 X22.0621 Y43.9421
G01 Z-1.7000
G01 Z0
G00 Z2.0000
G00 X12.9421 Y43.9421
G01 Z-1.7000
G01 Z0
G00 Z2.0000
G00 X9.0621 Y43.9421
G01 Z-1.7000
G01 Z0
G00 Z2.0000
M05
G00 Z0.50


